/* XPM */
static char * East_xpm[] = {
"128 128 11074 3",
"   	c None",
".  	c #B89D9C",
"+  	c #C0A6A4",
"@  	c #C4ABA9",
"#  	c #C4ADAA",
"$  	c #BCA7A4",
"%  	c #BAA6A3",
"&  	c #B9A29E",
"*  	c #B89F99",
"=  	c #B89D96",
"-  	c #B99D96",
";  	c #B89C95",
">  	c #B69A93",
",  	c #BEA29C",
"'  	c #B29790",
")  	c #BFA7A0",
"!  	c #BDA59D",
"~  	c #BBA39B",
"{  	c #C5ADA5",
"]  	c #BBA49C",
"^  	c #AF978F",
"/  	c #AD958D",
"(  	c #BDA19C",
"_  	c #B1928F",
":  	c #A58582",
"<  	c #A1827F",
"[  	c #A28380",
"}  	c #A58683",
"|  	c #AB8C89",
"1  	c #AB8D8A",
"2  	c #B09492",
"3  	c #AE9492",
"4  	c #AB9090",
"5  	c #B09594",
"6  	c #B89E9D",
"7  	c #B89F9E",
"8  	c #A28887",
"9  	c #AE9597",
"0  	c #A6898F",
"a  	c #9A7E84",
"b  	c #8C7172",
"c  	c #826969",
"d  	c #80706F",
"e  	c #797472",
"f  	c #6A6B69",
"g  	c #707373",
"h  	c #7C7C7D",
"i  	c #827677",
"j  	c #998380",
"k  	c #A4948D",
"l  	c #ABA299",
"m  	c #ABA197",
"n  	c #A89898",
"o  	c #B7A7A9",
"p  	c #BEADAE",
"q  	c #BBA8A9",
"r  	c #C1ADAD",
"s  	c #C7B4B3",
"t  	c #C8B4B2",
"u  	c #CAB4B3",
"v  	c #C7B1B0",
"w  	c #C9B0B4",
"x  	c #B89EA1",
"y  	c #C0A6AA",
"z  	c #CAB1B5",
"A  	c #B4999D",
"B  	c #BDA3A7",
"C  	c #C5ADB0",
"D  	c #B3A8AA",
"E  	c #B8B0B1",
"F  	c #ACA7A8",
"G  	c #A2999B",
"H  	c #A09598",
"I  	c #B19CA2",
"J  	c #C6A9B1",
"K  	c #CCAFB6",
"L  	c #C0A8A7",
"M  	c #C2AAA8",
"N  	c #BBA4A2",
"O  	c #C0A9A7",
"P  	c #BCA5A3",
"Q  	c #A78A8B",
"R  	c #AE8B8F",
"S  	c #B09292",
"T  	c #A18685",
"U  	c #896F6F",
"V  	c #AF959C",
"W  	c #B4A1A9",
"X  	c #9B959E",
"Y  	c #818691",
"Z  	c #868390",
"`  	c #8F8792",
" . 	c #8E848B",
".. 	c #8D7F7F",
"+. 	c #887878",
"@. 	c #887979",
"#. 	c #988889",
"$. 	c #988B8E",
"%. 	c #9C9095",
"&. 	c #9E9297",
"*. 	c #AA9CA1",
"=. 	c #AB9DA3",
"-. 	c #A9989E",
";. 	c #A7969C",
">. 	c #A7959B",
",. 	c #A8969B",
"'. 	c #A9979C",
"). 	c #AA989D",
"!. 	c #8E7C81",
"~. 	c #A49297",
"{. 	c #AB999E",
"]. 	c #C2ADAF",
"^. 	c #C1ABAD",
"/. 	c #B6A3A4",
"(. 	c #C1AEAE",
"_. 	c #B8A6A6",
":. 	c #BAA9A9",
"<. 	c #C1B1B0",
"[. 	c #BBABA9",
"}. 	c #B2A4A0",
"|. 	c #B1A29D",
"1. 	c #B09F9A",
"2. 	c #AD9A96",
"3. 	c #B39C9A",
"4. 	c #B39A99",
"5. 	c #AE9493",
"6. 	c #956565",
"7. 	c #A07070",
"8. 	c #A67878",
"9. 	c #A27675",
"0. 	c #A47978",
"a. 	c #A27876",
"b. 	c #A17471",
"c. 	c #9D6E69",
"d. 	c #986862",
"e. 	c #92635D",
"f. 	c #8D5E59",
"g. 	c #8A5B56",
"h. 	c #8C5E58",
"i. 	c #895A55",
"j. 	c #865B56",
"k. 	c #825752",
"l. 	c #7C524C",
"m. 	c #865B55",
"n. 	c #815650",
"o. 	c #885C56",
"p. 	c #875A55",
"q. 	c #8B5B59",
"r. 	c #8D5C59",
"s. 	c #8E5E5B",
"t. 	c #91605D",
"u. 	c #926260",
"v. 	c #956461",
"w. 	c #956563",
"x. 	c #8C5E5D",
"y. 	c #8E605F",
"z. 	c #906161",
"A. 	c #926564",
"B. 	c #8C5F5F",
"C. 	c #744848",
"D. 	c #845B5B",
"E. 	c #855D5E",
"F. 	c #7B5353",
"G. 	c #765150",
"H. 	c #785957",
"I. 	c #775F5F",
"J. 	c #716969",
"K. 	c #7F7C7E",
"L. 	c #868688",
"M. 	c #8F7F80",
"N. 	c #876A6B",
"O. 	c #855E5C",
"P. 	c #825E59",
"Q. 	c #74564F",
"R. 	c #785752",
"S. 	c #825D5A",
"T. 	c #835F5B",
"U. 	c #7D5855",
"V. 	c #7A5551",
"W. 	c #79554F",
"X. 	c #7D5750",
"Y. 	c #845B54",
"Z. 	c #855C55",
"`. 	c #815751",
" + 	c #7D544E",
".+ 	c #7C504C",
"++ 	c #7B514C",
"@+ 	c #825853",
"#+ 	c #845853",
"$+ 	c #7C514B",
"%+ 	c #845A55",
"&+ 	c #75524D",
"*+ 	c #805E58",
"=+ 	c #896862",
"-+ 	c #93726C",
";+ 	c #8F6C66",
">+ 	c #875F5C",
",+ 	c #855A58",
"'+ 	c #835757",
")+ 	c #785250",
"!+ 	c #6E4948",
"~+ 	c #6F4948",
"{+ 	c #795251",
"]+ 	c #825A59",
"^+ 	c #88605E",
"/+ 	c #895F5F",
"(+ 	c #895F60",
"_+ 	c #7F5B5A",
":+ 	c #84615E",
"<+ 	c #87625F",
"[+ 	c #8A676B",
"}+ 	c #A78C93",
"|+ 	c #AA9BA2",
"1+ 	c #9997A0",
"2+ 	c #A7A2AB",
"3+ 	c #ADA3A9",
"4+ 	c #A29295",
"5+ 	c #9D8584",
"6+ 	c #9D8281",
"7+ 	c #A38583",
"8+ 	c #957676",
"9+ 	c #8D6B6A",
"0+ 	c #8B6965",
"a+ 	c #8D6B68",
"b+ 	c #8D6765",
"c+ 	c #8B6463",
"d+ 	c #845D5C",
"e+ 	c #825A5A",
"f+ 	c #805757",
"g+ 	c #7B5351",
"h+ 	c #7D5552",
"i+ 	c #825956",
"j+ 	c #78504E",
"k+ 	c #784D4A",
"l+ 	c #825A58",
"m+ 	c #7A524F",
"n+ 	c #865D5F",
"o+ 	c #7A5355",
"p+ 	c #7D5657",
"q+ 	c #7E595A",
"r+ 	c #8F696A",
"s+ 	c #846161",
"t+ 	c #856262",
"u+ 	c #886565",
"v+ 	c #8A6665",
"w+ 	c #84605F",
"x+ 	c #7B5655",
"y+ 	c #835B5B",
"z+ 	c #8B6062",
"A+ 	c #855A5B",
"B+ 	c #885A5C",
"C+ 	c #935C5D",
"D+ 	c #9B6565",
"E+ 	c #A26D6E",
"F+ 	c #9C6A69",
"G+ 	c #A27170",
"H+ 	c #A06F6D",
"I+ 	c #9D6A67",
"J+ 	c #99645F",
"K+ 	c #955F59",
"L+ 	c #915B55",
"M+ 	c #8C5651",
"N+ 	c #88524D",
"O+ 	c #89534D",
"P+ 	c #8A534E",
"Q+ 	c #8C5852",
"R+ 	c #85514C",
"S+ 	c #79453F",
"T+ 	c #824E48",
"U+ 	c #804B46",
"V+ 	c #89554F",
"W+ 	c #87534E",
"X+ 	c #87524E",
"Y+ 	c #8B5553",
"Z+ 	c #8F5A57",
"`+ 	c #925C58",
" @ 	c #925D5A",
".@ 	c #915C59",
"+@ 	c #915B5A",
"@@ 	c #875351",
"#@ 	c #895554",
"$@ 	c #885655",
"%@ 	c #895756",
"&@ 	c #865453",
"*@ 	c #8A5857",
"=@ 	c #774645",
"-@ 	c #805151",
";@ 	c #7E5352",
">@ 	c #734948",
",@ 	c #714A48",
"'@ 	c #71514F",
")@ 	c #705959",
"!@ 	c #706769",
"~@ 	c #817E81",
"{@ 	c #878689",
"]@ 	c #897778",
"^@ 	c #806162",
"/@ 	c #7E5452",
"(@ 	c #7B524F",
"_@ 	c #704B45",
":@ 	c #734A47",
"<@ 	c #7B504D",
"[@ 	c #794F4A",
"}@ 	c #754B44",
"|@ 	c #734841",
"1@ 	c #6F433A",
"2@ 	c #6F4239",
"3@ 	c #75473C",
"4@ 	c #77493E",
"5@ 	c #75463C",
"6@ 	c #6F4036",
"7@ 	c #714037",
"8@ 	c #6F3F35",
"9@ 	c #74443C",
"0@ 	c #7B4A41",
"a@ 	c #703F36",
"b@ 	c #75463D",
"c@ 	c #6C3E36",
"d@ 	c #70473F",
"e@ 	c #7A534B",
"f@ 	c #855F56",
"g@ 	c #805A52",
"h@ 	c #784D46",
"i@ 	c #764540",
"j@ 	c #754440",
"k@ 	c #744645",
"l@ 	c #6A3D3B",
"m@ 	c #633634",
"n@ 	c #6F4140",
"o@ 	c #794B49",
"p@ 	c #7D504E",
"q@ 	c #825454",
"r@ 	c #815454",
"s@ 	c #784F4E",
"t@ 	c #7B5652",
"u@ 	c #7F5756",
"v@ 	c #7C565A",
"w@ 	c #95797F",
"x@ 	c #9E8E94",
"y@ 	c #97939B",
"z@ 	c #A6A2A9",
"A@ 	c #AA9FA4",
"B@ 	c #988789",
"C@ 	c #987C7B",
"D@ 	c #997A79",
"E@ 	c #9B7B79",
"F@ 	c #926E6E",
"G@ 	c #8C6463",
"H@ 	c #8A625D",
"I@ 	c #88605C",
"J@ 	c #895D59",
"K@ 	c #885A57",
"L@ 	c #835350",
"M@ 	c #81524F",
"N@ 	c #7E4D4A",
"O@ 	c #794742",
"P@ 	c #7C4B45",
"Q@ 	c #82504A",
"R@ 	c #76443F",
"S@ 	c #71413B",
"T@ 	c #7A4B47",
"U@ 	c #75433D",
"V@ 	c #7E4D4F",
"W@ 	c #774548",
"X@ 	c #7C4D4E",
"Y@ 	c #7A4B4D",
"Z@ 	c #885C5E",
"`@ 	c #815657",
" # 	c #815556",
".# 	c #835858",
"+# 	c #805453",
"@# 	c #7C4E4E",
"## 	c #835353",
"$# 	c #815153",
"%# 	c #7F4D4F",
"&# 	c #875255",
"*# 	c #995A5A",
"=# 	c #995B5B",
"-# 	c #A06363",
";# 	c #975C5B",
"># 	c #A56968",
",# 	c #A26967",
"'# 	c #995E5B",
")# 	c #965853",
"!# 	c #975953",
"~# 	c #985A54",
"{# 	c #93554F",
"]# 	c #93534F",
"^# 	c #995955",
"/# 	c #A96D66",
"(# 	c #9F635D",
"_# 	c #884B44",
":# 	c #8D514A",
"<# 	c #90544E",
"[# 	c #965A54",
"}# 	c #945851",
"|# 	c #985C59",
"1# 	c #9C625E",
"2# 	c #9E6460",
"3# 	c #985E5B",
"4# 	c #935956",
"5# 	c #8E5652",
"6# 	c #8E5451",
"7# 	c #844A47",
"8# 	c #864B49",
"9# 	c #834A48",
"0# 	c #7F4644",
"a# 	c #874F4D",
"b# 	c #87504E",
"c# 	c #8D5755",
"d# 	c #865350",
"e# 	c #7D4D49",
"f# 	c #71413E",
"g# 	c #6E4341",
"h# 	c #6B4745",
"i# 	c #685151",
"j# 	c #756B6D",
"k# 	c #888488",
"l# 	c #8D8A8D",
"m# 	c #806B6A",
"n# 	c #755555",
"o# 	c #7A4D4B",
"p# 	c #7C4E4B",
"q# 	c #7B514B",
"r# 	c #794C48",
"s# 	c #7C4C49",
"t# 	c #794944",
"u# 	c #7B4C44",
"v# 	c #7B4B42",
"w# 	c #734239",
"x# 	c #6C3A30",
"y# 	c #6E3A31",
"z# 	c #713D32",
"A# 	c #764137",
"B# 	c #6E392E",
"C# 	c #6F3A30",
"D# 	c #6F3A2E",
"E# 	c #713C32",
"F# 	c #774137",
"G# 	c #703A30",
"H# 	c #6B352B",
"I# 	c #6C352B",
"J# 	c #642D23",
"K# 	c #632E23",
"L# 	c #69362A",
"M# 	c #663427",
"N# 	c #653124",
"O# 	c #6A3227",
"P# 	c #713B35",
"Q# 	c #83514F",
"R# 	c #7D4C49",
"S# 	c #663532",
"T# 	c #72413F",
"U# 	c #764542",
"V# 	c #814D4C",
"W# 	c #7D4D4B",
"X# 	c #774B48",
"Y# 	c #724944",
"Z# 	c #714644",
"`# 	c #633B3B",
" $ 	c #6A484C",
".$ 	c #7D6B6F",
"+$ 	c #938C91",
"@$ 	c #A39EA3",
"#$ 	c #A29597",
"$$ 	c #7D6969",
"%$ 	c #896767",
"&$ 	c #8C6564",
"*$ 	c #845958",
"=$ 	c #8B6060",
"-$ 	c #8E5F5C",
";$ 	c #915F59",
">$ 	c #834F49",
",$ 	c #89524E",
"'$ 	c #8A524E",
")$ 	c #8E5551",
"!$ 	c #8D534F",
"~$ 	c #844A45",
"{$ 	c #80453D",
"]$ 	c #8B4F47",
"^$ 	c #8F544C",
"/$ 	c #662C25",
"($ 	c #6E322B",
"_$ 	c #773B34",
":$ 	c #7F4546",
"<$ 	c #874D51",
"[$ 	c #8D5657",
"}$ 	c #885153",
"|$ 	c #855052",
"1$ 	c #8C5859",
"2$ 	c #8B5859",
"3$ 	c #845151",
"4$ 	c #7E4A4A",
"5$ 	c #824D4D",
"6$ 	c #8E5757",
"7$ 	c #733B3A",
"8$ 	c #7E4545",
"9$ 	c #8F5556",
"0$ 	c #90504B",
"a$ 	c #975853",
"b$ 	c #965953",
"c$ 	c #945852",
"d$ 	c #9C615B",
"e$ 	c #9E645D",
"f$ 	c #9F645B",
"g$ 	c #9B5F54",
"h$ 	c #995D52",
"i$ 	c #93574C",
"j$ 	c #8F5347",
"k$ 	c #8E5247",
"l$ 	c #975A4F",
"m$ 	c #9F6358",
"n$ 	c #985B50",
"o$ 	c #8F5247",
"p$ 	c #92574B",
"q$ 	c #9F6357",
"r$ 	c #9E6156",
"s$ 	c #9B6054",
"t$ 	c #985D53",
"u$ 	c #91564E",
"v$ 	c #8D534A",
"w$ 	c #8F554D",
"x$ 	c #90574F",
"y$ 	c #8C544C",
"z$ 	c #8C554C",
"A$ 	c #8D554D",
"B$ 	c #874E46",
"C$ 	c #7F453F",
"D$ 	c #7E463F",
"E$ 	c #844D45",
"F$ 	c #7C463F",
"G$ 	c #733E38",
"H$ 	c #7F4C45",
"I$ 	c #744039",
"J$ 	c #6E3B34",
"K$ 	c #6D3F3B",
"L$ 	c #5C3735",
"M$ 	c #523E40",
"N$ 	c #71666C",
"O$ 	c #827D82",
"P$ 	c #868386",
"Q$ 	c #7F6D69",
"R$ 	c #7B5F5A",
"S$ 	c #6B423C",
"T$ 	c #693F38",
"U$ 	c #6E463E",
"V$ 	c #71443F",
"W$ 	c #724340",
"X$ 	c #6F413F",
"Y$ 	c #734542",
"Z$ 	c #70413D",
"`$ 	c #653631",
" % 	c #64322D",
".% 	c #693731",
"+% 	c #67342E",
"@% 	c #65342C",
"#% 	c #67362E",
"$% 	c #68362E",
"%% 	c #67352D",
"&% 	c #6A372F",
"*% 	c #6C3932",
"=% 	c #67332C",
"-% 	c #602C25",
";% 	c #682E27",
">% 	c #662E25",
",% 	c #602921",
"'% 	c #69342B",
")% 	c #69332A",
"!% 	c #6A352D",
"~% 	c #6D3B32",
"{% 	c #73443D",
"]% 	c #70413A",
"^% 	c #6A3832",
"/% 	c #6A3A34",
"(% 	c #6C3D36",
"_% 	c #6E3E37",
":% 	c #6C3933",
"<% 	c #6F3A36",
"[% 	c #693732",
"}% 	c #74433C",
"|% 	c #75433F",
"1% 	c #5F312F",
"2% 	c #5E3637",
"3% 	c #7B6364",
"4% 	c #938688",
"5% 	c #999193",
"6% 	c #9B8B8A",
"7% 	c #7B615F",
"8% 	c #895C5A",
"9% 	c #905D5B",
"0% 	c #935F5D",
"a% 	c #8E5858",
"b% 	c #8A5655",
"c% 	c #8C5754",
"d% 	c #864E4D",
"e% 	c #783E3D",
"f% 	c #6C3433",
"g% 	c #7A4040",
"h% 	c #864847",
"i% 	c #7E4140",
"j% 	c #723533",
"k% 	c #6F3431",
"l% 	c #814240",
"m% 	c #874847",
"n% 	c #8C4C4C",
"o% 	c #8B4B4A",
"p% 	c #824746",
"q% 	c #854A4A",
"r% 	c #925B58",
"s% 	c #8C5553",
"t% 	c #935E5A",
"u% 	c #8F5B56",
"v% 	c #8D5A57",
"w% 	c #885451",
"x% 	c #834E4A",
"y% 	c #844E4B",
"z% 	c #8D5654",
"A% 	c #945D5A",
"B% 	c #895351",
"C% 	c #88524F",
"D% 	c #96615E",
"E% 	c #8D4D46",
"F% 	c #94564F",
"G% 	c #93574F",
"H% 	c #935850",
"I% 	c #9A5F57",
"J% 	c #9D635A",
"K% 	c #9F645A",
"L% 	c #995E51",
"M% 	c #985D50",
"N% 	c #905548",
"O% 	c #8C5244",
"P% 	c #8C5044",
"Q% 	c #94594C",
"R% 	c #9B6053",
"S% 	c #95594C",
"T% 	c #905447",
"U% 	c #92574A",
"V% 	c #A06457",
"W% 	c #9E6256",
"X% 	c #9C6053",
"Y% 	c #965C51",
"Z% 	c #8F544A",
"`% 	c #884F45",
" & 	c #8A5247",
".& 	c #8B534A",
"+& 	c #875147",
"@& 	c #875248",
"#& 	c #885249",
"$& 	c #834D44",
"%& 	c #7B453D",
"&& 	c #79443C",
"*& 	c #7E4B42",
"=& 	c #734139",
"-& 	c #693730",
";& 	c #74443D",
">& 	c #76453E",
",& 	c #6A3830",
"'& 	c #66362E",
")& 	c #623732",
"!& 	c #4E2C2A",
"~& 	c #463538",
"{& 	c #685E63",
"]& 	c #787278",
"^& 	c #7A777A",
"/& 	c #72635E",
"(& 	c #705751",
"_& 	c #603A34",
":& 	c #5D3830",
"<& 	c #613D35",
"[& 	c #653C36",
"}& 	c #653A38",
"|& 	c #643A38",
"1& 	c #673D3B",
"2& 	c #643937",
"3& 	c #5B2F2D",
"4& 	c #5B2E2A",
"5& 	c #60322D",
"6& 	c #5C2E2A",
"7& 	c #5A2D27",
"8& 	c #5E312C",
"9& 	c #5D302A",
"0& 	c #5D2F29",
"a& 	c #5F302B",
"b& 	c #5C2D28",
"c& 	c #562621",
"d& 	c #5E2A24",
"e& 	c #5D2922",
"f& 	c #58241D",
"g& 	c #612E27",
"h& 	c #633129",
"i& 	c #612F28",
"j& 	c #62322A",
"k& 	c #65372E",
"l& 	c #673C34",
"m& 	c #653931",
"n& 	c #61342E",
"o& 	c #5F342D",
"p& 	c #633730",
"q& 	c #643730",
"r& 	c #5F2F29",
"s& 	c #63302C",
"t& 	c #602E29",
"u& 	c #6B3B35",
"v& 	c #6D3D38",
"w& 	c #592B2A",
"x& 	c #592F31",
"y& 	c #755B5C",
"z& 	c #8C7E7E",
"A& 	c #8F8888",
"B& 	c #928281",
"C& 	c #765A58",
"D& 	c #845553",
"E& 	c #8B5856",
"F& 	c #8A5453",
"G& 	c #885352",
"H& 	c #885452",
"I& 	c #834C4C",
"J& 	c #753C3D",
"K& 	c #632A2C",
"L& 	c #73393A",
"M& 	c #814445",
"N& 	c #7B3D3E",
"O& 	c #6E3132",
"P& 	c #692C2C",
"Q& 	c #814242",
"R& 	c #8C4D4D",
"S& 	c #915152",
"T& 	c #8E4E4E",
"U& 	c #824845",
"V& 	c #844947",
"W& 	c #925C57",
"X& 	c #8D5652",
"Y& 	c #95615B",
"Z& 	c #905C56",
"`& 	c #8E5B56",
" * 	c #895551",
".* 	c #844F4B",
"+* 	c #854F4B",
"@* 	c #8C5653",
"#* 	c #945E5B",
"$* 	c #8D5855",
"%* 	c #8A5551",
"&* 	c #98635F",
"** 	c #874B43",
"=* 	c #884D45",
"-* 	c #925950",
";* 	c #945B52",
">* 	c #986257",
",* 	c #9A645A",
"'* 	c #966054",
")* 	c #955E4F",
"!* 	c #965E4F",
"~* 	c #905849",
"{* 	c #824A3B",
"]* 	c #834C3D",
"^* 	c #7F4738",
"/* 	c #874F41",
"(* 	c #955C4E",
"_* 	c #905748",
":* 	c #8B5243",
"<* 	c #8E5546",
"[* 	c #925A4C",
"}* 	c #955B4D",
"|* 	c #945C4E",
"1* 	c #8E564A",
"2* 	c #8E564B",
"3* 	c #8D554B",
"4* 	c #885248",
"5* 	c #844E44",
"6* 	c #814D43",
"7* 	c #7F4C43",
"8* 	c #7D4B42",
"9* 	c #7E4D43",
"0* 	c #805046",
"a* 	c #794941",
"b* 	c #76483F",
"c* 	c #673B33",
"d* 	c #63382F",
"e* 	c #633932",
"f* 	c #673B35",
"g* 	c #5C2F29",
"h* 	c #48211D",
"i* 	c #2A0807",
"j* 	c #3C2E31",
"k* 	c #61575A",
"l* 	c #6D686D",
"m* 	c #6F6C6F",
"n* 	c #5F514D",
"o* 	c #59443F",
"p* 	c #573731",
"q* 	c #55362E",
"r* 	c #52342C",
"s* 	c #53322B",
"t* 	c #522F2E",
"u* 	c #522F2F",
"v* 	c #553332",
"w* 	c #542F2F",
"x* 	c #542F2E",
"y* 	c #56302E",
"z* 	c #552E2B",
"A* 	c #512927",
"B* 	c #512B28",
"C* 	c #57312E",
"D* 	c #502927",
"E* 	c #4C2523",
"F* 	c #532B29",
"G* 	c #4F2825",
"H* 	c #4A221F",
"I* 	c #532924",
"J* 	c #4B1F1B",
"K* 	c #4D211C",
"L* 	c #552825",
"M* 	c #572A26",
"N* 	c #542A25",
"O* 	c #572F29",
"P* 	c #5F3630",
"Q* 	c #5B342D",
"R* 	c #58312A",
"S* 	c #532C25",
"T* 	c #4F2821",
"U* 	c #5C362F",
"V* 	c #583129",
"W* 	c #542923",
"X* 	c #562622",
"Y* 	c #572924",
"Z* 	c #5D302B",
"`* 	c #572928",
" = 	c #5C3536",
".= 	c #6D5453",
"+= 	c #7F7272",
"@= 	c #898282",
"#= 	c #817270",
"$= 	c #694D4B",
"%= 	c #7A4C4C",
"&= 	c #82514E",
"*= 	c #825150",
"== 	c #885859",
"-= 	c #835556",
";= 	c #825052",
">= 	c #804D50",
",= 	c #885154",
"'= 	c #703A3E",
")= 	c #662C32",
"!= 	c #64292E",
"~= 	c #692F32",
"{= 	c #7F4447",
"]= 	c #783E41",
"^= 	c #824648",
"/= 	c #874A4D",
"(= 	c #8B4E51",
"_= 	c #884C4E",
":= 	c #7F4744",
"<= 	c #7F4943",
"[= 	c #8E5A54",
"}= 	c #88564F",
"|= 	c #93615A",
"1= 	c #91615A",
"2= 	c #8D5D55",
"3= 	c #895852",
"4= 	c #87544F",
"5= 	c #87534F",
"6= 	c #895752",
"7= 	c #8D5C57",
"8= 	c #8A5954",
"9= 	c #885752",
"0= 	c #946560",
"a= 	c #82433E",
"b= 	c #844741",
"c= 	c #935751",
"d= 	c #955953",
"e= 	c #955C54",
"f= 	c #965D55",
"g= 	c #945B51",
"h= 	c #8E5649",
"i= 	c #895143",
"j= 	c #884F42",
"k= 	c #8A5144",
"l= 	c #8C5447",
"m= 	c #8C5446",
"n= 	c #91584C",
"o= 	c #9A5F53",
"p= 	c #975A4E",
"q= 	c #965A4E",
"r= 	c #975D50",
"s= 	c #93574A",
"t= 	c #955A4E",
"u= 	c #955B4F",
"v= 	c #975B54",
"w= 	c #965B52",
"x= 	c #91564F",
"y= 	c #8A5149",
"z= 	c #834B44",
"A= 	c #78423B",
"B= 	c #733E37",
"C= 	c #723E38",
"D= 	c #6D3C34",
"E= 	c #6E3F36",
"F= 	c #693B33",
"G= 	c #62362E",
"H= 	c #643932",
"I= 	c #5D342D",
"J= 	c #5A322B",
"K= 	c #562F29",
"L= 	c #4E2A26",
"M= 	c #4E2B26",
"N= 	c #422320",
"O= 	c #321918",
"P= 	c #3A2E2F",
"Q= 	c #554E51",
"R= 	c #605D60",
"S= 	c #646164",
"T= 	c #4F403C",
"U= 	c #4E3836",
"V= 	c #492C27",
"W= 	c #482C26",
"X= 	c #432A23",
"Y= 	c #452A25",
"Z= 	c #452826",
"`= 	c #482A28",
" - 	c #482A27",
".- 	c #462725",
"+- 	c #452622",
"@- 	c #462622",
"#- 	c #482622",
"$- 	c #462521",
"%- 	c #42211E",
"&- 	c #482826",
"*- 	c #492826",
"=- 	c #4B2B29",
"-- 	c #4A2A28",
";- 	c #4D2D2A",
">- 	c #4C2B29",
",- 	c #4A2A27",
"'- 	c #4C2D26",
")- 	c #482821",
"!- 	c #45221C",
"~- 	c #48221D",
"{- 	c #4B2420",
"]- 	c #4C2722",
"^- 	c #4D2823",
"/- 	c #502C27",
"(- 	c #502C26",
"_- 	c #4E2A24",
":- 	c #4B2621",
"<- 	c #49251F",
"[- 	c #4D2923",
"}- 	c #4A2520",
"|- 	c #4A221E",
"1- 	c #4A201D",
"2- 	c #4E2621",
"3- 	c #502923",
"4- 	c #542C27",
"5- 	c #4E2523",
"6- 	c #512E2E",
"7- 	c #624C4C",
"8- 	c #736968",
"9- 	c #797474",
"0- 	c #7C6E6D",
"a- 	c #674F4E",
"b- 	c #6F4745",
"c- 	c #754946",
"d- 	c #784B49",
"e- 	c #79524E",
"f- 	c #825856",
"g- 	c #805553",
"h- 	c #805251",
"i- 	c #7F4F4E",
"j- 	c #825050",
"k- 	c #7B4847",
"l- 	c #7A4544",
"m- 	c #7D4847",
"n- 	c #814A48",
"o- 	c #844B4A",
"p- 	c #804745",
"q- 	c #804947",
"r- 	c #8A5150",
"s- 	c #8E5553",
"t- 	c #8B5251",
"u- 	c #834A47",
"v- 	c #8E5854",
"w- 	c #8D5854",
"x- 	c #8D5954",
"y- 	c #8A5752",
"z- 	c #83524D",
"A- 	c #804E4A",
"B- 	c #824C4A",
"C- 	c #864F4E",
"D- 	c #8B5554",
"E- 	c #8D5957",
"F- 	c #8A5855",
"G- 	c #8B5B58",
"H- 	c #956663",
"I- 	c #7F3F3B",
"J- 	c #83443F",
"K- 	c #945652",
"L- 	c #955853",
"M- 	c #935853",
"N- 	c #92584F",
"O- 	c #8B5146",
"P- 	c #834A3D",
"Q- 	c #844A3F",
"R- 	c #8E5448",
"S- 	c #90574B",
"T- 	c #92594C",
"U- 	c #955C50",
"V- 	c #9C6055",
"W- 	c #9A5C51",
"X- 	c #9A5E53",
"Y- 	c #9C5F54",
"Z- 	c #93564B",
"`- 	c #94594E",
" ; 	c #955A50",
".; 	c #9A5D56",
"+; 	c #985C55",
"@; 	c #91554F",
"#; 	c #894F49",
"$; 	c #804741",
"%; 	c #703934",
"&; 	c #69342E",
"*; 	c #693531",
"=; 	c #62322B",
"-; 	c #61342C",
";; 	c #5C3129",
">; 	c #532A23",
",; 	c #542E28",
"'; 	c #432421",
"); 	c #412421",
"!; 	c #39201E",
"~; 	c #2F1B1A",
"{; 	c #352A2B",
"]; 	c #494446",
"^; 	c #514F52",
"/; 	c #555354",
"(; 	c #3F302F",
"_; 	c #422D2C",
":; 	c #3C221F",
"<; 	c #3B231F",
"[; 	c #37221C",
"}; 	c #38221D",
"|; 	c #3C2321",
"1; 	c #3B221E",
"2; 	c #391F1C",
"3; 	c #381D19",
"4; 	c #391D19",
"5; 	c #3A1F1A",
"6; 	c #3B1E1A",
"7; 	c #361A17",
"8; 	c #3B201E",
"9; 	c #3F2321",
"0; 	c #422625",
"a; 	c #432826",
"b; 	c #432725",
"c; 	c #422724",
"d; 	c #422922",
"e; 	c #3F241E",
"f; 	c #3C1F19",
"g; 	c #3B1B17",
"h; 	c #3F1E1A",
"i; 	c #42211D",
"j; 	c #41221D",
"k; 	c #43241F",
"l; 	c #44231F",
"m; 	c #43231E",
"n; 	c #41201C",
"o; 	c #401F1B",
"p; 	c #41201B",
"q; 	c #3F1D19",
"r; 	c #3F1C18",
"s; 	c #3F1A17",
"t; 	c #44211C",
"u; 	c #46241E",
"v; 	c #4A2722",
"w; 	c #44211F",
"x; 	c #462727",
"y; 	c #584544",
"z; 	c #675F5E",
"A; 	c #6A6867",
"B; 	c #736766",
"C; 	c #624C4B",
"D; 	c #664140",
"E; 	c #6B4340",
"F; 	c #6D4642",
"G; 	c #72514C",
"H; 	c #7C5652",
"I; 	c #7D5451",
"J; 	c #7E524F",
"K; 	c #7E504C",
"L; 	c #7F4E4C",
"M; 	c #7F4C49",
"N; 	c #814D4A",
"O; 	c #87514E",
"P; 	c #8A5350",
"Q; 	c #864E4A",
"R; 	c #834C48",
"S; 	c #804945",
"T; 	c #8B5451",
"U; 	c #905854",
"V; 	c #8D5552",
"W; 	c #8F5855",
"X; 	c #905956",
"Y; 	c #8A5652",
"Z; 	c #86534F",
"`; 	c #7F4C48",
" > 	c #7C4846",
".> 	c #7F4848",
"+> 	c #854C4D",
"@> 	c #8B5455",
"#> 	c #8C5757",
"$> 	c #8A5856",
"%> 	c #8C5C5A",
"&> 	c #956664",
"*> 	c #813D3B",
"=> 	c #864241",
"-> 	c #935250",
";> 	c #92524F",
">> 	c #8F504D",
",> 	c #8D504C",
"'> 	c #8E514B",
")> 	c #8C5047",
"!> 	c #874B41",
"~> 	c #86493F",
"{> 	c #8E5147",
"]> 	c #905349",
"^> 	c #94574D",
"/> 	c #96594F",
"(> 	c #9C5C53",
"_> 	c #995950",
":> 	c #9F5F56",
"<> 	c #9A5B52",
"[> 	c #985B52",
"}> 	c #95584F",
"|> 	c #9F5F5A",
"1> 	c #9C5C58",
"2> 	c #925450",
"3> 	c #894C48",
"4> 	c #7C413E",
"5> 	c #662D2A",
"6> 	c #612A27",
"7> 	c #64302D",
"8> 	c #63322E",
"9> 	c #582C27",
"0> 	c #572D28",
"a> 	c #562E29",
"b> 	c #502A26",
"c> 	c #492622",
"d> 	c #3F221F",
"e> 	c #3D2422",
"f> 	c #38211F",
"g> 	c #34201E",
"h> 	c #372626",
"i> 	c #3E3434",
"j> 	c #433E40",
"k> 	c #3D3C3E",
"l> 	c #403E40",
"m> 	c #332424",
"n> 	c #342122",
"o> 	c #311A19",
"p> 	c #2E1916",
"q> 	c #2D1B17",
"r> 	c #2D1A17",
"s> 	c #2F1917",
"t> 	c #321D19",
"u> 	c #2E1914",
"v> 	c #2B1510",
"w> 	c #2A130E",
"x> 	c #2B130E",
"y> 	c #2C140E",
"z> 	c #2E1610",
"A> 	c #2E1612",
"B> 	c #301815",
"C> 	c #361E1B",
"D> 	c #341C1A",
"E> 	c #38201D",
"F> 	c #371F1C",
"G> 	c #341D19",
"H> 	c #342019",
"I> 	c #331D16",
"J> 	c #321A14",
"K> 	c #321612",
"L> 	c #331611",
"M> 	c #341813",
"N> 	c #361B16",
"O> 	c #361A16",
"P> 	c #331613",
"Q> 	c #341613",
"R> 	c #351714",
"S> 	c #331513",
"T> 	c #3B1C1A",
"U> 	c #381A17",
"V> 	c #321310",
"W> 	c #351613",
"X> 	c #341713",
"Y> 	c #3F201C",
"Z> 	c #3C1D1C",
"`> 	c #3D2222",
" , 	c #4E3F3F",
"., 	c #5F5858",
"+, 	c #605D5E",
"@, 	c #655C5C",
"#, 	c #584444",
"$, 	c #5F3D3C",
"%, 	c #623E3C",
"&, 	c #66423F",
"*, 	c #6D514D",
"=, 	c #75514B",
"-, 	c #795048",
";, 	c #7E524B",
">, 	c #7E5049",
",, 	c #76453F",
"', 	c #7A4640",
"), 	c #804A44",
"!, 	c #844E46",
"~, 	c #8E554D",
"{, 	c #895048",
"], 	c #874D44",
"^, 	c #8B5249",
"/, 	c #90564D",
"(, 	c #8E5050",
"_, 	c #88494A",
":, 	c #965A5A",
"<, 	c #985D5D",
"[, 	c #955C5B",
"}, 	c #834B4A",
"|, 	c #7D4144",
"1, 	c #83464B",
"2, 	c #8A4D52",
"3, 	c #894F53",
"4, 	c #8D5558",
"5, 	c #915C5E",
"6, 	c #976465",
"7, 	c #803D39",
"8, 	c #864340",
"9, 	c #904F4B",
"0, 	c #93524E",
"a, 	c #8F4F4B",
"b, 	c #8D4E49",
"c, 	c #8C4E48",
"d, 	c #8D5048",
"e, 	c #8A4D44",
"f, 	c #884B43",
"g, 	c #90534A",
"h, 	c #92564D",
"i, 	c #965950",
"j, 	c #975A51",
"k, 	c #9B5951",
"l, 	c #9B5A52",
"m, 	c #985850",
"n, 	c #97584F",
"o, 	c #9A5C53",
"p, 	c #965850",
"q, 	c #90554D",
"r, 	c #935651",
"s, 	c #8A4F4A",
"t, 	c #804742",
"u, 	c #723D38",
"v, 	c #5D2823",
"w, 	c #572521",
"x, 	c #5A2B26",
"y, 	c #572B27",
"z, 	c #522B26",
"A, 	c #4E2924",
"B, 	c #492722",
"C, 	c #3D201B",
"D, 	c #311916",
"E, 	c #2E1918",
"F, 	c #2B1817",
"G, 	c #261615",
"H, 	c #271A1A",
"I, 	c #2D2425",
"J, 	c #322F30",
"K, 	c #2F2E30",
"L, 	c #302F30",
"M, 	c #241818",
"N, 	c #251616",
"O, 	c #231010",
"P, 	c #22110F",
"Q, 	c #221310",
"R, 	c #231311",
"S, 	c #231210",
"T, 	c #261410",
"U, 	c #22100C",
"V, 	c #200D09",
"W, 	c #210D09",
"X, 	c #230F0A",
"Y, 	c #25110D",
"Z, 	c #25110E",
"`, 	c #2A1613",
" ' 	c #291411",
".' 	c #2B1714",
"+' 	c #2B1613",
"@' 	c #271310",
"#' 	c #291512",
"$' 	c #271611",
"%' 	c #27150F",
"&' 	c #28140F",
"*' 	c #28130E",
"=' 	c #27110C",
"-' 	c #27100C",
";' 	c #28120D",
">' 	c #28120E",
",' 	c #29110F",
"'' 	c #29100E",
")' 	c #2B120F",
"!' 	c #2A100E",
"~' 	c #270D0A",
"{' 	c #29100C",
"]' 	c #29100B",
"^' 	c #2F1612",
"/' 	c #321713",
"(' 	c #311715",
"_' 	c #301919",
":' 	c #3D3131",
"<' 	c #4D4848",
"[' 	c #535253",
"}' 	c #5C5454",
"|' 	c #503F3E",
"1' 	c #583936",
"2' 	c #5C3B37",
"3' 	c #5F3E3B",
"4' 	c #674C49",
"5' 	c #6F4E49",
"6' 	c #754E48",
"7' 	c #774D48",
"8' 	c #80544F",
"9' 	c #7A4D48",
"0' 	c #804F4B",
"a' 	c #84534D",
"b' 	c #83504A",
"c' 	c #864E48",
"d' 	c #8B524D",
"e' 	c #854B46",
"f' 	c #8B504A",
"g' 	c #915751",
"h' 	c #8E4F50",
"i' 	c #844547",
"j' 	c #975A5B",
"k' 	c #985C5D",
"l' 	c #945959",
"m' 	c #8A5050",
"n' 	c #844B4B",
"o' 	c #7D4143",
"p' 	c #824649",
"q' 	c #8C5053",
"r' 	c #8E5355",
"s' 	c #8B5254",
"t' 	c #8D5557",
"u' 	c #976062",
"v' 	c #803D38",
"w' 	c #874540",
"x' 	c #8D4C46",
"y' 	c #94534D",
"z' 	c #904F49",
"A' 	c #8C4C46",
"B' 	c #8B4C45",
"C' 	c #8B4E46",
"D' 	c #92554D",
"E' 	c #94574F",
"F' 	c #975A52",
"G' 	c #985B53",
"H' 	c #98574F",
"I' 	c #9D5A52",
"J' 	c #94544D",
"K' 	c #905048",
"L' 	c #995C53",
"M' 	c #8D544C",
"N' 	c #89524B",
"O' 	c #804B44",
"P' 	c #77433D",
"Q' 	c #683731",
"R' 	c #52231E",
"S' 	c #4C201B",
"T' 	c #502621",
"U' 	c #4B2823",
"V' 	c #442420",
"W' 	c #3C1F1B",
"X' 	c #341915",
"Y' 	c #311815",
"Z' 	c #28110E",
"`' 	c #24110E",
" ) 	c #211010",
".) 	c #1E0F0E",
"+) 	c #1A0D0D",
"@) 	c #1A1010",
"#) 	c #1E1819",
"$) 	c #232122",
"%) 	c #222223",
"&) 	c #232223",
"*) 	c #180E0E",
"=) 	c #180C0C",
"-) 	c #180908",
";) 	c #180A09",
">) 	c #180C0A",
",) 	c #180C0B",
"') 	c #190B09",
")) 	c #1A0C09",
"!) 	c #170906",
"~) 	c #160705",
"{) 	c #170805",
"]) 	c #1A0A07",
"^) 	c #1C0C09",
"/) 	c #1B0B08",
"() 	c #1A0A08",
"_) 	c #1F0E0B",
":) 	c #1E0D0A",
"<) 	c #1F0F0C",
"[) 	c #1E0E0B",
"}) 	c #1C0B08",
"|) 	c #1C0D0A",
"1) 	c #1D0D09",
"2) 	c #1E0E0A",
"3) 	c #1F0E0A",
"4) 	c #1D0B08",
"5) 	c #1B0906",
"6) 	c #1B0A06",
"7) 	c #1C0B07",
"8) 	c #1F0D0A",
"9) 	c #1F0C0A",
"0) 	c #1E0A08",
"a) 	c #1F0B09",
"b) 	c #1E0907",
"c) 	c #1E0807",
"d) 	c #1D0806",
"e) 	c #1E0A06",
"f) 	c #1D0A06",
"g) 	c #230E0A",
"h) 	c #250F0B",
"i) 	c #26100E",
"j) 	c #241111",
"k) 	c #2D2423",
"l) 	c #3D3A3A",
"m) 	c #474647",
"n) 	c #524A4A",
"o) 	c #473836",
"p) 	c #4F3531",
"q) 	c #553732",
"r) 	c #583A37",
"s) 	c #604645",
"t) 	c #694947",
"u) 	c #704B47",
"v) 	c #714946",
"w) 	c #7F5652",
"x) 	c #7E534E",
"y) 	c #835753",
"z) 	c #865954",
"A) 	c #82514D",
"B) 	c #814B48",
"C) 	c #87504D",
"D) 	c #7F4543",
"E) 	c #894E4B",
"F) 	c #935754",
"G) 	c #995C5A",
"H) 	c #8E4E4F",
"I) 	c #814144",
"J) 	c #985A5C",
"K) 	c #995B5D",
"L) 	c #925657",
"M) 	c #884D4E",
"N) 	c #854B4C",
"O) 	c #804647",
"P) 	c #834748",
"Q) 	c #8E5254",
"R) 	c #925658",
"S) 	c #894F4F",
"T) 	c #884E4F",
"U) 	c #965C5E",
"V) 	c #905451",
"W) 	c #8A4F4B",
"X) 	c #834644",
"Y) 	c #894D4A",
"Z) 	c #8B4F4C",
"`) 	c #894D49",
" ! 	c #864842",
".! 	c #8D4E46",
"+! 	c #915148",
"@! 	c #8E4F45",
"#! 	c #915147",
"$! 	c #95554B",
"%! 	c #96564D",
"&! 	c #97574D",
"*! 	c #965048",
"=! 	c #924D45",
"-! 	c #7D3A32",
";! 	c #86463D",
">! 	c #8D4F46",
",! 	c #864B42",
"'! 	c #80473E",
")! 	c #7D473E",
"!! 	c #7A473F",
"~! 	c #76443D",
"{! 	c #6D3C35",
"]! 	c #5F312B",
"^! 	c #51241F",
"/! 	c #4A201B",
"(! 	c #4A231E",
"_! 	c #421F1A",
":! 	c #391B16",
"<! 	c #331813",
"[! 	c #2E1511",
"}! 	c #2A130F",
"|! 	c #220E0B",
"1! 	c #170807",
"2! 	c #150807",
"3! 	c #120807",
"4! 	c #0F0707",
"5! 	c #120D0E",
"6! 	c #191617",
"7! 	c #181719",
"8! 	c #161617",
"9! 	c #0E0807",
"0! 	c #0F0706",
"a! 	c #0F0605",
"b! 	c #0E0705",
"c! 	c #0F0705",
"d! 	c #100706",
"e! 	c #110706",
"f! 	c #0E0504",
"g! 	c #100605",
"h! 	c #110705",
"i! 	c #130806",
"j! 	c #130706",
"k! 	c #120706",
"l! 	c #120605",
"m! 	c #140807",
"n! 	c #150908",
"o! 	c #150907",
"p! 	c #160907",
"q! 	c #150806",
"r! 	c #140604",
"s! 	c #150604",
"t! 	c #140503",
"u! 	c #150503",
"v! 	c #170604",
"w! 	c #180704",
"x! 	c #180705",
"y! 	c #1C0907",
"z! 	c #1D0B0A",
"A! 	c #1F100F",
"B! 	c #261E1E",
"C! 	c #312F2F",
"D! 	c #3B393A",
"E! 	c #473F3F",
"F! 	c #3C2D2C",
"G! 	c #442925",
"H! 	c #4D2E2A",
"I! 	c #53322E",
"J! 	c #593A3A",
"K! 	c #65403D",
"L! 	c #744B48",
"M! 	c #754A48",
"N! 	c #7F5351",
"O! 	c #805250",
"P! 	c #7F504E",
"Q! 	c #80504C",
"R! 	c #81524C",
"S! 	c #85544F",
"T! 	c #86534E",
"U! 	c #804C46",
"V! 	c #8D5351",
"W! 	c #925956",
"X! 	c #864B4A",
"Y! 	c #8C5250",
"Z! 	c #905856",
"`! 	c #915A58",
" ~ 	c #905C58",
".~ 	c #8A5754",
"+~ 	c #8D5955",
"@~ 	c #925B57",
"#~ 	c #8F5754",
"$~ 	c #8D5553",
"%~ 	c #87514C",
"&~ 	c #854F4A",
"*~ 	c #945D59",
"=~ 	c #8E5350",
"-~ 	c #894F4B",
";~ 	c #854A49",
">~ 	c #8B504D",
",~ 	c #8C504E",
"'~ 	c #884D4B",
")~ 	c #854842",
"!~ 	c #8D4D44",
"~~ 	c #905046",
"{~ 	c #8E4D43",
"]~ 	c #904F45",
"^~ 	c #935248",
"/~ 	c #94534A",
"(~ 	c #94544A",
"_~ 	c #944D45",
":~ 	c #934D46",
"<~ 	c #7E3C33",
"[~ 	c #87463D",
"}~ 	c #8C4E44",
"|~ 	c #844A40",
"1~ 	c #7F463D",
"2~ 	c #764139",
"3~ 	c #72413A",
"4~ 	c #6E3E38",
"5~ 	c #653730",
"6~ 	c #582C26",
"7~ 	c #4A201C",
"8~ 	c #421C18",
"9~ 	c #421E1B",
"0~ 	c #3A1B16",
"a~ 	c #311612",
"b~ 	c #2B130F",
"c~ 	c #250F0C",
"d~ 	c #1F0C09",
"e~ 	c #190806",
"f~ 	c #110504",
"g~ 	c #0D0404",
"h~ 	c #0A0403",
"i~ 	c #080403",
"j~ 	c #0A0607",
"k~ 	c #0E0D0E",
"l~ 	c #0D0D0E",
"m~ 	c #0D0D0D",
"n~ 	c #070403",
"o~ 	c #070303",
"p~ 	c #070302",
"q~ 	c #080302",
"r~ 	c #080303",
"s~ 	c #090303",
"t~ 	c #070202",
"u~ 	c #0B0403",
"v~ 	c #0A0303",
"w~ 	c #0C0403",
"x~ 	c #0C0404",
"y~ 	c #0D0504",
"z~ 	c #0D0403",
"A~ 	c #0D0302",
"B~ 	c #0D0402",
"C~ 	c #0F0302",
"D~ 	c #100403",
"E~ 	c #120504",
"F~ 	c #130504",
"G~ 	c #140606",
"H~ 	c #190E0E",
"I~ 	c #201A19",
"J~ 	c #272626",
"K~ 	c #302E30",
"L~ 	c #3B3334",
"M~ 	c #322424",
"N~ 	c #3B221F",
"O~ 	c #442723",
"P~ 	c #4C2C29",
"Q~ 	c #523332",
"R~ 	c #5B3A38",
"S~ 	c #603C38",
"T~ 	c #6E4644",
"U~ 	c #734845",
"V~ 	c #7D514E",
"W~ 	c #7E514D",
"X~ 	c #7E4F4C",
"Y~ 	c #80524D",
"Z~ 	c #84564E",
"`~ 	c #875751",
" { 	c #86544E",
".{ 	c #83514A",
"+{ 	c #8D5450",
"@{ 	c #905853",
"#{ 	c #874D4B",
"${ 	c #8A514E",
"%{ 	c #89524F",
"&{ 	c #8E5754",
"*{ 	c #905B57",
"={ 	c #915E59",
"-{ 	c #8B5955",
";{ 	c #8C5954",
">{ 	c #8F5A55",
",{ 	c #8D5752",
"'{ 	c #86524B",
"){ 	c #85504A",
"!{ 	c #945E58",
"~{ 	c #894F4D",
"{{ 	c #884E4C",
"]{ 	c #8B5150",
"^{ 	c #8D5352",
"/{ 	c #874E4D",
"({ 	c #8C4B41",
"_{ 	c #8F4C41",
":{ 	c #8C4A3F",
"<{ 	c #8E4C40",
"[{ 	c #8F4D41",
"}{ 	c #904E43",
"|{ 	c #904D42",
"1{ 	c #90483F",
"2{ 	c #975047",
"3{ 	c #844138",
"4{ 	c #88473D",
"5{ 	c #8A4D43",
"6{ 	c #854A3F",
"7{ 	c #7E463C",
"8{ 	c #6E3A32",
"9{ 	c #693832",
"0{ 	c #653630",
"a{ 	c #5B302A",
"b{ 	c #4F2521",
"c{ 	c #431B18",
"d{ 	c #3C1814",
"e{ 	c #3B1A18",
"f{ 	c #2A120E",
"g{ 	c #1C0A07",
"h{ 	c #110503",
"i{ 	c #0E0403",
"j{ 	c #090202",
"k{ 	c #080202",
"l{ 	c #060202",
"m{ 	c #050201",
"n{ 	c #040202",
"o{ 	c #040303",
"p{ 	c #060606",
"q{ 	c #050506",
"r{ 	c #060607",
"s{ 	c #030202",
"t{ 	c #030201",
"u{ 	c #030101",
"v{ 	c #040101",
"w{ 	c #050202",
"x{ 	c #050101",
"y{ 	c #060201",
"z{ 	c #070201",
"A{ 	c #080201",
"B{ 	c #0B0302",
"C{ 	c #0B0303",
"D{ 	c #150D0C",
"E{ 	c #1C1716",
"F{ 	c #1F1E1E",
"G{ 	c #272426",
"H{ 	c #2F2729",
"I{ 	c #281C1C",
"J{ 	c #311B19",
"K{ 	c #3B211D",
"L{ 	c #452724",
"M{ 	c #4B2C29",
"N{ 	c #593735",
"O{ 	c #5A3632",
"P{ 	c #68413D",
"Q{ 	c #724845",
"R{ 	c #7C4F4B",
"S{ 	c #7D504B",
"T{ 	c #7F504B",
"U{ 	c #83544E",
"V{ 	c #885B53",
"W{ 	c #8B5D55",
"X{ 	c #83534B",
"Y{ 	c #8A584F",
"Z{ 	c #88554D",
"`{ 	c #8B554F",
" ] 	c #8D564F",
".] 	c #8A514D",
"+] 	c #844D49",
"@] 	c #7A4740",
"#] 	c #8B5651",
"$] 	c #8E5C56",
"%] 	c #916059",
"&] 	c #8D5C55",
"*] 	c #895851",
"=] 	c #89564E",
"-] 	c #8A564F",
";] 	c #8A564E",
">] 	c #85534A",
",] 	c #85524A",
"'] 	c #935F57",
")] 	c #995D57",
"!] 	c #985D57",
"~] 	c #834943",
"{] 	c #894F48",
"]] 	c #8B4F49",
"^] 	c #884D47",
"/] 	c #864A43",
"(] 	c #83473E",
"_] 	c #80443A",
":] 	c #82453C",
"<] 	c #894C43",
"[] 	c #894D43",
"}] 	c #8D5047",
"|] 	c #8C4F46",
"1] 	c #93544F",
"2] 	c #91524D",
"3] 	c #7D413C",
"4] 	c #804842",
"5] 	c #814A44",
"6] 	c #7B4841",
"7] 	c #784942",
"8] 	c #6F423F",
"9] 	c #653B38",
"0] 	c #5E3634",
"a] 	c #573230",
"b] 	c #422322",
"c] 	c #371B1A",
"d] 	c #2E1413",
"e] 	c #261110",
"f] 	c #190A08",
"g] 	c #090302",
"h] 	c #020101",
"i] 	c #020202",
"j] 	c #020203",
"k] 	c #010101",
"l] 	c #010100",
"m] 	c #020100",
"n] 	c #030100",
"o] 	c #020000",
"p] 	c #060302",
"q] 	c #0E0B0B",
"r] 	c #191718",
"s] 	c #1F1C1E",
"t] 	c #221C1E",
"u] 	c #1F1415",
"v] 	c #261413",
"w] 	c #301917",
"x] 	c #371C1B",
"y] 	c #402320",
"z] 	c #472926",
"A] 	c #543330",
"B] 	c #603D3A",
"C] 	c #6A4441",
"D] 	c #6F4845",
"E] 	c #784F4B",
"F] 	c #7B4F4C",
"G] 	c #7B4E49",
"H] 	c #7E4F49",
"I] 	c #82524B",
"J] 	c #88544F",
"K] 	c #88544D",
"L] 	c #8D5650",
"M] 	c #8C534F",
"N] 	c #965C57",
"O] 	c #955B59",
"P] 	c #874E4C",
"Q] 	c #935C59",
"R] 	c #8C5753",
"S] 	c #8F5A56",
"T] 	c #8C5854",
"U] 	c #8A544F",
"V] 	c #8B544F",
"W] 	c #8C5550",
"X] 	c #915A55",
"Y] 	c #925C56",
"Z] 	c #945D58",
"`] 	c #9A5E57",
" ^ 	c #975D56",
".^ 	c #834941",
"+^ 	c #884E46",
"@^ 	c #894E47",
"#^ 	c #874C45",
"$^ 	c #854A43",
"%^ 	c #824840",
"&^ 	c #7F463E",
"*^ 	c #81473F",
"=^ 	c #864C44",
"-^ 	c #8B524A",
";^ 	c #7B423E",
">^ 	c #7B4542",
",^ 	c #7A4743",
"'^ 	c #774944",
")^ 	c #714641",
"!^ 	c #68403E",
"~^ 	c #5F3937",
"{^ 	c #573332",
"]^ 	c #4F2F2D",
"^^ 	c #452827",
"/^ 	c #3B201F",
"(^ 	c #2E1616",
"_^ 	c #240F0F",
":^ 	c #1C0C0B",
"<^ 	c #160807",
"[^ 	c #110605",
"}^ 	c #010000",
"|^ 	c #070606",
"1^ 	c #110F10",
"2^ 	c #161315",
"3^ 	c #191416",
"4^ 	c #170F10",
"5^ 	c #1E0F0F",
"6^ 	c #271312",
"7^ 	c #2F1816",
"8^ 	c #412624",
"9^ 	c #4D302E",
"0^ 	c #593937",
"a^ 	c #63413F",
"b^ 	c #6B4643",
"c^ 	c #734C4A",
"d^ 	c #774E4B",
"e^ 	c #784D48",
"f^ 	c #7C4D47",
"g^ 	c #81514C",
"h^ 	c #87524D",
"i^ 	c #8C5652",
"j^ 	c #8D5451",
"k^ 	c #975E5A",
"l^ 	c #935959",
"m^ 	c #854B4B",
"n^ 	c #864D4D",
"o^ 	c #935B5A",
"p^ 	c #8D5756",
"q^ 	c #8F5A58",
"r^ 	c #8B5755",
"s^ 	c #895451",
"t^ 	c #895350",
"u^ 	c #89534F",
"v^ 	c #8A5450",
"w^ 	c #8F5955",
"x^ 	c #935D58",
"y^ 	c #935D59",
"z^ 	c #955C53",
"A^ 	c #8C544A",
"B^ 	c #864D44",
"C^ 	c #854C42",
"D^ 	c #82493F",
"E^ 	c #814840",
"F^ 	c #7E4740",
"G^ 	c #814E49",
"H^ 	c #7C4A45",
"I^ 	c #7F4D47",
"J^ 	c #8A5852",
"K^ 	c #784645",
"L^ 	c #784544",
"M^ 	c #754442",
"N^ 	c #6D403D",
"O^ 	c #673D3A",
"P^ 	c #764F4C",
"Q^ 	c #5D3B3B",
"R^ 	c #543635",
"S^ 	c #4C302F",
"T^ 	c #432929",
"U^ 	c #392222",
"V^ 	c #2F1B1B",
"W^ 	c #241212",
"X^ 	c #1A0A0A",
"Y^ 	c #000000",
"Z^ 	c #030303",
"`^ 	c #090909",
" / 	c #0D0C0D",
"./ 	c #110D0F",
"+/ 	c #0F090A",
"@/ 	c #140808",
"#/ 	c #1A0B0B",
"$/ 	c #251312",
"%/ 	c #2F1A18",
"&/ 	c #3D2726",
"*/ 	c #432B2A",
"=/ 	c #4E3432",
"-/ 	c #593C3B",
";/ 	c #634543",
">/ 	c #674644",
",/ 	c #6C4A48",
"'/ 	c #734C49",
")/ 	c #794C4A",
"!/ 	c #835352",
"~/ 	c #835150",
"{/ 	c #814C4B",
"]/ 	c #8A5454",
"^/ 	c #8F5758",
"// 	c #986060",
"(/ 	c #874E52",
"_/ 	c #7B4446",
":/ 	c #7A4345",
"</ 	c #8C5558",
"[/ 	c #905B5E",
"}/ 	c #915E60",
"|/ 	c #885556",
"1/ 	c #845051",
"2/ 	c #855150",
"3/ 	c #85514F",
"4/ 	c #834E4D",
"5/ 	c #834D4D",
"6/ 	c #85524F",
"7/ 	c #8F5C59",
"8/ 	c #905A5A",
"9/ 	c #795656",
"0/ 	c #886667",
"a/ 	c #8C6C6D",
"b/ 	c #947474",
"c/ 	c #947475",
"d/ 	c #8F7174",
"e/ 	c #8E7274",
"f/ 	c #8D7274",
"g/ 	c #896E70",
"h/ 	c #83696A",
"i/ 	c #836A6B",
"j/ 	c #886C6E",
"k/ 	c #8D7173",
"l/ 	c #876D74",
"m/ 	c #866B72",
"n/ 	c #998187",
"o/ 	c #8E797E",
"p/ 	c #826F74",
"q/ 	c #826F73",
"r/ 	c #7B6C6F",
"s/ 	c #736668",
"t/ 	c #675A5C",
"u/ 	c #5B5052",
"v/ 	c #514748",
"w/ 	c #443B3C",
"x/ 	c #352C2D",
"y/ 	c #2B2324",
"z/ 	c #211B1D",
"A/ 	c #181314",
"B/ 	c #0F0C0C",
"C/ 	c #070506",
"D/ 	c #040304",
"E/ 	c #020102",
"F/ 	c #080809",
"G/ 	c #0D0B0C",
"H/ 	c #131012",
"I/ 	c #1D191B",
"J/ 	c #282224",
"K/ 	c #322B2C",
"L/ 	c #3D3537",
"M/ 	c #4C4244",
"N/ 	c #554A4D",
"O/ 	c #62575A",
"P/ 	c #695B5F",
"Q/ 	c #726368",
"R/ 	c #7D6E73",
"S/ 	c #85767B",
"T/ 	c #8E7B80",
"U/ 	c #957F83",
"V/ 	c #978084",
"W/ 	c #987F84",
"X/ 	c #9B8186",
"Y/ 	c #9A8085",
"Z/ 	c #816268",
"`/ 	c #8D6D73",
" ( 	c #7E5C65",
".( 	c #82616C",
"+( 	c #92757E",
"@( 	c #8F727B",
"#( 	c #8C6F78",
"$( 	c #92767E",
"%( 	c #9F868E",
"&( 	c #9B8288",
"*( 	c #91767C",
"=( 	c #8E7276",
"-( 	c #8B6F74",
";( 	c #8A6E73",
">( 	c #896D71",
",( 	c #876B6F",
"'( 	c #8A6D73",
")( 	c #735C60",
"!( 	c #775E63",
"~( 	c #8B7176",
"{( 	c #91787C",
"]( 	c #9B8285",
"^( 	c #9C8387",
"/( 	c #978085",
"(( 	c #948084",
"_( 	c #937E82",
":( 	c #8F7A7E",
"<( 	c #897579",
"[( 	c #877478",
"}( 	c #8B767B",
"|( 	c #917D81",
"1( 	c #8E7A84",
"2( 	c #8C7880",
"3( 	c #9F8C94",
"4( 	c #94848C",
"5( 	c #897A82",
"6( 	c #83767C",
"7( 	c #7D7277",
"8( 	c #766D70",
"9( 	c #696163",
"0( 	c #5B5556",
"a( 	c #4E4849",
"b( 	c #403A3B",
"c( 	c #312B2C",
"d( 	c #262123",
"e( 	c #141112",
"f( 	c #0C090A",
"g( 	c #050405",
"h( 	c #040404",
"i( 	c #080708",
"j( 	c #100F10",
"k( 	c #1C191B",
"l( 	c #272325",
"m( 	c #322E30",
"n( 	c #3E393B",
"o( 	c #4F484B",
"p( 	c #595155",
"q( 	c #675F63",
"r( 	c #6E6469",
"s( 	c #786D73",
"t( 	c #84797F",
"u( 	c #8E8289",
"v( 	c #96898F",
"w( 	c #9E8F93",
"x( 	c #A08E94",
"y( 	c #A18F96",
"z( 	c #A59298",
"A( 	c #A38F95",
"B( 	c #847077",
"C( 	c #8E777F",
"D( 	c #826C75",
"E( 	c #8B737F",
"F( 	c #9E8992",
"G( 	c #96828B",
"H( 	c #917E87",
"I( 	c #97858E",
"J( 	c #A8969F",
"K( 	c #A4929A",
"L( 	c #99868D",
"M( 	c #948187",
"N( 	c #927E84",
"O( 	c #907C82",
"P( 	c #8E7B81",
"Q( 	c #88757C",
"R( 	c #8B777E",
"S( 	c #978A96",
"T( 	c #978B97",
"U( 	c #9C8F9C",
"V( 	c #A194A0",
"W( 	c #AB9EAB",
"X( 	c #AEA2AD",
"Y( 	c #ADA1AA",
"Z( 	c #A79BA3",
"`( 	c #A2979E",
" _ 	c #A3989F",
"._ 	c #9D9198",
"+_ 	c #A99CA4",
"@_ 	c #A99DA5",
"#_ 	c #A89DA9",
"$_ 	c #A397A4",
"%_ 	c #948A96",
"&_ 	c #918993",
"*_ 	c #969099",
"=_ 	c #868189",
"-_ 	c #78747C",
";_ 	c #777679",
">_ 	c #6C6B6D",
",_ 	c #5C5A5C",
"'_ 	c #484748",
")_ 	c #393738",
"!_ 	c #2C2A2C",
"~_ 	c #222021",
"{_ 	c #181617",
"]_ 	c #070708",
"^_ 	c #050505",
"/_ 	c #0F0E0F",
"(_ 	c #1B1A1C",
"__ 	c #242426",
":_ 	c #333235",
"<_ 	c #3F4042",
"[_ 	c #565458",
"}_ 	c #636166",
"|_ 	c #747177",
"1_ 	c #7E7A80",
"2_ 	c #87848B",
"3_ 	c #928D95",
"4_ 	c #A09AA2",
"5_ 	c #AAA5AC",
"6_ 	c #AEABB0",
"7_ 	c #B1AEB4",
"8_ 	c #B8B4BA",
"9_ 	c #BCB6BE",
"0_ 	c #B8B2B9",
"a_ 	c #B4ABB3",
"b_ 	c #B1A8B0",
"c_ 	c #B4A9B4",
"d_ 	c #B8AEB9",
"e_ 	c #C3BAC5",
"f_ 	c #BBB5BF",
"g_ 	c #B9B5BE",
"h_ 	c #BCB9C1",
"i_ 	c #BAB6BF",
"j_ 	c #B7B3BB",
"k_ 	c #B6B2B9",
"l_ 	c #B4AFB6",
"m_ 	c #AEA8AF",
"n_ 	c #ACA6AE",
"o_ 	c #AEA9B1",
"p_ 	c #A49FA7",
"q_ 	c #9F99A0",
"r_ 	c #AA9A9D",
"s_ 	c #B8A8AB",
"t_ 	c #C3B2B5",
"u_ 	c #C8B7B9",
"v_ 	c #C8B8BA",
"w_ 	c #C1B0B4",
"x_ 	c #BEAEB3",
"y_ 	c #C3B5B9",
"z_ 	c #C9BBBE",
"A_ 	c #C4B8BA",
"B_ 	c #C0B4B8",
"C_ 	c #BBB0B4",
"D_ 	c #BCB1B2",
"E_ 	c #B5A6A9",
"F_ 	c #AEA1A7",
"G_ 	c #9C98A0",
"H_ 	c #91949C",
"I_ 	c #919198",
"J_ 	c #857F84",
"K_ 	c #7B7475",
"L_ 	c #6B6666",
"M_ 	c #575352",
"N_ 	c #454141",
"O_ 	c #3A3636",
"P_ 	c #2F2C2C",
"Q_ 	c #211F1F",
"R_ 	c #131111",
"S_ 	c #0D0C0C",
"T_ 	c #050404",
"U_ 	c #0F0D0D",
"V_ 	c #1C1819",
"W_ 	c #282323",
"X_ 	c #393333",
"Y_ 	c #443D3C",
"Z_ 	c #564D4D",
"`_ 	c #625859",
" : 	c #74696A",
".: 	c #786C6D",
"+: 	c #847878",
"@: 	c #8C7E7F",
"#: 	c #938587",
"$: 	c #A59596",
"%: 	c #B6A5A4",
"&: 	c #BAA9A8",
"*: 	c #BFB0AF",
"=: 	c #C5B7B7",
"-: 	c #D1C6C6",
";: 	c #AAA5AB",
">: 	c #ACA9B1",
",: 	c #D1CACC",
"': 	c #CFC3C5",
"): 	c #D1BABD",
"!: 	c #CCB5B7",
"~: 	c #BDACAC",
"{: 	c #C0AFB1",
"]: 	c #C0ABAF",
"^: 	c #C3B1B5",
"/: 	c #C8BCBC",
"(: 	c #CBC2C0",
"_: 	c #CEC3C1",
":: 	c #C8BCB9",
"<: 	c #CDBFBD",
"[: 	c #CABAB8",
"}: 	c #AA9A98",
"|: 	c #B4A2A0",
"1: 	c #C9B7B5",
"2: 	c #D5C2C1",
"3: 	c #DAC6C5",
"4: 	c #D5C3C1",
"5: 	c #CCB9B8",
"6: 	c #CAB7B8",
"7: 	c #C9B7B9",
"8: 	c #CBBABC",
"9: 	c #D2C2C4",
"0: 	c #DACBCD",
"a: 	c #D7C9CA",
"b: 	c #CBBEBF",
"c: 	c #C3B8B8",
"d: 	c #C3BAB5",
"e: 	c #BCACA9",
"f: 	c #B9ABAD",
"g: 	c #A2A0A6",
"h: 	c #8C959C",
"i: 	c #94959C",
"j: 	c #8A8386",
"k: 	c #796F6F",
"l: 	c #665F5E",
"m: 	c #514C4A",
"n: 	c #403C3B",
"o: 	c #363231",
"p: 	c #2C2827",
"q: 	c #1E1B1B",
"r: 	c #0E0C0C",
"s: 	c #0B0909",
"t: 	c #050504",
"u: 	c #050303",
"v: 	c #070505",
"w: 	c #120E0D",
"x: 	c #1F1918",
"y: 	c #2C2423",
"z: 	c #3F3533",
"A: 	c #483B39",
"B: 	c #574946",
"C: 	c #635350",
"D: 	c #756461",
"E: 	c #74625E",
"F: 	c #826E6A",
"G: 	c #88726F",
"H: 	c #8C7671",
"I: 	c #A28884",
"J: 	c #B99F99",
"K: 	c #BDA39D",
"L: 	c #C2ABA6",
"M: 	c #C8B6B1",
"N: 	c #DDCFCC",
"O: 	c #A4A1A6",
"P: 	c #A9A9B2",
"Q: 	c #E0DAD8",
"R: 	c #D9CDCA",
"S: 	c #D7B8B6",
"T: 	c #D3B4B0",
"U: 	c #BEA49E",
"V: 	c #C0A7A3",
"W: 	c #C1A1A2",
"X: 	c #C9AEAE",
"Y: 	c #D0BFBB",
"Z: 	c #D6CAC4",
"`: 	c #DECFC9",
" < 	c #D5C5BE",
".< 	c #DCC9C1",
"+< 	c #DBC7C0",
"@< 	c #AF9891",
"#< 	c #A48383",
"$< 	c #AD8E8C",
"%< 	c #A07E7E",
"&< 	c #967474",
"*< 	c #866464",
"=< 	c #876465",
"-< 	c #8A6868",
";< 	c #8D6D6C",
">< 	c #8E6F6D",
",< 	c #8A6C69",
"'< 	c #876A68",
")< 	c #8A706D",
"!< 	c #775E5B",
"~< 	c #7A625E",
"{< 	c #8B7571",
"]< 	c #866B69",
"^< 	c #967F81",
"/< 	c #9D949B",
"(< 	c #878A91",
"_< 	c #89878E",
":< 	c #726769",
"<< 	c #504140",
"[< 	c #443535",
"}< 	c #352928",
"|< 	c #271C1C",
"1< 	c #1C1414",
"2< 	c #130D0D",
"3< 	c #0D0808",
"4< 	c #060404",
"5< 	c #000001",
"6< 	c #060303",
"7< 	c #0C0605",
"8< 	c #170D0D",
"9< 	c #190C0B",
"0< 	c #251614",
"a< 	c #321E1C",
"b< 	c #3F2A28",
"c< 	c #533B38",
"d< 	c #573C39",
"e< 	c #543733",
"f< 	c #5E3E3A",
"g< 	c #6C4B46",
"h< 	c #724E4A",
"i< 	c #734E4A",
"j< 	c #754E49",
"k< 	c #76504B",
"l< 	c #7E5C56",
"m< 	c #836660",
"n< 	c #8F7674",
"o< 	c #A69AA1",
"p< 	c #B6B0B9",
"q< 	c #B3A6A6",
"r< 	c #937B79",
"s< 	c #845754",
"t< 	c #744C47",
"u< 	c #6F4743",
"v< 	c #714043",
"w< 	c #734246",
"x< 	c #794C4E",
"y< 	c #8D6263",
"z< 	c #A37778",
"A< 	c #956666",
"B< 	c #855452",
"C< 	c #875554",
"D< 	c #844D4C",
"E< 	c #976B6B",
"F< 	c #9A7171",
"G< 	c #926666",
"H< 	c #8D5F5F",
"I< 	c #875757",
"J< 	c #895858",
"K< 	c #8A5B5A",
"L< 	c #8E605D",
"M< 	c #90635E",
"N< 	c #8F625D",
"O< 	c #8C615C",
"P< 	c #8D645F",
"Q< 	c #835B54",
"R< 	c #855E58",
"S< 	c #8A6965",
"T< 	c #845E5D",
"U< 	c #8C6F71",
"V< 	c #998A90",
"W< 	c #87858C",
"X< 	c #868186",
"Y< 	c #6D6161",
"Z< 	c #4D3939",
"`< 	c #3F2B2A",
" [ 	c #31201F",
".[ 	c #231514",
"+[ 	c #170D0C",
"@[ 	c #100707",
"#[ 	c #0A0504",
"$[ 	c #030302",
"%[ 	c #0C0505",
"&[ 	c #130808",
"*[ 	c #1C0E0E",
"=[ 	c #1E0D0B",
"-[ 	c #2C1615",
";[ 	c #351C1A",
">[ 	c #412523",
",[ 	c #51322F",
"'[ 	c #583431",
")[ 	c #59312E",
"![ 	c #643935",
"~[ 	c #6F433F",
"{[ 	c #724441",
"][ 	c #784742",
"^[ 	c #7D4B45",
"/[ 	c #7B4B45",
"([ 	c #835550",
"_[ 	c #845D58",
":[ 	c #896B68",
"<[ 	c #AD9EA3",
"[[ 	c #B9B2B9",
"}[ 	c #B8A0A1",
"|[ 	c #854C4A",
"1[ 	c #804B47",
"2[ 	c #844748",
"3[ 	c #87484B",
"4[ 	c #874D4E",
"5[ 	c #965C5C",
"6[ 	c #8B4E4B",
"7[ 	c #8B4E4C",
"8[ 	c #8B4B48",
"9[ 	c #844141",
"0[ 	c #7F3D3D",
"a[ 	c #823F3F",
"b[ 	c #834040",
"c[ 	c #894747",
"d[ 	c #8C4A4A",
"e[ 	c #8D4C49",
"f[ 	c #905149",
"g[ 	c #94554D",
"h[ 	c #92574E",
"i[ 	c #925B50",
"j[ 	c #925C53",
"k[ 	c #8B5958",
"l[ 	c #844E4F",
"m[ 	c #81595D",
"n[ 	c #937E83",
"o[ 	c #868086",
"p[ 	c #827B7E",
"q[ 	c #6A5C5B",
"r[ 	c #4D3331",
"s[ 	c #3B1F1E",
"t[ 	c #2F1817",
"u[ 	c #210E0D",
"v[ 	c #140605",
"w[ 	c #010001",
"x[ 	c #030000",
"y[ 	c #070101",
"z[ 	c #160908",
"A[ 	c #1D0D0C",
"B[ 	c #230E0E",
"C[ 	c #260E0D",
"D[ 	c #351816",
"E[ 	c #451F1B",
"F[ 	c #502421",
"G[ 	c #5A2927",
"H[ 	c #602B29",
"I[ 	c #6B3431",
"J[ 	c #733835",
"K[ 	c #743734",
"L[ 	c #7D3F3B",
"M[ 	c #884942",
"N[ 	c #84473F",
"O[ 	c #8A514B",
"P[ 	c #885551",
"Q[ 	c #875D5B",
"R[ 	c #B5A2A5",
"S[ 	c #BDB3BA",
"T[ 	c #BE9B9D",
"U[ 	c #814E50",
"V[ 	c #8B4646",
"W[ 	c #88423F",
"X[ 	c #95554F",
"Y[ 	c #94544F",
"Z[ 	c #9A5152",
"`[ 	c #9C5255",
" } 	c #995253",
".} 	c #924D4D",
"+} 	c #914C4A",
"@} 	c #995451",
"#} 	c #934C48",
"$} 	c #924B46",
"%} 	c #934C46",
"&} 	c #89433F",
"*} 	c #7B3532",
"=} 	c #7D3735",
"-} 	c #823B39",
";} 	c #914A47",
">} 	c #944E4B",
",} 	c #98534E",
"'} 	c #9B5752",
")} 	c #9D5A54",
"!} 	c #9D5A55",
"~} 	c #9A5A53",
"{} 	c #94554F",
"]} 	c #995F57",
"^} 	c #854D4D",
"/} 	c #825C5C",
"(} 	c #8D7B7C",
"_} 	c #888588",
":} 	c #7E7A7A",
"<} 	c #5E5350",
"[} 	c #462D2A",
"}} 	c #381C19",
"|} 	c #2D1513",
"1} 	c #210E0C",
"2} 	c #160706",
"3} 	c #0D0303",
"4} 	c #060101",
"5} 	c #080101",
"6} 	c #0B0202",
"7} 	c #0F0403",
"8} 	c #1B0B0A",
"9} 	c #1E0B09",
"0} 	c #291210",
"a} 	c #321714",
"b} 	c #3B1C19",
"c} 	c #411D19",
"d} 	c #481E1B",
"e} 	c #50211D",
"f} 	c #5C2825",
"g} 	c #652E2A",
"h} 	c #733935",
"i} 	c #773935",
"j} 	c #75332F",
"k} 	c #7A3932",
"l} 	c #85453B",
"m} 	c #88473F",
"n} 	c #82483F",
"o} 	c #7F4B44",
"p} 	c #7A514C",
"q} 	c #AA9C9D",
"r} 	c #AEAAAF",
"s} 	c #C7A2A3",
"t} 	c #8A5858",
"u} 	c #995351",
"v} 	c #904A44",
"w} 	c #894940",
"x} 	c #924A46",
"y} 	c #944C49",
"z} 	c #8D4A45",
"A} 	c #85453F",
"B} 	c #874841",
"C} 	c #905249",
"D} 	c #83443A",
"E} 	c #894A3F",
"F} 	c #88493D",
"G} 	c #84403B",
"H} 	c #793430",
"I} 	c #813C37",
"J} 	c #833E39",
"K} 	c #8F4A46",
"L} 	c #924D49",
"M} 	c #934F4A",
"N} 	c #985551",
"O} 	c #9C5956",
"P} 	c #9C5A57",
"Q} 	c #9A5A56",
"R} 	c #935551",
"S} 	c #90554F",
"T} 	c #925953",
"U} 	c #844D4D",
"V} 	c #7C5857",
"W} 	c #887778",
"X} 	c #848486",
"Y} 	c #7A7878",
"Z} 	c #655B59",
"`} 	c #462E2B",
" | 	c #361B17",
".| 	c #2A1411",
"+| 	c #140705",
"@| 	c #0B0B0B",
"#| 	c #0C0C0C",
"$| 	c #0E0302",
"%| 	c #130503",
"&| 	c #170705",
"*| 	c #1C0B09",
"=| 	c #23100E",
"-| 	c #301714",
";| 	c #391C19",
">| 	c #41211C",
",| 	c #46211B",
"'| 	c #4F231F",
")| 	c #552520",
"!| 	c #602B26",
"~| 	c #67302A",
"{| 	c #743933",
"]| 	c #773A35",
"^| 	c #773731",
"/| 	c #7A3B32",
"(| 	c #814337",
"_| 	c #84463B",
":| 	c #7E453B",
"<| 	c #794740",
"[| 	c #774E49",
"}| 	c #A99D9E",
"|| 	c #ACACB0",
"1| 	c #BA9A9A",
"2| 	c #825252",
"3| 	c #975350",
"4| 	c #924F48",
"5| 	c #8E5045",
"6| 	c #87493E",
"7| 	c #944C47",
"8| 	c #8E4A43",
"9| 	c #87453E",
"0| 	c #88463F",
"a| 	c #915047",
"b| 	c #834237",
"c| 	c #89493C",
"d| 	c #894A3C",
"e| 	c #77372E",
"f| 	c #75342C",
"g| 	c #8A483F",
"h| 	c #86443C",
"i| 	c #8B4A42",
"j| 	c #8B4942",
"k| 	c #84433F",
"l| 	c #8D4D4C",
"m| 	c #965657",
"n| 	c #99595A",
"o| 	c #985B5B",
"p| 	c #925757",
"q| 	c #834E4C",
"r| 	c #844F4E",
"s| 	c #6C4E4C",
"t| 	c #7C7472",
"u| 	c #7E8484",
"v| 	c #767776",
"w| 	c #776E6A",
"x| 	c #483430",
"y| 	c #331A14",
"z| 	c #27130E",
"A| 	c #1C0C08",
"B| 	c #120604",
"C| 	c #0A0302",
"D| 	c #090201",
"E| 	c #0C0302",
"F| 	c #110E0D",
"G| 	c #131515",
"H| 	c #141414",
"I| 	c #0C0606",
"J| 	c #0F0503",
"K| 	c #120603",
"L| 	c #180805",
"M| 	c #1D0C07",
"N| 	c #210E0A",
"O| 	c #22100D",
"P| 	c #321A16",
"Q| 	c #381E19",
"R| 	c #3F221C",
"S| 	c #49241C",
"T| 	c #572D25",
"U| 	c #5C2E26",
"V| 	c #613027",
"W| 	c #653127",
"X| 	c #6B362C",
"Y| 	c #743C32",
"Z| 	c #793E34",
"`| 	c #773E31",
" 1 	c #763E2E",
".1 	c #794031",
"+1 	c #743C33",
"@1 	c #714B48",
"#1 	c #A69F9F",
"$1 	c #ABB1B4",
"%1 	c #957C7B",
"&1 	c #6A3E3C",
"*1 	c #8F514C",
"=1 	c #975950",
"-1 	c #874F3F",
";1 	c #844B3B",
">1 	c #8D4C40",
",1 	c #954B44",
"'1 	c #8F443E",
")1 	c #8E443C",
"!1 	c #964C43",
"~1 	c #853F33",
"{1 	c #8B4537",
"]1 	c #8F4C3C",
"^1 	c #7F3E36",
"/1 	c #814037",
"(1 	c #834138",
"_1 	c #824038",
":1 	c #844239",
"<1 	c #834239",
"[1 	c #8B4A45",
"}1 	c #945350",
"|1 	c #945452",
"11 	c #90514F",
"21 	c #8F534F",
"31 	c #884E4A",
"41 	c #7F4743",
"51 	c #7C4642",
"61 	c #794445",
"71 	c #7E4949",
"81 	c #6A4C4B",
"91 	c #7A7070",
"01 	c #7A7E81",
"a1 	c #7A7778",
"b1 	c #6B605F",
"c1 	c #48322E",
"d1 	c #341C16",
"e1 	c #26120E",
"f1 	c #1B0C08",
"g1 	c #120705",
"h1 	c #0F0402",
"i1 	c #100402",
"j1 	c #110403",
"k1 	c #130604",
"l1 	c #110908",
"m1 	c #1F1A1A",
"n1 	c #1D1E1F",
"o1 	c #202021",
"p1 	c #130B0B",
"q1 	c #130907",
"r1 	c #140806",
"s1 	c #160806",
"t1 	c #180907",
"u1 	c #190B08",
"v1 	c #1A0C08",
"w1 	c #25100C",
"x1 	c #2C1512",
"y1 	c #3C1E19",
"z1 	c #44221D",
"A1 	c #4C2721",
"B1 	c #572F28",
"C1 	c #5B2E27",
"D1 	c #5F3029",
"E1 	c #66342C",
"F1 	c #6C3830",
"G1 	c #733D35",
"H1 	c #7A4239",
"I1 	c #7E443A",
"J1 	c #7D4437",
"K1 	c #7D4636",
"L1 	c #804638",
"M1 	c #7C4138",
"N1 	c #663C3C",
"O1 	c #B1A4AA",
"P1 	c #AEAFB6",
"Q1 	c #AA8E90",
"R1 	c #764849",
"S1 	c #8C4D4A",
"T1 	c #8C4C45",
"U1 	c #884E3F",
"V1 	c #864D3C",
"W1 	c #954B43",
"X1 	c #974944",
"Y1 	c #934440",
"Z1 	c #8E3F39",
"`1 	c #944740",
" 2 	c #8D4237",
".2 	c #8E4439",
"+2 	c #924A3C",
"@2 	c #803E36",
"#2 	c #84423A",
"$2 	c #823F38",
"%2 	c #844139",
"&2 	c #834139",
"*2 	c #8C4A45",
"=2 	c #94534E",
"-2 	c #94534F",
";2 	c #90514C",
">2 	c #8E514C",
",2 	c #864C46",
"'2 	c #7D453F",
")2 	c #7C443F",
"!2 	c #784143",
"~2 	c #7C4747",
"{2 	c #6A4C4C",
"]2 	c #7B7071",
"^2 	c #797B7F",
"/2 	c #787375",
"(2 	c #645757",
"_2 	c #452E2B",
":2 	c #321A15",
"<2 	c #25120D",
"[2 	c #1A0B08",
"}2 	c #160604",
"|2 	c #190604",
"12 	c #1A0705",
"22 	c #1B0805",
"32 	c #1C0906",
"42 	c #1B0B09",
"52 	c #1E1413",
"62 	c #2B2525",
"72 	c #292A2B",
"82 	c #2D2D2F",
"92 	c #1D1212",
"02 	c #1C0E0D",
"a2 	c #1D0F0D",
"b2 	c #20100D",
"c2 	c #20100C",
"d2 	c #1D0E0B",
"e2 	c #1D0C09",
"f2 	c #200F0C",
"g2 	c #210F0C",
"h2 	c #230F0E",
"i2 	c #25110F",
"j2 	c #24120F",
"k2 	c #25130F",
"l2 	c #2B140F",
"m2 	c #301712",
"n2 	c #351A17",
"o2 	c #3A1D1A",
"p2 	c #45231E",
"q2 	c #4C2621",
"r2 	c #542C25",
"s2 	c #60332C",
"t2 	c #61322B",
"u2 	c #66352D",
"v2 	c #6C3831",
"w2 	c #723B33",
"x2 	c #784037",
"y2 	c #82473E",
"z2 	c #81483C",
"A2 	c #814939",
"B2 	c #85493C",
"C2 	c #81443D",
"D2 	c #7A413E",
"E2 	c #6C3D3E",
"F2 	c #B3A3AB",
"G2 	c #B3B1BA",
"H2 	c #B39498",
"I2 	c #794A4B",
"J2 	c #8D4C4B",
"K2 	c #8A4F41",
"L2 	c #884E3E",
"M2 	c #964C44",
"N2 	c #974A44",
"O2 	c #934640",
"P2 	c #8D413A",
"Q2 	c #92473F",
"R2 	c #8D453A",
"S2 	c #8E4639",
"T2 	c #914B3D",
"U2 	c #7D3733",
"V2 	c #88423E",
"W2 	c #88413D",
"X2 	c #86403C",
"Y2 	c #8D4643",
"Z2 	c #8E4643",
"`2 	c #8A453E",
" 3 	c #8C483E",
".3 	c #955247",
"+3 	c #9A574C",
"@3 	c #935246",
"#3 	c #8C4D41",
"$3 	c #7E4236",
"%3 	c #7C3F42",
"&3 	c #7A3E43",
"*3 	c #6F4A4F",
"=3 	c #85747A",
"-3 	c #7C787F",
";3 	c #706469",
">3 	c #3D2A2E",
",3 	c #3E211E",
"'3 	c #301713",
")3 	c #0A0201",
"!3 	c #1B0907",
"~3 	c #1D0907",
"{3 	c #1C0805",
"]3 	c #1D0805",
"^3 	c #1F0805",
"/3 	c #1F0604",
"(3 	c #250B08",
"_3 	c #260C09",
":3 	c #260D09",
"<3 	c #270E0A",
"[3 	c #250E0A",
"}3 	c #27100E",
"|3 	c #291311",
"13 	c #352627",
"23 	c #2E2425",
"33 	c #353336",
"43 	c #3B383B",
"53 	c #2A1A1B",
"63 	c #291616",
"73 	c #2A1615",
"83 	c #2A1512",
"93 	c #2A1511",
"03 	c #25100D",
"a3 	c #291511",
"b3 	c #2B1713",
"c3 	c #2F1A16",
"d3 	c #2D1714",
"e3 	c #2E1814",
"f3 	c #2F1715",
"g3 	c #311817",
"h3 	c #331A19",
"i3 	c #321A19",
"j3 	c #331B18",
"k3 	c #351C18",
"l3 	c #3A1E1A",
"m3 	c #412320",
"n3 	c #462523",
"o3 	c #43201E",
"p3 	c #45201E",
"q3 	c #512928",
"r3 	c #552A27",
"s3 	c #5A2D29",
"t3 	c #602F2B",
"u3 	c #642F2C",
"v3 	c #6E3834",
"w3 	c #723D37",
"x3 	c #783F39",
"y3 	c #783D37",
"z3 	c #7B4039",
"A3 	c #864942",
"B3 	c #8D4F47",
"C3 	c #8C4E45",
"D3 	c #8A4C42",
"E3 	c #924F47",
"F3 	c #974F4D",
"G3 	c #934E51",
"H3 	c #894E54",
"I3 	c #B69AA7",
"J3 	c #C5B7C7",
"K3 	c #CAA2AA",
"L3 	c #7C484C",
"M3 	c #924C4E",
"N3 	c #974F4E",
"O3 	c #955248",
"P3 	c #904E42",
"Q3 	c #944C43",
"R3 	c #985047",
"S3 	c #945047",
"T3 	c #8B4B42",
"U3 	c #86483D",
"V3 	c #8B5042",
"W3 	c #864C3B",
"X3 	c #89503F",
"Y3 	c #7B332E",
"Z3 	c #803933",
"`3 	c #853D37",
" 4 	c #87403A",
".4 	c #8B443E",
"+4 	c #89423D",
"@4 	c #88413C",
"#4 	c #8C4743",
"$4 	c #934E49",
"%4 	c #944F4A",
"&4 	c #8C4843",
"*4 	c #86443E",
"=4 	c #80413B",
"-4 	c #7F403C",
";4 	c #7C4242",
">4 	c #763F40",
",4 	c #6F4F52",
"'4 	c #7D6D73",
")4 	c #77717A",
"!4 	c #74676C",
"~4 	c #524042",
"{4 	c #3B211E",
"]4 	c #2E1411",
"^4 	c #1B0A08",
"/4 	c #1F0A07",
"(4 	c #220B08",
"_4 	c #240B08",
":4 	c #270D09",
"<4 	c #2B100A",
"[4 	c #2D110B",
"}4 	c #2F110C",
"|4 	c #2F110B",
"14 	c #30120C",
"24 	c #31130D",
"34 	c #32140E",
"44 	c #33150F",
"54 	c #321611",
"64 	c #2F1510",
"74 	c #341714",
"84 	c #3F2E2F",
"94 	c #3C3232",
"04 	c #424142",
"a4 	c #4A4748",
"b4 	c #382524",
"c4 	c #361E1D",
"d4 	c #361C1A",
"e4 	c #371F1B",
"f4 	c #361E1A",
"g4 	c #351B18",
"h4 	c #341A17",
"i4 	c #361D19",
"j4 	c #351D19",
"k4 	c #371D1A",
"l4 	c #371E1A",
"m4 	c #3A201D",
"n4 	c #3C201E",
"o4 	c #3E2121",
"p4 	c #422424",
"q4 	c #3F2120",
"r4 	c #412321",
"s4 	c #432422",
"t4 	c #492625",
"u4 	c #4C2825",
"v4 	c #542B28",
"w4 	c #5B302D",
"x4 	c #613330",
"y4 	c #693733",
"z4 	c #6C3732",
"A4 	c #6B3530",
"B4 	c #78433C",
"C4 	c #834A44",
"D4 	c #854B44",
"E4 	c #844842",
"F4 	c #834740",
"G4 	c #844740",
"H4 	c #8B4C47",
"I4 	c #904C4A",
"J4 	c #8B4A4B",
"K4 	c #875153",
"L4 	c #BDA3AA",
"M4 	c #B8AEB6",
"N4 	c #BA9396",
"O4 	c #865353",
"P4 	c #915151",
"Q4 	c #94514E",
"R4 	c #904D43",
"S4 	c #8D4B3F",
"T4 	c #8E4A3D",
"U4 	c #8E493E",
"V4 	c #8C493E",
"W4 	c #8A483D",
"X4 	c #8B493D",
"Y4 	c #8B493E",
"Z4 	c #8D4D41",
"`4 	c #8B4C3F",
" 5 	c #8A4B3E",
".5 	c #7A322C",
"+5 	c #7D342E",
"@5 	c #843B35",
"#5 	c #88403A",
"$5 	c #8A433D",
"%5 	c #8C4744",
"&5 	c #924C4A",
"*5 	c #904B49",
"=5 	c #894441",
"-5 	c #83413D",
";5 	c #81413D",
">5 	c #7E3F3C",
",5 	c #7D4342",
"'5 	c #733F3E",
")5 	c #6E5153",
"!5 	c #7A6B71",
"~5 	c #756E78",
"{5 	c #5A4848",
"]5 	c #3A211F",
"^5 	c #2D130F",
"/5 	c #100404",
"(5 	c #100503",
"_5 	c #170806",
":5 	c #1A0805",
"<5 	c #200B08",
"[5 	c #240C08",
"}5 	c #280E0A",
"|5 	c #2C0F0B",
"15 	c #31120D",
"25 	c #361610",
"35 	c #3A1A12",
"45 	c #391811",
"55 	c #3A1810",
"65 	c #3B1811",
"75 	c #3C1911",
"85 	c #3E1B13",
"95 	c #3E1C14",
"05 	c #3D1E16",
"a5 	c #3A1D17",
"b5 	c #401E1B",
"c5 	c #442323",
"d5 	c #493637",
"e5 	c #473D3C",
"f5 	c #505050",
"g5 	c #595656",
"h5 	c #45302E",
"i5 	c #422624",
"j5 	c #402221",
"k5 	c #422422",
"l5 	c #432723",
"m5 	c #432722",
"n5 	c #432420",
"o5 	c #42231F",
"p5 	c #422521",
"q5 	c #412420",
"r5 	c #432622",
"s5 	c #40231F",
"t5 	c #432521",
"u5 	c #472924",
"v5 	c #492926",
"w5 	c #4B2929",
"x5 	c #502D2D",
"y5 	c #4B2827",
"z5 	c #4D2A29",
"A5 	c #502C2B",
"B5 	c #512C2B",
"C5 	c #522B29",
"D5 	c #552B2A",
"E5 	c #5B302C",
"F5 	c #60332F",
"G5 	c #643632",
"H5 	c #6A3A35",
"I5 	c #6E3D37",
"J5 	c #713D38",
"K5 	c #733C37",
"L5 	c #6C3631",
"M5 	c #7C453F",
"N5 	c #844C47",
"O5 	c #894F4A",
"P5 	c #854944",
"Q5 	c #80433D",
"R5 	c #81453F",
"S5 	c #854A45",
"T5 	c #894A47",
"U5 	c #8C4948",
"V5 	c #884949",
"W5 	c #875254",
"X5 	c #BEA7AA",
"Y5 	c #B3AAAF",
"Z5 	c #B28B8B",
"`5 	c #8A5756",
" 6 	c #915352",
".6 	c #92524D",
"+6 	c #8E4B41",
"@6 	c #8C4A3E",
"#6 	c #8C493B",
"$6 	c #8A4739",
"%6 	c #89463A",
"&6 	c #8A473B",
"*6 	c #8B483C",
"=6 	c #8C4B3F",
"-6 	c #7E3832",
";6 	c #7F3933",
">6 	c #87423B",
",6 	c #88423B",
"'6 	c #8A443D",
")6 	c #89443E",
"!6 	c #884540",
"~6 	c #884541",
"{6 	c #864440",
"]6 	c #85433F",
"^6 	c #874641",
"/6 	c #864642",
"(6 	c #82433F",
"_6 	c #7E4743",
":6 	c #6F3E39",
"<6 	c #6B5152",
"[6 	c #7E7177",
"}6 	c #736E76",
"|6 	c #6D6366",
"16 	c #605250",
"26 	c #402A27",
"36 	c #2F1714",
"46 	c #240F0D",
"56 	c #1A0908",
"66 	c #210D0A",
"76 	c #26100C",
"86 	c #30130F",
"96 	c #361612",
"06 	c #3B1814",
"a6 	c #42201A",
"b6 	c #47251D",
"c6 	c #49261E",
"d6 	c #4C261E",
"e6 	c #48231B",
"f6 	c #482119",
"g6 	c #4B251D",
"h6 	c #4D2820",
"i6 	c #4D2A21",
"j6 	c #48261F",
"k6 	c #512825",
"l6 	c #502929",
"m6 	c #402B2B",
"n6 	c #342B2A",
"o6 	c #646464",
"p6 	c #666362",
"q6 	c #513A37",
"r6 	c #4C2D2C",
"s6 	c #4D2A2A",
"t6 	c #4E2C2B",
"u6 	c #4E2E2C",
"v6 	c #4E2E2B",
"w6 	c #4E2C28",
"x6 	c #462620",
"y6 	c #4F2E29",
"z6 	c #52322B",
"A6 	c #55342E",
"B6 	c #502F29",
"C6 	c #4F2E28",
"D6 	c #53312D",
"E6 	c #522E2B",
"F6 	c #542F2D",
"G6 	c #532E2C",
"H6 	c #58322F",
"I6 	c #5E3835",
"J6 	c #5C3433",
"K6 	c #582F2D",
"L6 	c #5F3531",
"M6 	c #6D413B",
"N6 	c #6C3E38",
"O6 	c #6B3A33",
"P6 	c #6F3C36",
"Q6 	c #77413A",
"R6 	c #763F37",
"S6 	c #743F36",
"T6 	c #7A433A",
"U6 	c #834B42",
"V6 	c #864D45",
"W6 	c #894F47",
"X6 	c #864C45",
"Y6 	c #824440",
"Z6 	c #855554",
"`6 	c #B6A4A4",
" 7 	c #B2B0B0",
".7 	c #A88380",
"+7 	c #895953",
"@7 	c #8F564F",
"#7 	c #8C4E47",
"$7 	c #8C4C42",
"%7 	c #8C4C3F",
"&7 	c #8B4B3B",
"*7 	c #8C4B3C",
"=7 	c #8D4B3D",
"-7 	c #8C4A3D",
";7 	c #8B483B",
">7 	c #894639",
",7 	c #7F3D2F",
"'7 	c #803E30",
")7 	c #8A483A",
"!7 	c #7A3730",
"~7 	c #7E3B33",
"{7 	c #85423A",
"]7 	c #86433C",
"^7 	c #85433B",
"/7 	c #83433B",
"(7 	c #84443C",
"_7 	c #86463F",
":7 	c #884941",
"<7 	c #884A42",
"[7 	c #874942",
"}7 	c #82473F",
"|7 	c #73413C",
"17 	c #6C5151",
"27 	c #706467",
"37 	c #6D696F",
"47 	c #696263",
"57 	c #625753",
"67 	c #3F2B29",
"77 	c #251110",
"87 	c #190909",
"97 	c #0F0404",
"07 	c #1A0806",
"a7 	c #240F0C",
"b7 	c #2D1511",
"c7 	c #2F1410",
"d7 	c #361713",
"e7 	c #3C1A16",
"f7 	c #421C19",
"g7 	c #48211C",
"h7 	c #4D251F",
"i7 	c #502620",
"j7 	c #522721",
"k7 	c #522620",
"l7 	c #532620",
"m7 	c #552822",
"n7 	c #552923",
"o7 	c #552C23",
"p7 	c #542B21",
"q7 	c #5C2C28",
"r7 	c #582B2A",
"s7 	c #442D2D",
"t7 	c #635858",
"u7 	c #6D6C6E",
"v7 	c #583E3D",
"w7 	c #533131",
"x7 	c #542E2F",
"y7 	c #573030",
"z7 	c #573331",
"A7 	c #583533",
"B7 	c #5A3432",
"C7 	c #5A332F",
"D7 	c #59352C",
"E7 	c #5C3830",
"F7 	c #5E3931",
"G7 	c #5A362E",
"H7 	c #5C3930",
"I7 	c #5D3931",
"J7 	c #5F3A33",
"K7 	c #5E3731",
"L7 	c #5F3732",
"M7 	c #603833",
"N7 	c #623A34",
"O7 	c #663C37",
"P7 	c #653B36",
"Q7 	c #623832",
"R7 	c #673B34",
"S7 	c #71443C",
"T7 	c #704137",
"U7 	c #6F3F36",
"V7 	c #713F36",
"W7 	c #744138",
"X7 	c #77443A",
"Y7 	c #7C473C",
"Z7 	c #7B453B",
"`7 	c #80483D",
" 8 	c #824A40",
".8 	c #844B40",
"+8 	c #864C40",
"@8 	c #894E44",
"#8 	c #854B3F",
"$8 	c #864E43",
"%8 	c #8C5248",
"&8 	c #884F48",
"*8 	c #7A504D",
"=8 	c #B2A5A5",
"-8 	c #B5B6B8",
";8 	c #A17C76",
">8 	c #87564D",
",8 	c #90574E",
"'8 	c #8B4E44",
")8 	c #8E4F42",
"!8 	c #8E4F40",
"~8 	c #8C4F3D",
"{8 	c #8D4F3E",
"]8 	c #8F4F3F",
"^8 	c #8F4E3F",
"/8 	c #8D4B3C",
"(8 	c #8C4A3B",
"_8 	c #8A4A3A",
":8 	c #894939",
"<8 	c #8D4C3D",
"[8 	c #7D3D34",
"}8 	c #83433A",
"|8 	c #814138",
"18 	c #84433B",
"28 	c #814238",
"38 	c #7F4137",
"48 	c #804338",
"58 	c #86483E",
"68 	c #8B4E43",
"78 	c #884D42",
"88 	c #884C42",
"98 	c #834A3F",
"08 	c #75443E",
"a8 	c #6C514F",
"b8 	c #645858",
"c8 	c #686468",
"d8 	c #666160",
"e8 	c #625954",
"f8 	c #402D2A",
"g8 	c #301918",
"h8 	c #251211",
"i8 	c #27110F",
"j8 	c #321916",
"k8 	c #361916",
"l8 	c #3B1A17",
"m8 	c #421D1A",
"n8 	c #49201D",
"o8 	c #4D211E",
"p8 	c #552521",
"q8 	c #582722",
"r8 	c #5B2925",
"s8 	c #5D2A26",
"t8 	c #5C2A25",
"u8 	c #5D2E24",
"v8 	c #603023",
"w8 	c #66302B",
"x8 	c #5D2B28",
"y8 	c #472F2D",
"z8 	c #86787A",
"A8 	c #777378",
"B8 	c #888286",
"C8 	c #5E4142",
"D8 	c #593335",
"E8 	c #5B3033",
"F8 	c #5E3535",
"G8 	c #5F3837",
"H8 	c #623B3A",
"I8 	c #663C3A",
"J8 	c #673C39",
"K8 	c #6A4338",
"L8 	c #684137",
"M8 	c #684136",
"N8 	c #5F372D",
"O8 	c #6B4339",
"P8 	c #6A4137",
"Q8 	c #694037",
"R8 	c #683E36",
"S8 	c #6B4139",
"T8 	c #6B4037",
"U8 	c #6C4038",
"V8 	c #6C3F36",
"W8 	c #6E4037",
"X8 	c #75463B",
"Y8 	c #724337",
"Z8 	c #714135",
"`8 	c #774439",
" 9 	c #7A463A",
".9 	c #7C493C",
"+9 	c #814B3F",
"@9 	c #814B3E",
"#9 	c #8A5044",
"$9 	c #8A4F44",
"%9 	c #854B3E",
"&9 	c #854A3D",
"*9 	c #8A4E42",
"=9 	c #8B4E41",
"-9 	c #844A3C",
";9 	c #844B3D",
">9 	c #90574A",
",9 	c #8E574D",
"'9 	c #86554F",
")9 	c #714C47",
"!9 	c #AFA6A7",
"~9 	c #B8BABF",
"{9 	c #9B766D",
"]9 	c #865348",
"^9 	c #91584D",
"/9 	c #8A4E43",
"(9 	c #8F5142",
"_9 	c #8F5241",
":9 	c #8D513F",
"<9 	c #8F5240",
"[9 	c #915241",
"}9 	c #915140",
"|9 	c #8F4E3E",
"19 	c #935342",
"29 	c #90503F",
"39 	c #904F3F",
"49 	c #84413B",
"59 	c #84403C",
"69 	c #884440",
"79 	c #8A4843",
"89 	c #8E4A46",
"99 	c #8C4844",
"09 	c #8D4B43",
"a9 	c #8A4A40",
"b9 	c #87483E",
"c9 	c #894A41",
"d9 	c #8C4D43",
"e9 	c #884A40",
"f9 	c #864840",
"g9 	c #81473D",
"h9 	c #7B413F",
"i9 	c #7B4642",
"j9 	c #725451",
"k9 	c #524142",
"l9 	c #645C61",
"m9 	c #6A6364",
"n9 	c #5F5552",
"o9 	c #402C29",
"p9 	c #301916",
"q9 	c #1A0A09",
"r9 	c #100504",
"s9 	c #230F0B",
"t9 	c #381C18",
"u9 	c #44201C",
"v9 	c #4B231F",
"w9 	c #542722",
"x9 	c #592924",
"y9 	c #5D2A25",
"z9 	c #5E2924",
"A9 	c #602924",
"B9 	c #612924",
"C9 	c #622B25",
"D9 	c #662E28",
"E9 	c #69322C",
"F9 	c #6D372E",
"G9 	c #6B372A",
"H9 	c #723933",
"I9 	c #6C3633",
"J9 	c #5E4445",
"K9 	c #837678",
"L9 	c #8B878E",
"M9 	c #8C848A",
"N9 	c #6B4A48",
"O9 	c #693E3C",
"P9 	c #6B3C3B",
"Q9 	c #6A3C3A",
"R9 	c #6A3F3B",
"S9 	c #6D423D",
"T9 	c #72433F",
"U9 	c #73423D",
"V9 	c #74473D",
"W9 	c #73463D",
"X9 	c #704238",
"Y9 	c #704339",
"Z9 	c #6F4137",
"`9 	c #71433A",
" 0 	c #70423A",
".0 	c #6F4038",
"+0 	c #72433B",
"@0 	c #72433A",
"#0 	c #74443B",
"$0 	c #75443B",
"%0 	c #7A473D",
"&0 	c #7B483D",
"*0 	c #7E493E",
"=0 	c #804A3F",
"-0 	c #875046",
";0 	c #895146",
">0 	c #885045",
",0 	c #864D42",
"'0 	c #8C5046",
")0 	c #84463C",
"!0 	c #87483F",
"~0 	c #96564C",
"{0 	c #95564B",
"]0 	c #95544A",
"^0 	c #945349",
"/0 	c #8F5145",
"(0 	c #8C5346",
"_0 	c #93594C",
":0 	c #925B51",
"<0 	c #8A5953",
"[0 	c #855E5B",
"}0 	c #B6ABAE",
"|0 	c #B4B3BA",
"10 	c #A17770",
"20 	c #885047",
"30 	c #95584E",
"40 	c #904F46",
"50 	c #935145",
"60 	c #925244",
"70 	c #905242",
"80 	c #905041",
"90 	c #914F42",
"00 	c #934F43",
"a0 	c #955145",
"b0 	c #945145",
"c0 	c #8C483C",
"d0 	c #8F4B3F",
"e0 	c #884646",
"f0 	c #8B4949",
"g0 	c #8E4D4C",
"h0 	c #8C4A49",
"i0 	c #8A4847",
"j0 	c #8D4D4A",
"k0 	c #8A4C47",
"l0 	c #864943",
"m0 	c #894B46",
"n0 	c #8D504A",
"o0 	c #884C48",
"p0 	c #7C4445",
"q0 	c #7B4645",
"r0 	c #704F4E",
"s0 	c #614E50",
"t0 	c #6E646A",
"u0 	c #6E6568",
"v0 	c #5E5351",
"w0 	c #2F1916",
"x0 	c #1A0B09",
"y0 	c #23100C",
"z0 	c #2E1412",
"A0 	c #381B17",
"B0 	c #3D1C17",
"C0 	c #411C17",
"D0 	c #491F1A",
"E0 	c #5F2E28",
"F0 	c #64312B",
"G0 	c #68332C",
"H0 	c #6A332D",
"I0 	c #6C332C",
"J0 	c #6D332D",
"K0 	c #6F362F",
"L0 	c #733933",
"M0 	c #723B32",
"N0 	c #6B382E",
"O0 	c #733B37",
"P0 	c #6C3937",
"Q0 	c #7A6567",
"R0 	c #968C8F",
"S0 	c #949199",
"T0 	c #968D93",
"U0 	c #73514E",
"V0 	c #724743",
"W0 	c #73413F",
"X0 	c #73433F",
"Y0 	c #744741",
"Z0 	c #764842",
"`0 	c #784841",
" a 	c #7B4A43",
".a 	c #7A4842",
"+a 	c #7A4841",
"@a 	c #75443F",
"#a 	c #784740",
"$a 	c #7B4842",
"%a 	c #834E46",
"&a 	c #824D45",
"*a 	c #844F46",
"=a 	c #885149",
"-a 	c #8B534C",
";a 	c #8D544E",
">a 	c #925751",
",a 	c #8C4F49",
"'a 	c #945750",
")a 	c #92544D",
"!a 	c #92524B",
"~a 	c #8E534B",
"{a 	c #8C544B",
"]a 	c #8E564E",
"^a 	c #865754",
"/a 	c #8B6564",
"(a 	c #BCADB4",
"_a 	c #B9B2BC",
":a 	c #936A64",
"<a 	c #7C4640",
"[a 	c #925752",
"}a 	c #93544D",
"|a 	c #90534B",
"1a 	c #8D5349",
"2a 	c #8B5046",
"3a 	c #91514A",
"4a 	c #8D4E48",
"5a 	c #8F514B",
"6a 	c #985953",
"7a 	c #8D4E52",
"8a 	c #905155",
"9a 	c #8F5054",
"0a 	c #935458",
"aa 	c #88494D",
"ba 	c #86484B",
"ca 	c #8D5052",
"da 	c #8A4F4F",
"ea 	c #884D4D",
"fa 	c #8F5454",
"ga 	c #905656",
"ha 	c #8B5151",
"ia 	c #804A4E",
"ja 	c #7B4749",
"ka 	c #6C474A",
"la 	c #765F63",
"ma 	c #7D6F77",
"na 	c #74686E",
"oa 	c #5B4E50",
"pa 	c #3F2B28",
"qa 	c #2F1A15",
"ra 	c #24120E",
"sa 	c #100604",
"ta 	c #130705",
"ua 	c #2F1812",
"va 	c #331812",
"wa 	c #3D1D18",
"xa 	c #330F08",
"ya 	c #391109",
"za 	c #4B1E18",
"Aa 	c #62332C",
"Ba 	c #6B3831",
"Ca 	c #723E36",
"Da 	c #764138",
"Ea 	c #773F37",
"Fa 	c #794038",
"Ga 	c #7B433B",
"Ha 	c #703E36",
"Ia 	c #62372E",
"Ja 	c #6A3C39",
"Ka 	c #623737",
"La 	c #9B8C8D",
"Ma 	c #AFA9AB",
"Na 	c #9998A0",
"Oa 	c #9C9299",
"Pa 	c #7B5954",
"Qa 	c #7D504A",
"Ra 	c #784641",
"Sa 	c #7B4942",
"Ta 	c #7D4F46",
"Ua 	c #7B4E44",
"Va 	c #7B4940",
"Wa 	c #804B43",
"Xa 	c #7F4A48",
"Ya 	c #804C4A",
"Za 	c #824D4C",
"`a 	c #814D4B",
" b 	c #814B4A",
".b 	c #7E4A48",
"+b 	c #764442",
"@b 	c #7B4846",
"#b 	c #7F4C4A",
"$b 	c #804C49",
"%b 	c #814C4A",
"&b 	c #844F4D",
"*b 	c #8A5553",
"=b 	c #87524F",
"-b 	c #844E4C",
";b 	c #8D5754",
">b 	c #8F5856",
",b 	c #975F5D",
"'b 	c #99615E",
")b 	c #8D5250",
"!b 	c #955A58",
"~b 	c #925654",
"{b 	c #915654",
"]b 	c #8D514E",
"^b 	c #8A5452",
"/b 	c #86514F",
"(b 	c #7D4C4B",
"_b 	c #805455",
":b 	c #926E70",
"<b 	c #C4B0BB",
"[b 	c #BFB1BF",
"}b 	c #764D4C",
"|b 	c #65302E",
"1b 	c #8D5658",
"2b 	c #8D5354",
"3b 	c #915858",
"4b 	c #895452",
"5b 	c #8E5554",
"6b 	c #915857",
"7b 	c #955D5D",
"8b 	c #A56B6B",
"9b 	c #7B484D",
"0b 	c #87565B",
"ab 	c #835156",
"bb 	c #815054",
"cb 	c #825156",
"db 	c #764549",
"eb 	c #78484B",
"fb 	c #79494B",
"gb 	c #78474A",
"hb 	c #7D4D50",
"ib 	c #88585B",
"jb 	c #8B5C5F",
"kb 	c #805255",
"lb 	c #794B4F",
"mb 	c #774B50",
"nb 	c #663D40",
"ob 	c #6B4D4F",
"pb 	c #7E6B70",
"qb 	c #786E76",
"rb 	c #746B71",
"sb 	c #52474A",
"tb 	c #3B2A29",
"ub 	c #2C1C18",
"vb 	c #211210",
"wb 	c #150A08",
"xb 	c #0C0504",
"yb 	c #0D0505",
"zb 	c #1C0F0D",
"Ab 	c #291916",
"Bb 	c #33201C",
"Cb 	c #3D2723",
"Db 	c #422925",
"Eb 	c #422420",
"Fb 	c #49241F",
"Gb 	c #603B37",
"Hb 	c #6B443F",
"Ib 	c #744A46",
"Jb 	c #754A47",
"Kb 	c #714741",
"Lb 	c #754944",
"Mb 	c #764945",
"Nb 	c #71504B",
"Ob 	c #704A4A",
"Pb 	c #704F51",
"Qb 	c #968B8E",
"Rb 	c #A7A6A9",
"Sb 	c #B0AFB6",
"Tb 	c #B7B0B8",
"Ub 	c #7D645F",
"Vb 	c #734F4C",
"Wb 	c #784D4C",
"Xb 	c #7B524E",
"Yb 	c #77514C",
"Zb 	c #77534B",
"`b 	c #805750",
" c 	c #815456",
".c 	c #86595A",
"+c 	c #85575A",
"@c 	c #87595C",
"#c 	c #835657",
"$c 	c #825457",
"%c 	c #865959",
"&c 	c #815656",
"*c 	c #794E4E",
"=c 	c #7C5251",
"-c 	c #7E5353",
";c 	c #815555",
">c 	c #845858",
",c 	c #845959",
"'c 	c #825757",
")c 	c #895E60",
"!c 	c #8C6062",
"~c 	c #936969",
"{c 	c #936768",
"]c 	c #926767",
"^c 	c #7D5150",
"/c 	c #885B5D",
"(c 	c #8F6263",
"_c 	c #8E6161",
":c 	c #8A5E5F",
"<c 	c #8D6061",
"[c 	c #8D6364",
"}c 	c #8B6264",
"|c 	c #8D6566",
"1c 	c #8B6768",
"2c 	c #856566",
"3c 	c #866B6E",
"4c 	c #C4B3BD",
"5c 	c #D0C5D1",
"6c 	c #B5989B",
"7c 	c #9D7C7D",
"8c 	c #8D6869",
"9c 	c #90696C",
"0c 	c #906A6D",
"ac 	c #8A6669",
"bc 	c #846365",
"cc 	c #856365",
"dc 	c #845E60",
"ec 	c #835B5E",
"fc 	c #8D6568",
"gc 	c #886164",
"hc 	c #835C5E",
"ic 	c #754E50",
"jc 	c #9B7375",
"kc 	c #89686B",
"lc 	c #927073",
"mc 	c #8D6B6E",
"nc 	c #917073",
"oc 	c #856669",
"pc 	c #86676B",
"qc 	c #86676C",
"rc 	c #8A6B70",
"sc 	c #927276",
"tc 	c #947276",
"uc 	c #89696D",
"vc 	c #816267",
"wc 	c #7C5E63",
"xc 	c #6D5254",
"yc 	c #6E595A",
"zc 	c #7D6F73",
"Ac 	c #767077",
"Bc 	c #736D74",
"Cc 	c #534A4E",
"Dc 	c #2F2322",
"Ec 	c #221818",
"Fc 	c #170F0E",
"Gc 	c #0E0707",
"Hc 	c #070404",
"Ic 	c #0E0808",
"Jc 	c #160D0C",
"Kc 	c #1D1312",
"Lc 	c #291C1C",
"Mc 	c #332524",
"Nc 	c #3C2B29",
"Oc 	c #463332",
"Pc 	c #4F3B3D",
"Qc 	c #5C4547",
"Rc 	c #654B4C",
"Sc 	c #6E5253",
"Tc 	c #7B5E5F",
"Uc 	c #7F6163",
"Vc 	c #7E6264",
"Wc 	c #816667",
"Xc 	c #876B6D",
"Yc 	c #896B6E",
"Zc 	c #866B6D",
"`c 	c #87706F",
" d 	c #8A6F73",
".d 	c #8C7276",
"+d 	c #A39DA0",
"@d 	c #ADAEB2",
"#d 	c #B9B9C0",
"$d 	c #BEB9C1",
"%d 	c #908283",
"&d 	c #877073",
"*d 	c #886F70",
"=d 	c #897070",
"-d 	c #8F7271",
";d 	c #937171",
">d 	c #906E71",
",d 	c #926F72",
"'d 	c #8F6C70",
")d 	c #916F72",
"!d 	c #906E72",
"~d 	c #937274",
"{d 	c #917374",
"]d 	c #8A6C6D",
"^d 	c #8C6D6E",
"/d 	c #8D6F6F",
"(d 	c #8D6E6F",
"_d 	c #8E6D6F",
":d 	c #8E6F70",
"<d 	c #8E6F6F",
"[d 	c #8A6D6D",
"}d 	c #8D6F70",
"|d 	c #907070",
"1d 	c #937577",
"2d 	c #957678",
"3d 	c #9B7C7D",
"4d 	c #9C7D7E",
"5d 	c #9B7F7F",
"6d 	c #8F7475",
"7d 	c #967A7B",
"8d 	c #9C7F80",
"9d 	c #9A7E7E",
"0d 	c #997D7E",
"ad 	c #9C8081",
"bd 	c #9C8284",
"cd 	c #9A8185",
"dd 	c #9D8687",
"ed 	c #988586",
"fd 	c #98898B",
"gd 	c #C4B9C1",
"hd 	c #D4CDD8",
"id 	c #C0AEB1",
"jd 	c #B19E9F",
"kd 	c #A08B8D",
"ld 	c #A68F93",
"md 	c #A59093",
"nd 	c #9E8B8F",
"od 	c #968689",
"pd 	c #958386",
"qd 	c #937F82",
"rd 	c #9A8488",
"sd 	c #967F84",
"td 	c #8E787C",
"ud 	c #836F72",
"vd 	c #9F8589",
"wd 	c #B0A3A4",
"xd 	c #B2A6A6",
"yd 	c #AC9FA1",
"zd 	c #AEA2A3",
"Ad 	c #B8ACAD",
"Bd 	c #AFA2A4",
"Cd 	c #AB9FA3",
"Dd 	c #ABA0A6",
"Ed 	c #ADA2A9",
"Fd 	c #AFA4AB",
"Gd 	c #B0A7AD",
"Hd 	c #ACA2A8",
"Id 	c #A2999F",
"Jd 	c #999097",
"Kd 	c #8E868A",
"Ld 	c #877E7D",
"Md 	c #787471",
"Nd 	c #737376",
"Od 	c #6F7379",
"Pd 	c #71737A",
"Qd 	c #5C5A5F",
"Rd 	c #454043",
"Sd 	c #363234",
"Td 	c #292628",
"Ud 	c #1D1A1B",
"Vd 	c #121011",
"Wd 	c #0B090A",
"Xd 	c #060405",
"Yd 	c #0A0709",
"Zd 	c #110E0F",
"`d 	c #1F1B1D",
" e 	c #262124",
".e 	c #322E31",
"+e 	c #363135",
"@e 	c #4E464A",
"#e 	c #665B60",
"$e 	c #73686D",
"%e 	c #82767C",
"&e 	c #736870",
"*e 	c #766E76",
"=e 	c #8B828A",
"-e 	c #958B95",
";e 	c #9D939D",
">e 	c #A69CA6",
",e 	c #AFA5AE",
"'e 	c #B3A9B2",
")e 	c #ABA1A8",
"!e 	c #B3A7AB",
"~e 	c #C0AEB5",
"{e 	c #C1B2B9",
"]e 	c #BFC2C6",
"^e 	c #B9C1C4",
"/e 	c #C4C6CC",
"(e 	c #C1C0C8",
"_e 	c #BABDC5",
":e 	c #B4ADB8",
"<e 	c #B3A5B2",
"[e 	c #B0A4B0",
"}e 	c #B0A8B1",
"|e 	c #B1A9B2",
"1e 	c #B1A5AE",
"2e 	c #B2A2A9",
"3e 	c #B0A1A5",
"4e 	c #A89B9F",
"5e 	c #A5969A",
"6e 	c #A7999D",
"7e 	c #B0A1A6",
"8e 	c #B1A1A6",
"9e 	c #ADA1A4",
"0e 	c #B2A8AB",
"ae 	c #B0A7A9",
"be 	c #AEA4A6",
"ce 	c #ADA2A4",
"de 	c #A99FA1",
"ee 	c #A69B9E",
"fe 	c #A39A9B",
"ge 	c #A19B9C",
"he 	c #A1999A",
"ie 	c #9A9394",
"je 	c #ABA4A5",
"ke 	c #ACA4A5",
"le 	c #ABA3A3",
"me 	c #B3AAAB",
"ne 	c #B5AFAF",
"oe 	c #BCB7B7",
"pe 	c #BCB8B8",
"qe 	c #BFBABB",
"re 	c #B9B5B6",
"se 	c #BDB9BA",
"te 	c #C2BEBE",
"ue 	c #C2BEC1",
"ve 	c #C0BCC3",
"we 	c #BFBCC1",
"xe 	c #C4C1C2",
"ye 	c #C5C3C4",
"ze 	c #C8C8C9",
"Ae 	c #C3C8CC",
"Be 	c #DADFE5",
"Ce 	c #D0D4D7",
"De 	c #D7DADC",
"Ee 	c #CDCED1",
"Fe 	c #D8D7DC",
"Ge 	c #D6D7DC",
"He 	c #CED1D5",
"Ie 	c #C3C9CE",
"Je 	c #BAC0C5",
"Ke 	c #BABDC2",
"Le 	c #BEC0C5",
"Me 	c #B8BBC0",
"Ne 	c #AEB1B7",
"Oe 	c #ADAFB4",
"Pe 	c #ADB0B5",
"Qe 	c #B1ADAE",
"Re 	c #AFABAC",
"Se 	c #B2AFB1",
"Te 	c #B6B2B4",
"Ue 	c #B6B3B3",
"Ve 	c #B2B0B1",
"We 	c #B3B0B3",
"Xe 	c #B0ADB1",
"Ye 	c #B4B1B6",
"Ze 	c #BBB7BC",
"`e 	c #B4B3B7",
" f 	c #B2B2B6",
".f 	c #A1A1A5",
"+f 	c #9B9B9F",
"@f 	c #9B999E",
"#f 	c #8D8B8D",
"$f 	c #89888A",
"%f 	c #858689",
"&f 	c #7F8287",
"*f 	c #6F7076",
"=f 	c #605F64",
"-f 	c #504D50",
";f 	c #423E41",
">f 	c #232123",
",f 	c #171618",
"'f 	c #030203",
")f 	c #0C0C0D",
"!f 	c #141415",
"~f 	c #1B1B1D",
"{f 	c #2D2B2F",
"]f 	c #3A383D",
"^f 	c #454449",
"/f 	c #575257",
"(f 	c #655F64",
"_f 	c #756F75",
":f 	c #817B82",
"<f 	c #8A888E",
"[f 	c #959298",
"}f 	c #A09CA3",
"|f 	c #A7A2A8",
"1f 	c #AFA9B0",
"2f 	c #B3ADB4",
"3f 	c #B0A9B0",
"4f 	c #B7AFB6",
"5f 	c #C1B7BD",
"6f 	c #CDC0C9",
"7f 	c #D2C8CF",
"8f 	c #BDBDC5",
"9f 	c #BFC1C8",
"0f 	c #CECDD7",
"af 	c #CFCDD7",
"bf 	c #C6C6CE",
"cf 	c #C5C1CB",
"df 	c #C3BBC7",
"ef 	c #C7BFCA",
"ff 	c #C3BDC5",
"gf 	c #C6BEC7",
"hf 	c #CCC3CB",
"if 	c #C6BCC4",
"jf 	c #B9B1B7",
"kf 	c #BBB5BA",
"lf 	c #B8B2BC",
"mf 	c #B5B0B8",
"nf 	c #C4C1C9",
"of 	c #BCB9C0",
"pf 	c #C5C2C7",
"qf 	c #BBB9BB",
"rf 	c #C8C6C8",
"sf 	c #C6C5C8",
"tf 	c #BDBDC0",
"uf 	c #B7B8BC",
"vf 	c #B0B4B6",
"wf 	c #AAAFAD",
"xf 	c #B9B6B7",
"yf 	c #C3BEC0",
"zf 	c #BCB7B8",
"Af 	c #C7C4C4",
"Bf 	c #D5D2CF",
"Cf 	c #CFC4C2",
"Df 	c #D2C7CA",
"Ef 	c #DAD0D6",
"Ff 	c #D7CED5",
"Gf 	c #D2CAD0",
"Hf 	c #D1CBD1",
"If 	c #D2CDD3",
"Jf 	c #D1CED2",
"Kf 	c #CECBD0",
"Lf 	c #D0C9D1",
"Mf 	c #D6CFD5",
"Nf 	c #CEC8CD",
"Of 	c #CEC9CC",
"Pf 	c #D8D4D9",
"Qf 	c #D1CDD4",
"Rf 	c #DBDAE0",
"Sf 	c #E0DCE2",
"Tf 	c #E6E3E8",
"Uf 	c #E3DDE2",
"Vf 	c #DFD7DC",
"Wf 	c #DED6DA",
"Xf 	c #D8D0D3",
"Yf 	c #D3CCCE",
"Zf 	c #D4CDD1",
"`f 	c #D4CDD3",
" g 	c #D0C9D0",
".g 	c #CBC6CC",
"+g 	c #C0BDC4",
"@g 	c #C1C0C6",
"#g 	c #B9BAC0",
"$g 	c #BABCC3",
"%g 	c #ADA9AA",
"&g 	c #B7B4B6",
"*g 	c #B6B3B4",
"=g 	c #B2B1B2",
"-g 	c #B2AEB2",
";g 	c #B7B3B8",
">g 	c #BDB9BD",
",g 	c #B6B4B7",
"'g 	c #B6B6B9",
")g 	c #A8A7AA",
"!g 	c #A4A3A6",
"~g 	c #A5A1A6",
"{g 	c #8F8B8E",
"]g 	c #8E8A8E",
"^g 	c #88868A",
"/g 	c #818187",
"(g 	c #6E6D73",
"_g 	c #5F5D62",
":g 	c #544F53",
"<g 	c #464144",
"[g 	c #343033",
"}g 	c #242224",
"|g 	c #191719",
"1g 	c #0F0E10",
"2g 	c #070607",
"3g 	c #060506",
"4g 	c #0B0B0C",
"5g 	c #121214",
"6g 	c #191A1C",
"7g 	c #232325",
"8g 	c #2C2C2F",
"9g 	c #3B393D",
"0g 	c #454247",
"ag 	c #534E53",
"bg 	c #5E595C",
"cg 	c #6E686E",
"dg 	c #787379",
"eg 	c #7A767B",
"fg 	c #878488",
"gg 	c #8D8A8E",
"hg 	c #979398",
"ig 	c #9F999F",
"jg 	c #A59FA5",
"kg 	c #A9A1A8",
"lg 	c #A59DA3",
"mg 	c #AEA5AC",
"ng 	c #B9AEB5",
"og 	c #C6B9C1",
"pg 	c #CCC1C8",
"qg 	c #B9B5BC",
"rg 	c #CDC8D1",
"sg 	c #CEC8D3",
"tg 	c #C1BFC6",
"ug 	c #C4BFC7",
"vg 	c #C3BAC4",
"wg 	c #C7BEC8",
"xg 	c #C5BCC4",
"yg 	c #C8BEC5",
"zg 	c #D0C4CC",
"Ag 	c #C9BEC5",
"Bg 	c #BFB6BB",
"Cg 	c #C3BBC1",
"Dg 	c #C2BAC1",
"Eg 	c #C4BDC4",
"Fg 	c #C1B9C3",
"Gg 	c #BEB8C0",
"Hg 	c #D0CCD4",
"Ig 	c #C6C1C8",
"Jg 	c #CEC9CE",
"Kg 	c #BEBBBD",
"Lg 	c #CDCACC",
"Mg 	c #CCCBCE",
"Ng 	c #C3C4C8",
"Og 	c #BCBFC3",
"Pg 	c #B5BBBE",
"Qg 	c #B1B6B4",
"Rg 	c #C1BDBE",
"Sg 	c #CCC6C8",
"Tg 	c #BEB7B8",
"Ug 	c #CBC7C7",
"Vg 	c #D9D5D1",
"Wg 	c #CFC2BF",
"Xg 	c #D0C3C6",
"Yg 	c #D9CCD3",
"Zg 	c #D6CAD2",
"`g 	c #D0C6CC",
" h 	c #D1C9CF",
".h 	c #D1CAD0",
"+h 	c #CECACE",
"@h 	c #CBC6CB",
"#h 	c #CEC6CC",
"$h 	c #D7CDD3",
"%h 	c #CDC3C9",
"&h 	c #C9C2C5",
"*h 	c #D5CDD2",
"=h 	c #CFC7CD",
"-h 	c #D5CFD5",
";h 	c #DCD4DA",
">h 	c #E1DAE0",
",h 	c #E1D7DC",
"'h 	c #D8CDD2",
")h 	c #D9CDCF",
"!h 	c #D4C8C9",
"~h 	c #D0C4C5",
"{h 	c #D3C7CA",
"]h 	c #D2C7CD",
"^h 	c #CEC3CA",
"/h 	c #C9C0C6",
"(h 	c #BFB8BF",
"_h 	c #C4BFC5",
":h 	c #BDBABF",
"<h 	c #BFBFC5",
"[h 	c #9C7F83",
"}h 	c #A5898B",
"|h 	c #A88E91",
"1h 	c #B69DA0",
"2h 	c #BEA6A8",
"3h 	c #B29A9D",
"4h 	c #A99093",
"5h 	c #B79CA1",
"6h 	c #BDA2A7",
"7h 	c #B69CA1",
"8h 	c #B8A1A5",
"9h 	c #C4ACB0",
"0h 	c #D4BFC2",
"ah 	c #D1BCC0",
"bh 	c #CCB5BB",
"ch 	c #8A7278",
"dh 	c #937C82",
"eh 	c #7B686E",
"fh 	c #746267",
"gh 	c #68565B",
"hh 	c #5A4C50",
"ih 	c #56494C",
"jh 	c #483D3F",
"kh 	c #383032",
"lh 	c #292325",
"mh 	c #1E1A1C",
"nh 	c #131214",
"oh 	c #1E1D1E",
"ph 	c #2B272A",
"qh 	c #403739",
"rh 	c #453C3C",
"sh 	c #423433",
"th 	c #4D3E3C",
"uh 	c #584847",
"vh 	c #625151",
"wh 	c #73605F",
"xh 	c #75605D",
"yh 	c #68524F",
"zh 	c #624B49",
"Ah 	c #79605E",
"Bh 	c #816663",
"Ch 	c #735755",
"Dh 	c #6F5352",
"Eh 	c #6B4F4D",
"Fh 	c #745756",
"Gh 	c #927472",
"Hh 	c #8D6D6D",
"Ih 	c #B39695",
"Jh 	c #CBADAD",
"Kh 	c #BFA0A1",
"Lh 	c #B99D9C",
"Mh 	c #896C69",
"Nh 	c #8F726D",
"Oh 	c #A0827E",
"Ph 	c #A0807D",
"Qh 	c #A58380",
"Rh 	c #AB8885",
"Sh 	c #AE8987",
"Th 	c #B59391",
"Uh 	c #D2B2B1",
"Vh 	c #DCBEBD",
"Wh 	c #D0B4B3",
"Xh 	c #E0C6C7",
"Yh 	c #E6C9CC",
"Zh 	c #F2D6DB",
"`h 	c #ECCDD4",
" i 	c #DFC2C7",
".i 	c #B2999B",
"+i 	c #B7A0A1",
"@i 	c #C4B8BD",
"#i 	c #BFB7BF",
"$i 	c #BCB9BE",
"%i 	c #CAC5C4",
"&i 	c #CDB7B9",
"*i 	c #CFB2B5",
"=i 	c #A28789",
"-i 	c #AB9391",
";i 	c #9E8481",
">i 	c #8E6765",
",i 	c #7D5554",
"'i 	c #8E6564",
")i 	c #8B6462",
"!i 	c #8F6C69",
"~i 	c #997774",
"{i 	c #9C7D79",
"]i 	c #987A76",
"^i 	c #967772",
"/i 	c #A3827C",
"(i 	c #B6948F",
"_i 	c #AC8A84",
":i 	c #886762",
"<i 	c #8B6963",
"[i 	c #9B7A73",
"}i 	c #9E7D78",
"|i 	c #94716E",
"1i 	c #8D6966",
"2i 	c #9F7874",
"3i 	c #89615C",
"4i 	c #996D67",
"5i 	c #9D7169",
"6i 	c #986B63",
"7i 	c #8C6058",
"8i 	c #825852",
"9i 	c #89625D",
"0i 	c #9C7873",
"ai 	c #A3817E",
"bi 	c #B79994",
"ci 	c #C0A3A0",
"di 	c #D0B6B4",
"ei 	c #835C5F",
"fi 	c #805C5E",
"gi 	c #886567",
"hi 	c #967677",
"ii 	c #8C6C6E",
"ji 	c #89676A",
"ki 	c #926E73",
"li 	c #977378",
"mi 	c #967277",
"ni 	c #957478",
"oi 	c #98797C",
"pi 	c #A28689",
"qi 	c #AB8F92",
"ri 	c #AA8A91",
"si 	c #826067",
"ti 	c #6D5258",
"ui 	c #60474C",
"vi 	c #584146",
"wi 	c #4F3A3E",
"xi 	c #473437",
"yi 	c #3C2E30",
"zi 	c #312527",
"Ai 	c #251C1D",
"Bi 	c #1A1315",
"Ci 	c #140F10",
"Di 	c #0F0B0C",
"Ei 	c #080607",
"Fi 	c #0A0708",
"Gi 	c #1C191A",
"Hi 	c #2C2222",
"Ii 	c #302423",
"Ji 	c #2D1E1C",
"Ki 	c #362422",
"Li 	c #3D2A29",
"Mi 	c #42302E",
"Ni 	c #523C3A",
"Oi 	c #563E3B",
"Pi 	c #533733",
"Qi 	c #4E322E",
"Ri 	c #593C39",
"Si 	c #61413E",
"Ti 	c #5D3B38",
"Ui 	c #5A3735",
"Vi 	c #5E3936",
"Wi 	c #78534F",
"Xi 	c #6D4A48",
"Yi 	c #846361",
"Zi 	c #967473",
"`i 	c #8A6969",
" j 	c #876765",
".j 	c #7D5651",
"+j 	c #7F5953",
"@j 	c #815C56",
"#j 	c #805A54",
"$j 	c #875E59",
"%j 	c #8B605C",
"&j 	c #8E6561",
"*j 	c #9B7673",
"=j 	c #9C7875",
"-j 	c #9D7D7A",
";j 	c #9D7A78",
">j 	c #A68685",
",j 	c #A88788",
"'j 	c #B99799",
")j 	c #C19B9C",
"!j 	c #B38E8F",
"~j 	c #937070",
"{j 	c #9A7A79",
"]j 	c #AF9799",
"^j 	c #BBA8AD",
"/j 	c #BFB1B9",
"(j 	c #C8BEC4",
"_j 	c #D0C4C4",
":j 	c #A68A8C",
"<j 	c #AC888D",
"[j 	c #9D7878",
"}j 	c #9A7977",
"|j 	c #967370",
"1j 	c #8C5B5A",
"2j 	c #885652",
"3j 	c #905E58",
"4j 	c #8C5E57",
"5j 	c #8E625C",
"6j 	c #885F59",
"7j 	c #865F57",
"8j 	c #896058",
"9j 	c #90655D",
"0j 	c #9A7068",
"aj 	c #9F736A",
"bj 	c #92645A",
"cj 	c #8B5E55",
"dj 	c #92655C",
"ej 	c #895E56",
"fj 	c #966863",
"gj 	c #91635D",
"hj 	c #94655E",
"ij 	c #8B5952",
"jj 	c #925F56",
"kj 	c #925E55",
"lj 	c #935D54",
"mj 	c #925C52",
"nj 	c #8C594F",
"oj 	c #8C5C53",
"pj 	c #966860",
"qj 	c #AD857D",
"rj 	c #B68F88",
"sj 	c #BA9791",
"tj 	c #723D3F",
"uj 	c #642E30",
"vj 	c #713F3F",
"wj 	c #714041",
"xj 	c #794A4A",
"yj 	c #704141",
"zj 	c #744245",
"Aj 	c #774448",
"Bj 	c #7C494E",
"Cj 	c #804F53",
"Dj 	c #7C4D50",
"Ej 	c #774A4D",
"Fj 	c #7A5154",
"Gj 	c #8E676A",
"Hj 	c #91686E",
"Ij 	c #7C555A",
"Jj 	c #50272D",
"Kj 	c #4E282D",
"Lj 	c #442125",
"Mj 	c #3E2023",
"Nj 	c #3B2023",
"Oj 	c #260F11",
"Pj 	c #1B090B",
"Qj 	c #140707",
"Rj 	c #0B0707",
"Sj 	c #070405",
"Tj 	c #0F0D0E",
"Uj 	c #211C1E",
"Vj 	c #1D1010",
"Wj 	c #221210",
"Xj 	c #1F0B07",
"Yj 	c #28100C",
"Zj 	c #2B120E",
"`j 	c #3A1F1C",
" k 	c #41231E",
".k 	c #401C17",
"+k 	c #431D17",
"@k 	c #4A211C",
"#k 	c #4D241F",
"$k 	c #4A1F1A",
"%k 	c #532621",
"&k 	c #51251E",
"*k 	c #572B24",
"=k 	c #61342F",
"-k 	c #6D413C",
";k 	c #63332E",
">k 	c #74453B",
",k 	c #6B3A2F",
"'k 	c #69362C",
")k 	c #713C33",
"!k 	c #763E34",
"~k 	c #743930",
"{k 	c #72372E",
"]k 	c #6E3930",
"^k 	c #713C34",
"/k 	c #673129",
"(k 	c #754039",
"_k 	c #78453F",
":k 	c #73413D",
"<k 	c #8A5C59",
"[k 	c #A16F6C",
"}k 	c #93615D",
"|k 	c #7F4E4B",
"1k 	c #865A59",
"2k 	c #A58588",
"3k 	c #B59DA3",
"4k 	c #BEADB5",
"5k 	c #CEC1C7",
"6k 	c #D3C3C3",
"7k 	c #8A6569",
"8k 	c #94686C",
"9k 	c #996D6C",
"0k 	c #8F6663",
"ak 	c #906762",
"bk 	c #8A5251",
"ck 	c #90584E",
"dk 	c #844C42",
"ek 	c #895348",
"fk 	c #865247",
"gk 	c #7B473C",
"hk 	c #7C493D",
"ik 	c #824F42",
"jk 	c #844F42",
"kk 	c #885346",
"lk 	c #976154",
"mk 	c #966154",
"nk 	c #8B5649",
"ok 	c #8B5548",
"pk 	c #7A4336",
"qk 	c #966059",
"rk 	c #925C54",
"sk 	c #8B5349",
"tk 	c #8A4F45",
"uk 	c #93574B",
"vk 	c #91574B",
"wk 	c #8D574A",
"xk 	c #925C50",
"yk 	c #935F54",
"zk 	c #A6766A",
"Ak 	c #AF8076",
"Bk 	c #AB8076",
"Ck 	c #6F2826",
"Dk 	c #732D2A",
"Ek 	c #833F3D",
"Fk 	c #8A4846",
"Gk 	c #864541",
"Hk 	c #884845",
"Ik 	c #894946",
"Jk 	c #80413E",
"Kk 	c #7B3D3B",
"Lk 	c #824542",
"Mk 	c #874C48",
"Nk 	c #864D49",
"Ok 	c #804845",
"Pk 	c #74413C",
"Qk 	c #76403E",
"Rk 	c #723E3E",
"Sk 	c #693837",
"Tk 	c #6B3D3C",
"Uk 	c #5B3231",
"Vk 	c #502A2A",
"Wk 	c #452423",
"Xk 	c #361818",
"Yk 	c #2B1212",
"Zk 	c #1E0A0A",
"`k 	c #120404",
" l 	c #0A0202",
".l 	c #020001",
"+l 	c #0F0E0E",
"@l 	c #161414",
"#l 	c #1E191A",
"$l 	c #180807",
"%l 	c #1C0908",
"&l 	c #250E0C",
"*l 	c #2A100D",
"=l 	c #2D110D",
"-l 	c #341412",
";l 	c #3A1614",
">l 	c #3D1513",
",l 	c #411615",
"'l 	c #461A17",
")l 	c #481817",
"!l 	c #481613",
"~l 	c #4E1A17",
"{l 	c #56201D",
"]l 	c #58241E",
"^l 	c #511B14",
"/l 	c #57201A",
"(l 	c #652E29",
"_l 	c #6A312D",
":l 	c #6E342F",
"<l 	c #682D28",
"[l 	c #6E3229",
"}l 	c #692C23",
"|l 	c #67281E",
"1l 	c #702D24",
"2l 	c #753029",
"3l 	c #7B352C",
"4l 	c #80372F",
"5l 	c #7F352E",
"6l 	c #7E332C",
"7l 	c #7A302A",
"8l 	c #7A312B",
"9l 	c #833A36",
"0l 	c #89423F",
"al 	c #7A3431",
"bl 	c #6A2720",
"cl 	c #723121",
"dl 	c #8F4C3D",
"el 	c #96574B",
"fl 	c #985E53",
"gl 	c #976D6A",
"hl 	c #A98F90",
"il 	c #BFB0B3",
"jl 	c #CEC4C7",
"kl 	c #C9B9B8",
"ll 	c #835857",
"ml 	c #945E5D",
"nl 	c #925A50",
"ol 	c #915D51",
"pl 	c #8D584C",
"ql 	c #894B42",
"rl 	c #844339",
"sl 	c #935044",
"tl 	c #813E33",
"ul 	c #7E3C30",
"vl 	c #924F44",
"wl 	c #99564A",
"xl 	c #9F5C4E",
"yl 	c #9D5B4C",
"zl 	c #985546",
"Al 	c #955344",
"Bl 	c #945243",
"Cl 	c #7F3D2E",
"Dl 	c #7D3C2D",
"El 	c #7F3B33",
"Fl 	c #87443D",
"Gl 	c #89453E",
"Hl 	c #924E48",
"Il 	c #8C4841",
"Jl 	c #84413A",
"Kl 	c #8B493F",
"Ll 	c #8E4D41",
"Ml 	c #8F4E42",
"Nl 	c #945448",
"Ol 	c #945549",
"Pl 	c #90544B",
"Ql 	c #9D635B",
"Rl 	c #712C28",
"Sl 	c #732E2A",
"Tl 	c #85423E",
"Ul 	c #894843",
"Vl 	c #884842",
"Wl 	c #8A4A45",
"Xl 	c #8C4D49",
"Yl 	c #884C47",
"Zl 	c #864A46",
"`l 	c #874C47",
" m 	c #864C47",
".m 	c #864F49",
"+m 	c #7E4944",
"@m 	c #77423F",
"#m 	c #73403E",
"$m 	c #6F3F3E",
"%m 	c #6B3E3D",
"&m 	c #522D2C",
"*m 	c #452524",
"=m 	c #3A1D1C",
"-m 	c #2C1313",
";m 	c #140505",
">m 	c #0C0303",
",m 	c #121111",
"'m 	c #1A1516",
")m 	c #140706",
"!m 	c #180808",
"~m 	c #240D0B",
"{m 	c #260E0B",
"]m 	c #29100F",
"^m 	c #2D100F",
"/m 	c #311211",
"(m 	c #361312",
"_m 	c #3B1514",
":m 	c #3F1817",
"<m 	c #411716",
"[m 	c #411515",
"}m 	c #471818",
"|m 	c #4F1F1D",
"1m 	c #51221D",
"2m 	c #501F1A",
"3m 	c #55231E",
"4m 	c #6B3532",
"5m 	c #6C3532",
"6m 	c #682F2C",
"7m 	c #70372F",
"8m 	c #6E332B",
"9m 	c #72352E",
"0m 	c #783830",
"am 	c #7A3830",
"bm 	c #7F3A32",
"cm 	c #823B33",
"dm 	c #7E3530",
"em 	c #7C312B",
"fm 	c #7A302B",
"gm 	c #7D3532",
"hm 	c #843B38",
"im 	c #86403E",
"jm 	c #7A3433",
"km 	c #722F29",
"lm 	c #763626",
"mm 	c #8C4B3A",
"nm 	c #985A4D",
"om 	c #965C52",
"pm 	c #936A67",
"qm 	c #A68D8D",
"rm 	c #BCB0B2",
"sm 	c #CBC4C7",
"tm 	c #C5B7B6",
"um 	c #815856",
"vm 	c #935E5B",
"wm 	c #935B50",
"xm 	c #915D4F",
"ym 	c #8C594A",
"zm 	c #8F4D42",
"Am 	c #8B483F",
"Bm 	c #8A483E",
"Cm 	c #935046",
"Dm 	c #98554A",
"Em 	c #9A584B",
"Fm 	c #99574A",
"Gm 	c #955345",
"Hm 	c #935144",
"Im 	c #925043",
"Jm 	c #8B4A3E",
"Km 	c #87443E",
"Lm 	c #88453E",
"Mm 	c #894741",
"Nm 	c #884742",
"Om 	c #905147",
"Pm 	c #905248",
"Qm 	c #8E524A",
"Rm 	c #8D514B",
"Sm 	c #975C55",
"Tm 	c #74302A",
"Um 	c #73302A",
"Vm 	c #88453F",
"Wm 	c #874741",
"Xm 	c #8A4C44",
"Ym 	c #8B4D46",
"Zm 	c #8E524C",
"`m 	c #915650",
" n 	c #8D534D",
".n 	c #844C46",
"+n 	c #86514A",
"@n 	c #7C4A43",
"#n 	c #68372F",
"$n 	c #794541",
"%n 	c #744543",
"&n 	c #6A403D",
"*n 	c #603937",
"=n 	c #53302E",
"-n 	c #472826",
";n 	c #3E2120",
">n 	c #2D1514",
",n 	c #200B0B",
"'n 	c #150606",
")n 	c #080808",
"!n 	c #0E0D0D",
"~n 	c #100505",
"{n 	c #170706",
"]n 	c #200B0A",
"^n 	c #240D0C",
"/n 	c #290E0E",
"(n 	c #2D1010",
"_n 	c #331313",
":n 	c #361515",
"<n 	c #381415",
"[n 	c #3A1414",
"}n 	c #3F1617",
"|n 	c #471D1C",
"1n 	c #4A1F1B",
"2n 	c #4D211D",
"3n 	c #542522",
"4n 	c #623230",
"5n 	c #6B3936",
"6n 	c #6A3734",
"7n 	c #67302F",
"8n 	c #743C35",
"9n 	c #723831",
"0n 	c #7B3F38",
"an 	c #80413A",
"bn 	c #7F3E38",
"cn 	c #823E37",
"dn 	c #843E37",
"en 	c #7D3530",
"fn 	c #7A2F2B",
"gn 	c #792F2C",
"hn 	c #813838",
"in 	c #843B3A",
"jn 	c #833D3D",
"kn 	c #7B3436",
"ln 	c #7A3831",
"mn 	c #7B3D2B",
"nn 	c #884937",
"on 	c #9B5E4F",
"pn 	c #945B50",
"qn 	c #8F6763",
"rn 	c #A28C8B",
"sn 	c #B9B0B1",
"tn 	c #C7C4C6",
"un 	c #C2B5B5",
"vn 	c #805956",
"wn 	c #925F5A",
"xn 	c #955D50",
"yn 	c #915C4C",
"zn 	c #8C5948",
"An 	c #8F5248",
"Bn 	c #96574E",
"Cn 	c #945149",
"Dn 	c #95534A",
"En 	c #924E46",
"Fn 	c #955049",
"Gn 	c #97534A",
"Hn 	c #955349",
"In 	c #925045",
"Jn 	c #9F5D53",
"Kn 	c #98564B",
"Ln 	c #85433D",
"Mn 	c #86433E",
"Nn 	c #86453F",
"On 	c #854642",
"Pn 	c #8C4C4A",
"Qn 	c #8A4B48",
"Rn 	c #8E504B",
"Sn 	c #8D5149",
"Tn 	c #8D524D",
"Un 	c #8F5450",
"Vn 	c #7F3C3C",
"Wn 	c #7B3A39",
"Xn 	c #8F4F4E",
"Yn 	c #915250",
"Zn 	c #935653",
"`n 	c #935855",
" o 	c #905754",
".o 	c #8A5451",
"+o 	c #8A5653",
"@o 	c #93605D",
"#o 	c #91615C",
"$o 	c #835450",
"%o 	c #7F524D",
"&o 	c #81504E",
"*o 	c #7B4C4C",
"=o 	c #754A49",
"-o 	c #6B4442",
";o 	c #674242",
">o 	c #5B3B3B",
",o 	c #4F3332",
"'o 	c #412728",
")o 	c #341E1F",
"!o 	c #251415",
"~o 	c #180B0B",
"{o 	c #0F0606",
"]o 	c #0C0A0B",
"^o 	c #0F0B0D",
"/o 	c #180A08",
"(o 	c #1C0B0A",
"_o 	c #200D0C",
":o 	c #220E0C",
"<o 	c #27100F",
"[o 	c #290F0E",
"}o 	c #2A0F0E",
"|o 	c #2E100F",
"1o 	c #391715",
"2o 	c #3E1B16",
"3o 	c #451F1A",
"4o 	c #512924",
"5o 	c #5D3330",
"6o 	c #623633",
"7o 	c #673835",
"8o 	c #6E3F3A",
"9o 	c #7C4941",
"0o 	c #7E4A40",
"ao 	c #7E453C",
"bo 	c #7E4139",
"co 	c #7E3F37",
"do 	c #803E37",
"eo 	c #7D3932",
"fo 	c #762D29",
"go 	c #7B332F",
"ho 	c #833C39",
"io 	c #8C4645",
"jo 	c #8F4949",
"ko 	c #803A3B",
"lo 	c #793A35",
"mo 	c #7F4539",
"no 	c #8B5045",
"oo 	c #9C5E57",
"po 	c #9F655F",
"qo 	c #956E6C",
"ro 	c #9E8A89",
"so 	c #B0AAAA",
"to 	c #BFBFC1",
"uo 	c #BEB5B8",
"vo 	c #835A59",
"wo 	c #945647",
"xo 	c #925645",
"yo 	c #8F5544",
"zo 	c #824239",
"Ao 	c #7F4238",
"Bo 	c #8E4A41",
"Co 	c #965049",
"Do 	c #975049",
"Eo 	c #944F46",
"Fo 	c #914E43",
"Go 	c #965449",
"Ho 	c #965448",
"Io 	c #9B584D",
"Jo 	c #89473B",
"Ko 	c #813F32",
"Lo 	c #824236",
"Mo 	c #874B44",
"No 	c #7A3F38",
"Oo 	c #854D47",
"Po 	c #8A524B",
"Qo 	c #8A5148",
"Ro 	c #8D524A",
"So 	c #8D524B",
"To 	c #894E49",
"Uo 	c #874B48",
"Vo 	c #8C4E4D",
"Wo 	c #854142",
"Xo 	c #824040",
"Yo 	c #905050",
"Zo 	c #925352",
"`o 	c #945655",
" p 	c #955857",
".p 	c #925756",
"+p 	c #905857",
"@p 	c #94615F",
"#p 	c #90605C",
"$p 	c #835552",
"%p 	c #815552",
"&p 	c #7C4D4F",
"*p 	c #784C4D",
"=p 	c #6F4747",
"-p 	c #684344",
";p 	c #5C3B3C",
">p 	c #503333",
",p 	c #412828",
"'p 	c #331F20",
")p 	c #261515",
"!p 	c #190B0B",
"~p 	c #150706",
"{p 	c #1F0B0A",
"]p 	c #220C0A",
"^p 	c #260D0C",
"/p 	c #311311",
"(p 	c #361712",
"_p 	c #3E1C17",
":p 	c #532C28",
"<p 	c #5C332E",
"[p 	c #663A36",
"}p 	c #6D403A",
"|p 	c #78473E",
"1p 	c #7C4339",
"2p 	c #7C4137",
"3p 	c #7D3E35",
"4p 	c #7D3C34",
"5p 	c #7A302C",
"6p 	c #7F3734",
"7p 	c #85403E",
"8p 	c #8B4544",
"9p 	c #803B3B",
"0p 	c #7F403B",
"ap 	c #8D5249",
"bp 	c #9C5E58",
"cp 	c #9C615D",
"dp 	c #956D6C",
"ep 	c #9E8889",
"fp 	c #AEA8A9",
"gp 	c #BEB4B8",
"hp 	c #854C49",
"ip 	c #935244",
"jp 	c #925442",
"kp 	c #905344",
"lp 	c #824338",
"mp 	c #8A493E",
"np 	c #8B483E",
"op 	c #8E4940",
"pp 	c #964E46",
"qp 	c #954E45",
"rp 	c #945044",
"sp 	c #965347",
"tp 	c #955245",
"up 	c #9A564A",
"vp 	c #8D4A3E",
"wp 	c #884539",
"xp 	c #864435",
"yp 	c #874738",
"zp 	c #8D4E41",
"Ap 	c #8E5044",
"Bp 	c #7D4339",
"Cp 	c #874F47",
"Dp 	c #8E554B",
"Ep 	c #8F554B",
"Fp 	c #91564D",
"Gp 	c #91554E",
"Hp 	c #8F534D",
"Ip 	c #8D4F4B",
"Jp 	c #8E474C",
"Kp 	c #8D494C",
"Lp 	c #925154",
"Mp 	c #935254",
"Np 	c #955657",
"Op 	c #975759",
"Pp 	c #945759",
"Qp 	c #935B5C",
"Rp 	c #8E5859",
"Sp 	c #8C5657",
"Tp 	c #93605F",
"Up 	c #845454",
"Vp 	c #865857",
"Wp 	c #855356",
"Xp 	c #7E4E52",
"Yp 	c #7D5154",
"Zp 	c #764D4F",
"`p 	c #694346",
" q 	c #5C3A3C",
".q 	c #4E3132",
"+q 	c #3F2729",
"@q 	c #321E20",
"#q 	c #251516",
"$q 	c #0E0505",
"%q 	c #0F0504",
"&q 	c #180806",
"*q 	c #1C0A08",
"=q 	c #200C0A",
"-q 	c #240E0B",
";q 	c #2A110D",
">q 	c #2F130E",
",q 	c #381A14",
"'q 	c #43211B",
")q 	c #46231E",
"!q 	c #57302A",
"~q 	c #6B403B",
"{q 	c #70433C",
"]q 	c #74453A",
"^q 	c #754337",
"/q 	c #7C473B",
"(q 	c #794135",
"_q 	c #7B4034",
":q 	c #7A3D31",
"<q 	c #78372B",
"[q 	c #7F3B30",
"}q 	c #833831",
"|q 	c #803830",
"1q 	c #752B26",
"2q 	c #742B26",
"3q 	c #823A37",
"4q 	c #823B38",
"5q 	c #8B4B45",
"6q 	c #884E49",
"7q 	c #905551",
"8q 	c #9E5D5B",
"9q 	c #955656",
"0q 	c #95696B",
"aq 	c #9F8688",
"bq 	c #ADA4A7",
"cq 	c #BCB9BF",
"dq 	c #BEB0B8",
"eq 	c #7D4E52",
"fq 	c #7C3D3C",
"gq 	c #924B3F",
"hq 	c #924F3F",
"iq 	c #925143",
"jq 	c #904B44",
"kq 	c #8E4B40",
"lq 	c #7F3E30",
"mq 	c #834033",
"nq 	c #8D483C",
"oq 	c #91493E",
"pq 	c #90473C",
"qq 	c #93473D",
"rq 	c #964D41",
"sq 	c #975244",
"tq 	c #975243",
"uq 	c #955042",
"vq 	c #914C3E",
"wq 	c #955041",
"xq 	c #854133",
"yq 	c #884436",
"zq 	c #904E3A",
"Aq 	c #924F3D",
"Bq 	c #965544",
"Cq 	c #975748",
"Dq 	c #874A3C",
"Eq 	c #864B3E",
"Fq 	c #8C5247",
"Gq 	c #93594D",
"Hq 	c #985D51",
"Iq 	c #9B5C54",
"Jq 	c #975751",
"Kq 	c #985753",
"Lq 	c #8F484D",
"Mq 	c #904C4F",
"Nq 	c #914F52",
"Oq 	c #935154",
"Pq 	c #965558",
"Qq 	c #955658",
"Rq 	c #9A6162",
"Sq 	c #996261",
"Tq 	c #905A59",
"Uq 	c #955F5E",
"Vq 	c #93615F",
"Wq 	c #8D5C5A",
"Xq 	c #895B59",
"Yq 	c #835053",
"Zq 	c #7E4F52",
"`q 	c #7D5052",
" r 	c #744B4D",
".r 	c #674244",
"+r 	c #5A393B",
"@r 	c #4B2F31",
"#r 	c #3B2326",
"$r 	c #311D1F",
"%r 	c #210B08",
"&r 	c #270F09",
"*r 	c #321711",
"=r 	c #3C1E17",
"-r 	c #3C1B14",
";r 	c #4E2A23",
">r 	c #59332B",
",r 	c #5E352D",
"'r 	c #63352A",
")r 	c #6A392E",
"!r 	c #6E392C",
"~r 	c #72392E",
"{r 	c #75392D",
"]r 	c #75362B",
"^r 	c #77362B",
"/r 	c #7F3A31",
"(r 	c #894039",
"_r 	c #873E36",
":r 	c #783029",
"<r 	c #772E29",
"[r 	c #7F3A34",
"}r 	c #7F3B34",
"|r 	c #9C5D5A",
"1r 	c #9A5755",
"2r 	c #965656",
"3r 	c #9A6D6F",
"4r 	c #A78C8F",
"5r 	c #B5AAAD",
"6r 	c #C1BBC0",
"7r 	c #BDABB3",
"8r 	c #87555C",
"9r 	c #894B4C",
"0r 	c #99544B",
"ar 	c #945245",
"br 	c #8E4E42",
"cr 	c #954F4A",
"dr 	c #89453B",
"er 	c #8D4A3C",
"fr 	c #934F41",
"gr 	c #8C4839",
"hr 	c #8B4437",
"ir 	c #934B3F",
"jr 	c #984F43",
"kr 	c #964E40",
"lr 	c #924C3B",
"mr 	c #904A3A",
"nr 	c #894433",
"or 	c #8B4534",
"pr 	c #8E4838",
"qr 	c #894534",
"rr 	c #833F2D",
"sr 	c #8B4532",
"tr 	c #904A39",
"ur 	c #8F4C3B",
"vr 	c #915243",
"wr 	c #985B4B",
"xr 	c #965A4C",
"yr 	c #965B4D",
"zr 	c #975C4F",
"Ar 	c #8F5348",
"Br 	c #93554B",
"Cr 	c #9C5D54",
"Dr 	c #97594F",
"Er 	c #8F5049",
"Fr 	c #904B4F",
"Gr 	c #924F52",
"Hr 	c #945456",
"Ir 	c #97595B",
"Jr 	c #94595A",
"Kr 	c #9B6363",
"Lr 	c #9B6463",
"Mr 	c #935C5A",
"Nr 	c #945F5D",
"Or 	c #94625F",
"Pr 	c #905E5C",
"Qr 	c #8B5C59",
"Rr 	c #835253",
"Sr 	c #7B4F51",
"Tr 	c #72494B",
"Ur 	c #674445",
"Vr 	c #5A3A3B",
"Wr 	c #4D3132",
"Xr 	c #3C2325",
"Yr 	c #311C1E",
"Zr 	c #261516",
"`r 	c #180B0C",
" s 	c #190705",
".s 	c #200B07",
"+s 	c #351914",
"@s 	c #371912",
"#s 	c #46261F",
"$s 	c #532F27",
"%s 	c #552F26",
"&s 	c #5E3128",
"*s 	c #68372E",
"=s 	c #6B372D",
"-s 	c #70372D",
";s 	c #72372D",
">s 	c #74362C",
",s 	c #77362C",
"'s 	c #7D3930",
")s 	c #853F38",
"!s 	c #853E37",
"~s 	c #7C3631",
"{s 	c #7A342F",
"]s 	c #7F3C36",
"^s 	c #8C4D46",
"/s 	c #935851",
"(s 	c #9D5F5A",
"_s 	c #9A5854",
":s 	c #965756",
"<s 	c #9B7071",
"[s 	c #A78D8F",
"}s 	c #B3A9AC",
"|s 	c #BFB9BE",
"1s 	c #BDABB1",
"2s 	c #88585D",
"3s 	c #8B4E4F",
"4s 	c #99574E",
"5s 	c #935448",
"6s 	c #8E4F43",
"7s 	c #96504B",
"8s 	c #8B483D",
"9s 	c #8F4D3E",
"0s 	c #955142",
"as 	c #8D4A3A",
"bs 	c #924B3E",
"cs 	c #974F42",
"ds 	c #964F40",
"es 	c #914C3B",
"fs 	c #8F4A3A",
"gs 	c #894332",
"hs 	c #8F4A39",
"is 	c #8B4636",
"js 	c #874332",
"ks 	c #914B3C",
"ls 	c #8E4B3B",
"ms 	c #945546",
"ns 	c #995B4C",
"os 	c #975C4D",
"ps 	c #965C4E",
"qs 	c #975C50",
"rs 	c #945A4E",
"ss 	c #8D5248",
"ts 	c #91554B",
"us 	c #965757",
"vs 	c #965958",
"ws 	c #965B5A",
"xs 	c #995F5D",
"ys 	c #9F6663",
"zs 	c #9F6865",
"As 	c #9D6863",
"Bs 	c #9B6862",
"Cs 	c #9B6962",
"Ds 	c #98655E",
"Es 	c #915E58",
"Fs 	c #95635D",
"Gs 	c #97655F",
"Hs 	c #94655F",
"Is 	c #875958",
"Js 	c #7D5151",
"Ks 	c #734B4A",
"Ls 	c #6B4645",
"Ms 	c #694846",
"Ns 	c #5C403F",
"Os 	c #4D3635",
"Ps 	c #422A2A",
"Qs 	c #331E1F",
"Rs 	c #251515",
"Ss 	c #190D0D",
"Ts 	c #120403",
"Us 	c #24100C",
"Vs 	c #381D18",
"Ws 	c #40231C",
"Xs 	c #52322A",
"Ys 	c #48241D",
"Zs 	c #5F342E",
"`s 	c #6C3D37",
" t 	c #723F39",
".t 	c #6E3732",
"+t 	c #703530",
"@t 	c #773933",
"#t 	c #793833",
"$t 	c #773430",
"%t 	c #722F2E",
"&t 	c #7B3837",
"*t 	c #864643",
"=t 	c #834340",
"-t 	c #874845",
";t 	c #8C5048",
">t 	c #915749",
",t 	c #9A5F51",
"'t 	c #9C6056",
")t 	c #965E56",
"!t 	c #9B7875",
"~t 	c #A08E8D",
"{t 	c #A5A1A1",
"]t 	c #B4B2B3",
"^t 	c #BDACAD",
"/t 	c #895C5D",
"(t 	c #8B5453",
"_t 	c #945A51",
":t 	c #905A4E",
"<t 	c #8D584A",
"[t 	c #975649",
"}t 	c #914F3F",
"|t 	c #945242",
"1t 	c #904E3E",
"2t 	c #8B4939",
"3t 	c #8F4D3D",
"4t 	c #935141",
"5t 	c #935041",
"6t 	c #914E40",
"7t 	c #8E4A3C",
"8t 	c #965345",
"9t 	c #8E4B3D",
"0t 	c #975445",
"at 	c #9D584F",
"bt 	c #975249",
"ct 	c #99594E",
"dt 	c #995C50",
"et 	c #8F5447",
"ft 	c #965C4F",
"gt 	c #955B50",
"ht 	c #89524A",
"it 	c #8D564E",
"jt 	c #8F5750",
"kt 	c #8C564D",
"lt 	c #8E574F",
"mt 	c #8B544C",
"nt 	c #9A6660",
"ot 	c #9E6B65",
"pt 	c #9A6860",
"qt 	c #97655D",
"rt 	c #96645C",
"st 	c #9F6C64",
"tt 	c #9B6B62",
"ut 	c #94635C",
"vt 	c #8E5F57",
"wt 	c #855855",
"xt 	c #7A4F4D",
"yt 	c #724A49",
"zt 	c #6B4744",
"At 	c #684745",
"Bt 	c #604441",
"Ct 	c #4F3836",
"Dt 	c #3F2928",
"Et 	c #311E1D",
"Ft 	c #261716",
"Gt 	c #1C1010",
"Ht 	c #391D18",
"It 	c #482923",
"Jt 	c #4D2A24",
"Kt 	c #5D322E",
"Lt 	c #653531",
"Mt 	c #683431",
"Nt 	c #6A322E",
"Ot 	c #703531",
"Pt 	c #753634",
"Qt 	c #783634",
"Rt 	c #7A3836",
"St 	c #7D3B3D",
"Tt 	c #813D3E",
"Ut 	c #834041",
"Vt 	c #874546",
"Wt 	c #80403F",
"Xt 	c #824343",
"Yt 	c #90544D",
"Zt 	c #965D4C",
"`t 	c #9C6150",
" u 	c #9F6457",
".u 	c #9B655B",
"+u 	c #93716D",
"@u 	c #928382",
"#u 	c #A09E9F",
"$u 	c #B5B4B4",
"%u 	c #BAA9A7",
"&u 	c #8A5E5C",
"*u 	c #915A4D",
"=u 	c #895646",
"-u 	c #874C40",
";u 	c #8F5041",
">u 	c #894937",
",u 	c #894938",
"'u 	c #925241",
")u 	c #8D4D3C",
"!u 	c #8E4C3E",
"~u 	c #975449",
"{u 	c #975448",
"]u 	c #95524A",
"^u 	c #914E46",
"/u 	c #94544C",
"(u 	c #8D5046",
"_u 	c #91574F",
":u 	c #88514B",
"<u 	c #8A534D",
"[u 	c #905952",
"}u 	c #89524C",
"|u 	c #8E5450",
"1u 	c #8A524D",
"2u 	c #8F5853",
"3u 	c #905A55",
"4u 	c #9E6B64",
"5u 	c #95635A",
"6u 	c #96635B",
"7u 	c #A47068",
"8u 	c #9D6C64",
"9u 	c #92625A",
"0u 	c #8A5A53",
"au 	c #845653",
"bu 	c #794D4A",
"cu 	c #734A48",
"du 	c #6C4845",
"eu 	c #604442",
"fu 	c #503836",
"gu 	c #3F2927",
"hu 	c #301D1C",
"iu 	c #261817",
"ju 	c #1D1110",
"ku 	c #120808",
"lu 	c #0E0303",
"mu 	c #311A16",
"nu 	c #371B17",
"ou 	c #4E2A25",
"pu 	c #60312E",
"qu 	c #64302E",
"ru 	c #68302D",
"su 	c #703432",
"tu 	c #783633",
"uu 	c #7D3B39",
"vu 	c #823F41",
"wu 	c #833F40",
"xu 	c #813D3F",
"yu 	c #884547",
"zu 	c #7F3F3E",
"Au 	c #814141",
"Bu 	c #93564E",
"Cu 	c #975E4C",
"Du 	c #9D614F",
"Eu 	c #9F6557",
"Fu 	c #9B665B",
"Gu 	c #8E6D68",
"Hu 	c #8E7F7F",
"Iu 	c #9F9E9F",
"Ju 	c #B4B4B3",
"Ku 	c #B8A6A3",
"Lu 	c #8B5E5B",
"Mu 	c #915B4D",
"Nu 	c #8C5A49",
"Ou 	c #885645",
"Pu 	c #83483B",
"Qu 	c #8C4E3E",
"Ru 	c #874736",
"Su 	c #874737",
"Tu 	c #8F503F",
"Uu 	c #8E4F3D",
"Vu 	c #8C4C3B",
"Wu 	c #8B473D",
"Xu 	c #945146",
"Yu 	c #98554B",
"Zu 	c #934F45",
"`u 	c #925048",
" v 	c #8E4C45",
".v 	c #92524A",
"+v 	c #8D5147",
"@v 	c #8C5148",
"#v 	c #90554E",
"$v 	c #915851",
"%v 	c #7E4641",
"&v 	c #88504B",
"*v 	c #915953",
"=v 	c #8D5550",
"-v 	c #975C59",
";v 	c #945855",
">v 	c #9A605D",
",v 	c #955C59",
"'v 	c #955F5A",
")v 	c #9B6460",
"!v 	c #9D6662",
"~v 	c #98615D",
"{v 	c #945C58",
"]v 	c #9A615E",
"^v 	c #A56C69",
"/v 	c #A16A67",
"(v 	c #814C49",
"_v 	c #804B4C",
":v 	c #774243",
"<v 	c #7B4D4C",
"[v 	c #774C4C",
"}v 	c #6A4444",
"|v 	c #5E3C3C",
"1v 	c #4E3231",
"2v 	c #412928",
"3v 	c #321E1D",
"4v 	c #1A0F0E",
"5v 	c #230F0C",
"6v 	c #2E1512",
"7v 	c #3E201D",
"8v 	c #3C1914",
"9v 	c #4D2620",
"0v 	c #5D2C26",
"av 	c #632C26",
"bv 	c #71312C",
"cv 	c #7A3731",
"dv 	c #843F39",
"ev 	c #8E4842",
"fv 	c #8E4744",
"gv 	c #8E4542",
"hv 	c #853D3A",
"iv 	c #8E4743",
"jv 	c #823D38",
"kv 	c #97534B",
"lv 	c #905040",
"mv 	c #9A5B4A",
"nv 	c #965A4F",
"ov 	c #8B554E",
"pv 	c #7B5757",
"qv 	c #968589",
"rv 	c #ACA3AA",
"sv 	c #B1A8AD",
"tv 	c #B19996",
"uv 	c #945953",
"vv 	c #9A6054",
"wv 	c #976152",
"xv 	c #915F4D",
"yv 	c #874C41",
"zv 	c #8C4B40",
"Av 	c #955144",
"Bv 	c #8C493C",
"Cv 	c #8A4639",
"Dv 	c #924E41",
"Ev 	c #975346",
"Fv 	c #975145",
"Gv 	c #944C40",
"Hv 	c #934B40",
"Iv 	c #974F44",
"Jv 	c #A0574C",
"Kv 	c #A55C52",
"Lv 	c #92493E",
"Mv 	c #9A5347",
"Nv 	c #955246",
"Ov 	c #9D5B4F",
"Pv 	c #945147",
"Qv 	c #8B4A3F",
"Rv 	c #925248",
"Sv 	c #94554A",
"Tv 	c #8D4F44",
"Uv 	c #84453A",
"Vv 	c #905247",
"Wv 	c #8B4C41",
"Xv 	c #975B5A",
"Yv 	c #9E6261",
"Zv 	c #9B6160",
"`v 	c #985D5C",
" w 	c #9D6563",
".w 	c #9E6664",
"+w 	c #9C6362",
"@w 	c #A06565",
"#w 	c #A66C6C",
"$w 	c #9F6867",
"%w 	c #895050",
"&w 	c #844D4F",
"*w 	c #784346",
"=w 	c #704546",
"-w 	c #674042",
";w 	c #5C3A3B",
">w 	c #4D3030",
",w 	c #402728",
"'w 	c #321E1E",
")w 	c #200C09",
"!w 	c #391C17",
"~w 	c #41201A",
"{w 	c #552922",
"]w 	c #5D2C24",
"^w 	c #632E25",
"/w 	c #6A3028",
"(w 	c #71322B",
"_w 	c #76342C",
":w 	c #7B362F",
"<w 	c #813C35",
"[w 	c #853F3B",
"}w 	c #8B433E",
"|w 	c #87413D",
"1w 	c #95504A",
"2w 	c #843F38",
"3w 	c #925047",
"4w 	c #955548",
"5w 	c #99594D",
"6w 	c #92564E",
"7w 	c #957274",
"8w 	c #AA949B",
"9w 	c #B5A7B0",
"0w 	c #B5A9AF",
"aw 	c #B09795",
"bw 	c #8B5854",
"cw 	c #925D50",
"dw 	c #875446",
"ew 	c #8A4F48",
"fw 	c #91524A",
"gw 	c #97564C",
"hw 	c #98574E",
"iw 	c #96554C",
"jw 	c #914F46",
"kw 	c #955249",
"lw 	c #965248",
"mw 	c #985245",
"nw 	c #995347",
"ow 	c #995246",
"pw 	c #9B5548",
"qw 	c #A45C51",
"rw 	c #954E42",
"sw 	c #9E584B",
"tw 	c #955447",
"uw 	c #965549",
"vw 	c #945347",
"ww 	c #925145",
"xw 	c #945547",
"yw 	c #965749",
"zw 	c #955648",
"Aw 	c #905144",
"Bw 	c #8F4F42",
"Cw 	c #965A5B",
"Dw 	c #A56868",
"Ew 	c #9C6162",
"Fw 	c #995E5E",
"Gw 	c #99605F",
"Hw 	c #9E6666",
"Iw 	c #9F6666",
"Jw 	c #9F6565",
"Kw 	c #A06566",
"Lw 	c #A36869",
"Mw 	c #A76C6D",
"Nw 	c #9E6566",
"Ow 	c #864D4E",
"Pw 	c #854E4F",
"Qw 	c #864F53",
"Rw 	c #794449",
"Sw 	c #76464A",
"Tw 	c #6B3F42",
"Uw 	c #653E40",
"Vw 	c #5B393A",
"Ww 	c #4B2F30",
"Xw 	c #231414",
"Yw 	c #170B0B",
"Zw 	c #0E0606",
"`w 	c #1D0A07",
" x 	c #45231D",
".x 	c #4D2720",
"+x 	c #5D2D24",
"@x 	c #632F25",
"#x 	c #6B3329",
"$x 	c #70342B",
"%x 	c #723228",
"&x 	c #743028",
"*x 	c #77322A",
"=x 	c #7F3A35",
"-x 	c #88423D",
";x 	c #88443E",
">x 	c #99554E",
",x 	c #854139",
"'x 	c #85453D",
")x 	c #8E4D45",
"!x 	c #99594F",
"~x 	c #98584F",
"{x 	c #A58285",
"]x 	c #B79EA6",
"^x 	c #BBAAB5",
"/x 	c #B8AAB2",
"(x 	c #B09796",
"_x 	c #8C5855",
":x 	c #9A605B",
"<x 	c #955B52",
"[x 	c #8E5B4F",
"}x 	c #7F4D43",
"|x 	c #955954",
"1x 	c #995B53",
"2x 	c #9B5C56",
"3x 	c #9C5D56",
"4x 	c #95564F",
"5x 	c #93534D",
"6x 	c #9A5649",
"7x 	c #9D584C",
"8x 	c #9A5548",
"9x 	c #975245",
"0x 	c #A25C4F",
"ax 	c #965144",
"bx 	c #9F5B4D",
"cx 	c #97584B",
"dx 	c #99564B",
"ex 	c #965447",
"fx 	c #915143",
"gx 	c #935445",
"hx 	c #9B5C4D",
"ix 	c #9E5F50",
"jx 	c #8F5141",
"kx 	c #8F4F40",
"lx 	c #8B5F61",
"mx 	c #926567",
"nx 	c #92686A",
"ox 	c #8F6667",
"px 	c #916B6B",
"qx 	c #987272",
"rx 	c #926C6E",
"sx 	c #926E71",
"tx 	c #967275",
"ux 	c #957073",
"vx 	c #906C6F",
"wx 	c #8C696B",
"xx 	c #805E60",
"yx 	c #805D60",
"zx 	c #825B5F",
"Ax 	c #7F5B60",
"Bx 	c #614042",
"Cx 	c #583B3E",
"Dx 	c #543A3C",
"Ex 	c #533C3E",
"Fx 	c #463334",
"Gx 	c #3A2A2B",
"Hx 	c #2E2122",
"Ix 	c #201617",
"Jx 	c #160E0E",
"Kx 	c #080405",
"Lx 	c #090404",
"Mx 	c #170E0D",
"Nx 	c #231715",
"Ox 	c #291A18",
"Px 	c #352421",
"Qx 	c #321C1A",
"Rx 	c #442B28",
"Sx 	c #4A302B",
"Tx 	c #4F332D",
"Ux 	c #53342E",
"Vx 	c #62403B",
"Wx 	c #6A4540",
"Xx 	c #6D4641",
"Yx 	c #704845",
"Zx 	c #754C49",
"`x 	c #794E4C",
" y 	c #784E4C",
".y 	c #704744",
"+y 	c #59322E",
"@y 	c #7D5652",
"#y 	c #845E5B",
"$y 	c #835C5A",
"%y 	c #8E6567",
"&y 	c #875F60",
"*y 	c #815C5D",
"=y 	c #896769",
"-y 	c #A99197",
";y 	c #B4A3AB",
">y 	c #B9ADB8",
",y 	c #BEB7BF",
"'y 	c #B4AAAC",
")y 	c #785A5C",
"!y 	c #896465",
"~y 	c #886662",
"{y 	c #886A66",
"]y 	c #9B8280",
"^y 	c #A7898C",
"/y 	c #AF9395",
"(y 	c #A98B8C",
"_y 	c #9E8081",
":y 	c #917172",
"<y 	c #947576",
"[y 	c #8A6B6C",
"}y 	c #88696A",
"|y 	c #896866",
"1y 	c #85615C",
"2y 	c #825D58",
"3y 	c #7F5954",
"4y 	c #724C46",
"5y 	c #69433D",
"6y 	c #845E59",
"7y 	c #744E48",
"8y 	c #663F38",
"9y 	c #623B33",
"0y 	c #7A524C",
"ay 	c #8B5F5B",
"by 	c #8D615D",
"cy 	c #865753",
"dy 	c #83544F",
"ey 	c #82554D",
"fy 	c #81554A",
"gy 	c #82554B",
"hy 	c #82574E",
"iy 	c #6C4139",
"jy 	c #73473E",
"ky 	c #5A2E24",
"ly 	c #8F6A6C",
"my 	c #906C6D",
"ny 	c #957475",
"oy 	c #917071",
"py 	c #917373",
"qy 	c #997B7B",
"ry 	c #977A7C",
"sy 	c #967B7D",
"ty 	c #977C7E",
"uy 	c #987D7F",
"vy 	c #977D7F",
"wy 	c #92787A",
"xy 	c #8B7174",
"yy 	c #897172",
"zy 	c #896C6E",
"Ay 	c #86696C",
"By 	c #715A5B",
"Cy 	c #685354",
"Dy 	c #5A4749",
"Ey 	c #503F40",
"Fy 	c #423535",
"Gy 	c #392C2D",
"Hy 	c #2E2324",
"Iy 	c #201919",
"Jy 	c #151010",
"Ky 	c #0E0909",
"Ly 	c #090707",
"My 	c #0D0A0A",
"Ny 	c #161212",
"Oy 	c #211B1B",
"Py 	c #2D2524",
"Qy 	c #362B2B",
"Ry 	c #3C2F2E",
"Sy 	c #463838",
"Ty 	c #4E3C3B",
"Uy 	c #53413F",
"Vy 	c #5B4846",
"Wy 	c #604B49",
"Xy 	c #674E4B",
"Yy 	c #6E5250",
"Zy 	c #785B5A",
"`y 	c #836664",
" z 	c #896A6A",
".z 	c #88696B",
"+z 	c #8A6C6F",
"@z 	c #86696B",
"#z 	c #765E61",
"$z 	c #8B7171",
"%z 	c #907576",
"&z 	c #907475",
"*z 	c #9B7D81",
"=z 	c #997C7E",
"-z 	c #907577",
";z 	c #947B7C",
">z 	c #B5A8AF",
",z 	c #BAB2BC",
"'z 	c #BFBCC4",
")z 	c #B2B0B2",
"!z 	c #867274",
"~z 	c #927577",
"{z 	c #907775",
"]z 	c #907D7A",
"^z 	c #AA9398",
"/z 	c #B09C9F",
"(z 	c #B09D9E",
"_z 	c #A89597",
":z 	c #998687",
"<z 	c #938082",
"[z 	c #928081",
"}z 	c #937E7E",
"|z 	c #937A79",
"1z 	c #8C7473",
"2z 	c #8B7474",
"3z 	c #8D7372",
"4z 	c #826868",
"5z 	c #7F6665",
"6z 	c #886A69",
"7z 	c #886969",
"8z 	c #876464",
"9z 	c #856060",
"0z 	c #7F5859",
"az 	c #7D5655",
"bz 	c #7C5853",
"cz 	c #7D5953",
"dz 	c #7E5A54",
"ez 	c #7E5B56",
"fz 	c #7F5E5A",
"gz 	c #7C5A56",
"hz 	c #61403D",
"iz 	c #947778",
"jz 	c #8E7474",
"kz 	c #998182",
"lz 	c #947C7C",
"mz 	c #927C7B",
"nz 	c #9A8584",
"oz 	c #9E8A8B",
"pz 	c #9B898A",
"qz 	c #9C8B8D",
"rz 	c #A18F91",
"sz 	c #9A8A8B",
"tz 	c #968588",
"uz 	c #958587",
"vz 	c #917F7F",
"wz 	c #8D787B",
"xz 	c #857374",
"yz 	c #796A6A",
"zz 	c #625555",
"Az 	c #4B4041",
"Bz 	c #3C3534",
"Cz 	c #382F2F",
"Dz 	c #2E2626",
"Ez 	c #151212",
"Fz 	c #090708",
"Gz 	c #0E0C0D",
"Hz 	c #141212",
"Iz 	c #262423",
"Jz 	c #2F2B2B",
"Kz 	c #3C3737",
"Lz 	c #453D3E",
"Mz 	c #463D3E",
"Nz 	c #5E5253",
"Oz 	c #5B4F4F",
"Pz 	c #5F5353",
"Qz 	c #6A5E5D",
"Rz 	c #726463",
"Sz 	c #6E5D5D",
"Tz 	c #736061",
"Uz 	c #867272",
"Vz 	c #988282",
"Wz 	c #9E8688",
"Xz 	c #9A8489",
"Yz 	c #A08A8F",
"Zz 	c #9E898E",
"`z 	c #968287",
" A 	c #9C8C8F",
".A 	c #9D8C90",
"+A 	c #A08D91",
"@A 	c #AC969B",
"#A 	c #AF999D",
"$A 	c #A28F91",
"%A 	c #A19090",
"&A 	c #ACA2A5",
"*A 	c #B4AEB4",
"=A 	c #BCBAC2",
"-A 	c #BEC2CA",
";A 	c #B0B7B8",
">A 	c #978B8C",
",A 	c #9D888A",
"'A 	c #9B8A89",
")A 	c #9B9290",
"!A 	c #A49C9B",
"~A 	c #AC9FA5",
"{A 	c #B0A7AA",
"]A 	c #B8B0B2",
"^A 	c #B4ACAE",
"/A 	c #A29B9D",
"(A 	c #9E9698",
"_A 	c #9F9799",
":A 	c #A09597",
"<A 	c #A39395",
"[A 	c #A89799",
"}A 	c #AB9A9C",
"|A 	c #A9989B",
"1A 	c #AE9DA0",
"2A 	c #99888A",
"3A 	c #938386",
"4A 	c #9B898B",
"5A 	c #B09A9C",
"6A 	c #988285",
"7A 	c #9C8487",
"8A 	c #82686D",
"9A 	c #775C62",
"0A 	c #75585E",
"aA 	c #73575B",
"bA 	c #74595A",
"cA 	c #785D5C",
"dA 	c #7A5F5E",
"eA 	c #795F5F",
"fA 	c #947977",
"gA 	c #886E6D",
"hA 	c #6B5252",
"iA 	c #CFCBD4",
"jA 	c #CFCAD3",
"kA 	c #D1CBD2",
"lA 	c #D3CDD4",
"mA 	c #C2BBC1",
"nA 	c #BFB7BD",
"oA 	c #D3CED5",
"pA 	c #D5D1D7",
"qA 	c #D2CED4",
"rA 	c #C7C4CA",
"sA 	c #C8C5CA",
"tA 	c #B8BBBA",
"uA 	c #B4B1B2",
"vA 	c #A99EA2",
"wA 	c #989294",
"xA 	c #848484",
"yA 	c #676B69",
"zA 	c #595B5B",
"AA 	c #535052",
"BA 	c #424042",
"CA 	c #272526",
"DA 	c #1B191A",
"EA 	c #070707",
"FA 	c #0F0F0F",
"GA 	c #131213",
"HA 	c #161415",
"IA 	c #1B1A1B",
"JA 	c #2D2B2C",
"KA 	c #393535",
"LA 	c #474242",
"MA 	c #524C4B",
"NA 	c #625C5C",
"OA 	c #686565",
"PA 	c #5E6264",
"QA 	c #63666A",
"RA 	c #7A7879",
"SA 	c #888587",
"TA 	c #918C8E",
"UA 	c #9A9495",
"VA 	c #A79FA0",
"WA 	c #B3A8A9",
"XA 	c #BDB0B1",
"YA 	c #C5B9BA",
"ZA 	c #C6BFC2",
"`A 	c #CBC3C6",
" B 	c #C2BBBD",
".B 	c #BDB5B9",
"+B 	c #D8D1D3",
"@B 	c #D7D0D3",
"#B 	c #D9D0D3",
"$B 	c #DACCD0",
"%B 	c #D9CDD0",
"&B 	c #D8CDD0",
"*B 	c #D7CCCE",
"=B 	c #D8D0D2",
"-B 	c #DCD5D7",
";B 	c #E0DBDE",
">B 	c #DFDDE2",
",B 	c #D6D9E0",
"'B 	c #D3D2DA",
")B 	c #D5CED7",
"!B 	c #D6CCD4",
"~B 	c #D6CAD1",
"{B 	c #E3D4DC",
"]B 	c #E2D2DA",
"^B 	c #E5D6DB",
"/B 	c #E3D4D9",
"(B 	c #DFD0D6",
"_B 	c #E1D2D7",
":B 	c #E2D3D9",
"<B 	c #E5D6DC",
"[B 	c #E5D4DE",
"}B 	c #E3D2DF",
"|B 	c #E3D5DF",
"1B 	c #DFD2D8",
"2B 	c #DACCD1",
"3B 	c #DBC8D1",
"4B 	c #DFD6DF",
"5B 	c #C1C1CA",
"6B 	c #A8B0B6",
"7B 	c #C8CAD3",
"8B 	c #D2C5CF",
"9B 	c #C7BBC1",
"0B 	c #BEBBBF",
"aB 	c #B9B8BD",
"bB 	c #B5B1B9",
"cB 	c #B4ACB6",
"dB 	c #BAB0BA",
"eB 	c #C3B8C2",
"fB 	c #C4B9C3",
"gB 	c #BEB3BB",
"hB 	c #BDB4BA",
"iB 	c #BCB2B9",
"jB 	c #C3B8BE",
"kB 	c #D5D0D9",
"lB 	c #D6CFD8",
"mB 	c #DBD3D9",
"nB 	c #CEC4C9",
"oB 	c #CBC2C6",
"pB 	c #D6CED3",
"qB 	c #DCD5DA",
"rB 	c #DFD8DD",
"sB 	c #DDD6DB",
"tB 	c #D2CBD1",
"uB 	c #D3CDD2",
"vB 	c #D5D1D5",
"wB 	c #CCC6CA",
"xB 	c #C5C6C4",
"yB 	c #BEB9BA",
"zB 	c #B2A4A8",
"AB 	c #A0999A",
"BB 	c #8B8A8A",
"CB 	c #686C6B",
"DB 	c #585A5A",
"EB 	c #514E51",
"FB 	c #433F41",
"GB 	c #353133",
"HB 	c #272425",
"IB 	c #1B1919",
"JB 	c #100F0F",
"KB 	c #090808",
"LB 	c #0A0A09",
"MB 	c #0C0C0B",
"NB 	c #0E0E0E",
"OB 	c #111011",
"PB 	c #141314",
"QB 	c #191818",
"RB 	c #1D1C1C",
"SB 	c #211F20",
"TB 	c #282426",
"UB 	c #2E2A2C",
"VB 	c #373434",
"WB 	c #423D3D",
"XB 	c #4E4747",
"YB 	c #58504F",
"ZB 	c #655F5E",
"`B 	c #6D6A6A",
" C 	c #63696A",
".C 	c #6F7377",
"+C 	c #868284",
"@C 	c #908B8E",
"#C 	c #9C9597",
"$C 	c #A89FA1",
"%C 	c #B5A9AB",
"&C 	c #BDAFB0",
"*C 	c #C0B2B2",
"=C 	c #C8BABB",
"-C 	c #D0C5C8",
";C 	c #D5CACD",
">C 	c #CFC4C6",
",C 	c #C8BDC0",
"'C 	c #E0D6D8",
")C 	c #DDD3D6",
"!C 	c #DED1D4",
"~C 	c #E2D0D4",
"{C 	c #E2D1D5",
"]C 	c #E3D3D6",
"^C 	c #E1D2D5",
"/C 	c #DFD2D5",
"(C 	c #DFD4D7",
"_C 	c #E3D9DC",
":C 	c #E3DDE1",
"<C 	c #DDDBE1",
"[C 	c #E0DBE2",
"}C 	c #E1D8E0",
"|C 	c #E2D5DB",
"1C 	c #E1D2D9",
"2C 	c #DCCCD3",
"3C 	c #E2D0D7",
"4C 	c #E3CFD6",
"5C 	c #EBD7DC",
"6C 	c #EBD6DB",
"7C 	c #E5D1D6",
"8C 	c #E2CED3",
"9C 	c #DECBD0",
"0C 	c #E0CDD2",
"aC 	c #E1CDD6",
"bC 	c #E1CDD9",
"cC 	c #E4D3DC",
"dC 	c #E4D5D9",
"eC 	c #DCCBCF",
"fC 	c #DAC4CC",
"gC 	c #DED3DD",
"hC 	c #BCBBC4",
"iC 	c #B0B8BE",
"jC 	c #CBCDD6",
"kC 	c #D6C6D0",
"lC 	c #C9BAC0",
"mC 	c #C6C1C5",
"nC 	c #C6C3C8",
"oC 	c #BDB7BF",
"pC 	c #B8AEB8",
"qC 	c #C1B5BF",
"rC 	c #CFC2CB",
"sC 	c #D2C5CD",
"tC 	c #CABDC4",
"uC 	c #CDC1C6",
"vC 	c #C5B9BE",
"wC 	c #D0C4C8",
"xC 	c #DACFD3",
"yC 	c #DDCFD4",
"zC 	c #EADBDE",
"AC 	c #E6D6D8",
"BC 	c #E2D1D2",
"CC 	c #E4D3D4",
"DC 	c #EAD9DA",
"EC 	c #EAD8DB",
"FC 	c #EEDCDF",
"GC 	c #F0DEE1",
"HC 	c #E7D5D8",
"IC 	c #EDDBDE",
"JC 	c #F1E3E6",
"KC 	c #E3D3D5",
"LC 	c #DAD6D2",
"MC 	c #C2B0B3",
"NC 	c #AEA1A4",
"OC 	c #969192",
"PC 	c #676869",
"QC 	c #535354",
"RC 	c #453F41",
"SC 	c #3B3336",
"TC 	c #322B2E",
"UC 	c #252022",
"VC 	c #1A1617",
"WC 	c #110F0F",
"XC 	c #060505",
"YC 	c #0A0809",
"ZC 	c #120F0F",
"`C 	c #141211",
" D 	c #181515",
".D 	c #1F1C1D",
"+D 	c #242122",
"@D 	c #2B2728",
"#D 	c #322C2E",
"$D 	c #373132",
"%D 	c #3D3637",
"&D 	c #3E3637",
"*D 	c #433939",
"=D 	c #443838",
"-D 	c #4D3F3F",
";D 	c #514646",
">D 	c #635A5C",
",D 	c #6D7073",
"'D 	c #84878B",
")D 	c #978D8F",
"!D 	c #998D8F",
"~D 	c #AE9FA2",
"{D 	c #CBB8B9",
"]D 	c #C9B3B4",
"^D 	c #C1AAAC",
"/D 	c #C8B2B4",
"(D 	c #DECBCE",
"_D 	c #E5D0D3",
":D 	c #E7D1D4",
"<D 	c #DCC6C9",
"[D 	c #E9D5D7",
"}D 	c #E3CDD1",
"|D 	c #DEC6CA",
"1D 	c #EFD2D7",
"2D 	c #EFD4D8",
"3D 	c #F2D7DC",
"4D 	c #F1D8DC",
"5D 	c #E9D0D4",
"6D 	c #E1CACE",
"7D 	c #E3CFD2",
"8D 	c #E8D7D9",
"9D 	c #E8D9DC",
"0D 	c #F6E6EA",
"aD 	c #F7E5E9",
"bD 	c #F2DBDF",
"cD 	c #F2D8DC",
"dD 	c #E5CACE",
"eD 	c #D5B7BA",
"fD 	c #DBBBBE",
"gD 	c #F3D3D4",
"hD 	c #F7D6D7",
"iD 	c #E9C8C9",
"jD 	c #D5B5B6",
"kD 	c #C1A1A3",
"lD 	c #C0A1A3",
"mD 	c #C7A8AC",
"nD 	c #CEAFB6",
"oD 	c #DBC0C5",
"pD 	c #E7CFD0",
"qD 	c #DABDBF",
"rD 	c #CBAEB2",
"sD 	c #CDBCC3",
"tD 	c #9F9AA2",
"uD 	c #BFC4CA",
"vD 	c #CFCBD2",
"wD 	c #D3BCC5",
"xD 	c #C4ADB2",
"yD 	c #CFC2C5",
"zD 	c #DCD1D6",
"AD 	c #C6B8C0",
"BD 	c #B7A5AE",
"CD 	c #C9B5BB",
"DD 	c #E2CED2",
"ED 	c #E8D4D7",
"FD 	c #DDCACC",
"GD 	c #EAD7D8",
"HD 	c #D2BFBF",
"ID 	c #E4D1D0",
"JD 	c #9C7C7A",
"KD 	c #997976",
"LD 	c #9A7A77",
"MD 	c #9D7B77",
"ND 	c #977670",
"OD 	c #997671",
"PD 	c #A07B76",
"QD 	c #A77F7B",
"RD 	c #A67F7B",
"SD 	c #9F7A77",
"TD 	c #9A7572",
"UD 	c #9E7B79",
"VD 	c #967371",
"WD 	c #8C7571",
"XD 	c #886C6A",
"YD 	c #88686A",
"ZD 	c #796064",
"`D 	c #6A5B5D",
" E 	c #5F595C",
".E 	c #504B4F",
"+E 	c #3E2F31",
"@E 	c #2E1D1F",
"#E 	c #211416",
"$E 	c #170D0E",
"%E 	c #0F0708",
"&E 	c #030102",
"*E 	c #090505",
"=E 	c #080505",
"-E 	c #0C0707",
";E 	c #0F0808",
">E 	c #120A0A",
",E 	c #130C0C",
"'E 	c #120D0D",
")E 	c #1A1212",
"!E 	c #1D1415",
"~E 	c #221819",
"{E 	c #281C1D",
"]E 	c #2A1D1E",
"^E 	c #2C1F20",
"/E 	c #342324",
"(E 	c #3B2727",
"_E 	c #442C2D",
":E 	c #492F2F",
"<E 	c #463132",
"[E 	c #5E4C4E",
"}E 	c #747073",
"|E 	c #8B8688",
"1E 	c #7E6464",
"2E 	c #7F6161",
"3E 	c #866666",
"4E 	c #8C6969",
"5E 	c #8E6B6A",
"6E 	c #8D6766",
"7E 	c #8C6362",
"8E 	c #986C6C",
"9E 	c #A37879",
"0E 	c #A67A7B",
"aE 	c #A47879",
"bE 	c #A17476",
"cE 	c #A17778",
"dE 	c #956D6E",
"eE 	c #A07173",
"fE 	c #A47477",
"gE 	c #A37578",
"hE 	c #A17577",
"iE 	c #9E7275",
"jE 	c #986E70",
"kE 	c #987071",
"lE 	c #9B7575",
"mE 	c #997675",
"nE 	c #9E7C7A",
"oE 	c #9D7978",
"pE 	c #9A7372",
"qE 	c #986C6A",
"rE 	c #966562",
"sE 	c #986663",
"tE 	c #A87672",
"uE 	c #A77572",
"vE 	c #9C6B68",
"wE 	c #966460",
"xE 	c #8F5B57",
"yE 	c #895654",
"zE 	c #8A5958",
"AE 	c #916161",
"BE 	c #956A68",
"CE 	c #946F6C",
"DE 	c #8A6463",
"EE 	c #8F6465",
"FE 	c #A08588",
"GE 	c #AA9B9E",
"HE 	c #C7BEBF",
"IE 	c #B9A5A9",
"JE 	c #88656B",
"KE 	c #785659",
"LE 	c #8D6C6D",
"ME 	c #907173",
"NE 	c #8C676D",
"OE 	c #855D62",
"PE 	c #977271",
"QE 	c #9C7774",
"RE 	c #98726E",
"SE 	c #9F7A75",
"TE 	c #916C66",
"UE 	c #94716B",
"VE 	c #875850",
"WE 	c #835349",
"XE 	c #7F4D42",
"YE 	c #855347",
"ZE 	c #804E40",
"`E 	c #824E41",
" F 	c #895246",
".F 	c #8F554A",
"+F 	c #80473C",
"@F 	c #82483D",
"#F 	c #834B41",
"$F 	c #7D473D",
"%F 	c #71483F",
"&F 	c #70443E",
"*F 	c #74494B",
"=F 	c #674649",
"-F 	c #5B4748",
";F 	c #5D5558",
">F 	c #4F494D",
",F 	c #3B292C",
"'F 	c #291517",
")F 	c #1C0A0C",
"!F 	c #120506",
"~F 	c #050102",
"{F 	c #080203",
"]F 	c #110505",
"^F 	c #140607",
"/F 	c #0F0303",
"(F 	c #1C0C0C",
"_F 	c #1F0E0E",
":F 	c #251212",
"<F 	c #2A1515",
"[F 	c #2A1414",
"}F 	c #2B1213",
"|F 	c #371C1D",
"1F 	c #4A292A",
"2F 	c #4D2B2C",
"3F 	c #482C2D",
"4F 	c #614C4D",
"5F 	c #7B7678",
"6F 	c #948C8E",
"7F 	c #7A5655",
"8F 	c #7A5250",
"9F 	c #7B514E",
"0F 	c #7A4B49",
"aF 	c #7C4845",
"bF 	c #7B4442",
"cF 	c #7F4542",
"dF 	c #8C504D",
"eF 	c #915454",
"fF 	c #935454",
"gF 	c #8E4F4F",
"hF 	c #8C4F4F",
"iF 	c #894949",
"jF 	c #7B3C3B",
"kF 	c #8C4A4B",
"lF 	c #8C4748",
"mF 	c #8B4647",
"nF 	c #874445",
"oF 	c #844343",
"pF 	c #844445",
"qF 	c #7F4040",
"rF 	c #7D3F3E",
"sF 	c #7E4340",
"tF 	c #7D433E",
"uF 	c #7A4037",
"vF 	c #793B32",
"wF 	c #7E3D34",
"xF 	c #823E33",
"yF 	c #823D33",
"zF 	c #8D483D",
"AF 	c #8A443A",
"BF 	c #823C32",
"CF 	c #833D33",
"DF 	c #803A30",
"EF 	c #773127",
"FF 	c #773129",
"GF 	c #7F4237",
"HF 	c #784036",
"IF 	c #6E3731",
"JF 	c #AC9C9F",
"KF 	c #C8BBBB",
"LF 	c #B09799",
"MF 	c #713E42",
"NF 	c #632B2D",
"OF 	c #794444",
"PF 	c #7B4246",
"QF 	c #783E40",
"RF 	c #77403B",
"SF 	c #7F4940",
"TF 	c #854E45",
"UF 	c #824B41",
"VF 	c #855044",
"WF 	c #7D483B",
"XF 	c #794335",
"YF 	c #844D43",
"ZF 	c #895248",
"`F 	c #874F43",
" G 	c #90564A",
".G 	c #985E50",
"+G 	c #96584B",
"@G 	c #955348",
"#G 	c #924F45",
"$G 	c #8C4940",
"%G 	c #89473D",
"&G 	c #8D4C41",
"*G 	c #93544A",
"=G 	c #884940",
"-G 	c #7D4C3F",
";G 	c #7D4A41",
">G 	c #724443",
",G 	c #654142",
"'G 	c #584344",
")G 	c #5E5659",
"!G 	c #544D52",
"~G 	c #3A2829",
"{G 	c #291212",
"]G 	c #1E0B0B",
"^G 	c #120505",
"/G 	c #150506",
"(G 	c #190707",
"_G 	c #1C0809",
":G 	c #1F0C0B",
"<G 	c #1E0A09",
"[G 	c #291413",
"}G 	c #2F1716",
"|G 	c #361D1C",
"1G 	c #3C2120",
"2G 	c #3F2121",
"3G 	c #3F2020",
"4G 	c #472625",
"5G 	c #482323",
"6G 	c #4F2828",
"7G 	c #6A5555",
"8G 	c #858183",
"9G 	c #9D9597",
"0G 	c #7D5551",
"aG 	c #7C4D49",
"bG 	c #7F4E48",
"cG 	c #77423C",
"dG 	c #7B423B",
"eG 	c #884C45",
"fG 	c #91524B",
"gG 	c #95524D",
"hG 	c #964F4B",
"iG 	c #873E3A",
"jG 	c #823B36",
"kG 	c #8C443F",
"lG 	c #863E3B",
"mG 	c #8E4541",
"nG 	c #944845",
"oG 	c #924542",
"pG 	c #873D3A",
"qG 	c #843D39",
"rG 	c #833D39",
"sG 	c #7D3833",
"tG 	c #7A362F",
"uG 	c #7B3831",
"vG 	c #712C24",
"wG 	c #7D362E",
"xG 	c #7C3329",
"yG 	c #873F34",
"zG 	c #8A3F34",
"AG 	c #893E34",
"BG 	c #7F3127",
"CG 	c #82362C",
"DG 	c #883C32",
"EG 	c #8F4338",
"FG 	c #84372D",
"GG 	c #7F3126",
"HG 	c #81342A",
"IG 	c #843A31",
"JG 	c #864237",
"KG 	c #85463D",
"LG 	c #7F413B",
"MG 	c #804545",
"NG 	c #A7898E",
"OG 	c #AFA2A8",
"PG 	c #C1B4B2",
"QG 	c #957C79",
"RG 	c #8E5354",
"SG 	c #8F4E4D",
"TG 	c #854643",
"UG 	c #864845",
"VG 	c #864445",
"WG 	c #884746",
"XG 	c #894A45",
"YG 	c #8C4F45",
"ZG 	c #894D42",
"`G 	c #8B4F43",
" H 	c #86493C",
".H 	c #86504A",
"+H 	c #8B524B",
"@H 	c #8B5248",
"#H 	c #8F554C",
"$H 	c #925049",
"%H 	c #904D47",
"&H 	c #8B4741",
"*H 	c #86423C",
"=H 	c #84443E",
"-H 	c #7C4D3E",
";H 	c #7C4A40",
">H 	c #6E423F",
",H 	c #5D3E3C",
"'H 	c #5A4947",
")H 	c #5E5A5B",
"!H 	c #525052",
"~H 	c #3A2B2B",
"{H 	c #2B1715",
"]H 	c #190908",
"^H 	c #1C0909",
"/H 	c #220E0D",
"(H 	c #26100F",
"_H 	c #2A1210",
":H 	c #301614",
"<H 	c #341916",
"[H 	c #3D201D",
"}H 	c #442522",
"|H 	c #472825",
"1H 	c #4C2B27",
"2H 	c #502E2A",
"3H 	c #573330",
"4H 	c #643F3B",
"5H 	c #624947",
"6H 	c #7E6E6D",
"7H 	c #8A8E8E",
"8H 	c #9E9B9B",
"9H 	c #7C554F",
"0H 	c #7A4D45",
"aH 	c #794A41",
"bH 	c #7F4C42",
"cH 	c #844D44",
"dH 	c #8B5147",
"eH 	c #91554A",
"fH 	c #8E4B42",
"gH 	c #8C4840",
"hH 	c #844137",
"iH 	c #88463C",
"jH 	c #924D43",
"kH 	c #904C42",
"lH 	c #965047",
"mH 	c #8E463F",
"nH 	c #89413A",
"oH 	c #87433A",
"pH 	c #89453C",
"qH 	c #824037",
"rH 	c #7F3D33",
"sH 	c #7F3E34",
"tH 	c #7F3B37",
"uH 	c #7E3936",
"vH 	c #7A3632",
"wH 	c #813D36",
"xH 	c #86413A",
"yH 	c #8A433C",
"zH 	c #88413A",
"AH 	c #89423C",
"BH 	c #8C4440",
"CH 	c #8A413C",
"DH 	c #89413B",
"EH 	c #803732",
"FH 	c #7C332E",
"GH 	c #823A35",
"HH 	c #87403B",
"IH 	c #84423C",
"JH 	c #884A47",
"KH 	c #894C4D",
"LH 	c #80464D",
"MH 	c #AD97A0",
"NH 	c #B7B4BD",
"OH 	c #B9B4B0",
"PH 	c #9D8984",
"QH 	c #8D5554",
"RH 	c #8E4D4B",
"SH 	c #80433C",
"TH 	c #7D423A",
"UH 	c #7F413C",
"VH 	c #834542",
"WH 	c #854746",
"XH 	c #864946",
"YH 	c #824541",
"ZH 	c #82463F",
"`H 	c #7B3E35",
" I 	c #915B58",
".I 	c #8C534E",
"+I 	c #8B5049",
"@I 	c #8E4F4A",
"#I 	c #904E4A",
"$I 	c #8F4B48",
"%I 	c #8A4642",
"&I 	c #874541",
"*I 	c #83423F",
"=I 	c #81403D",
"-I 	c #7C4D3D",
";I 	c #7C4B40",
">I 	c #6D423E",
",I 	c #5A3D39",
"'I 	c #5B4B49",
")I 	c #5E5C5D",
"!I 	c #525253",
"~I 	c #3B2D2C",
"{I 	c #2C1917",
"]I 	c #210F0D",
"^I 	c #180707",
"/I 	c #230E0D",
"(I 	c #2B1512",
"_I 	c #2F1614",
":I 	c #301612",
"<I 	c #351916",
"[I 	c #381916",
"}I 	c #3A1C18",
"|I 	c #4C2A25",
"1I 	c #522F2A",
"2I 	c #58352F",
"3I 	c #5A3530",
"4I 	c #633E39",
"5I 	c #6F4944",
"6I 	c #6D5451",
"7I 	c #8B7D7B",
"8I 	c #919798",
"9I 	c #A0A1A0",
"0I 	c #7C574F",
"aI 	c #7B4D43",
"bI 	c #77483D",
"cI 	c #835146",
"dI 	c #8A5348",
"eI 	c #8C5449",
"fI 	c #91564A",
"gI 	c #8D4F43",
"hI 	c #89483C",
"iI 	c #87453A",
"jI 	c #844236",
"kI 	c #945246",
"lI 	c #843F35",
"mI 	c #88463B",
"nI 	c #824136",
"oI 	c #7D3E32",
"pI 	c #804135",
"qI 	c #803C3A",
"rI 	c #7C3937",
"sI 	c #8A4640",
"tI 	c #88433E",
"uI 	c #8E4944",
"vI 	c #904A46",
"wI 	c #8B4441",
"xI 	c #7F3835",
"yI 	c #7C3532",
"zI 	c #833C3A",
"AI 	c #894240",
"BI 	c #83413E",
"CI 	c #8A4C4B",
"DI 	c #8E5053",
"EI 	c #824953",
"FI 	c #B39FAB",
"GI 	c #BABBC6",
"HI 	c #B5B3AF",
"II 	c #A18E89",
"JI 	c #8E4E4B",
"KI 	c #7F413A",
"LI 	c #793F34",
"MI 	c #7C4038",
"NI 	c #814441",
"OI 	c #844647",
"PI 	c #824546",
"QI 	c #7E4141",
"RI 	c #7E4040",
"SI 	c #824642",
"TI 	c #7D413D",
"UI 	c #763933",
"VI 	c #8A524F",
"WI 	c #8C534B",
"XI 	c #8A4D48",
"YI 	c #8D4C48",
"ZI 	c #884744",
"`I 	c #82413E",
" J 	c #82423E",
".J 	c #80423F",
"+J 	c #7E413E",
"@J 	c #7B4C3F",
"#J 	c #7C4C42",
"$J 	c #764B46",
"%J 	c #654744",
"&J 	c #5A4A47",
"*J 	c #5C5A5A",
"=J 	c #515152",
"-J 	c #413332",
";J 	c #2E1C1B",
">J 	c #20100F",
",J 	c #221010",
"'J 	c #291514",
")J 	c #2D1614",
"!J 	c #311713",
"~J 	c #3F1D1A",
"{J 	c #43201D",
"]J 	c #47221F",
"^J 	c #4D2824",
"/J 	c #58332F",
"(J 	c #623C38",
"_J 	c #66403B",
":J 	c #6B4540",
"<J 	c #6F4943",
"[J 	c #724D48",
"}J 	c #6B5350",
"|J 	c #8A7B7B",
"1J 	c #92989B",
"2J 	c #A2A3A5",
"3J 	c #7E5852",
"4J 	c #7E5148",
"5J 	c #7F4F45",
"6J 	c #814D44",
"7J 	c #875148",
"8J 	c #8A4E44",
"9J 	c #86463B",
"0J 	c #87483D",
"aJ 	c #8B4B41",
"bJ 	c #8D4D42",
"cJ 	c #77382E",
"dJ 	c #733227",
"eJ 	c #78362C",
"fJ 	c #86493D",
"gJ 	c #894C40",
"hJ 	c #874A3F",
"iJ 	c #84483D",
"jJ 	c #85463E",
"kJ 	c #813F3D",
"lJ 	c #884444",
"mJ 	c #904C4B",
"nJ 	c #83423D",
"oJ 	c #874740",
"pJ 	c #904E48",
"qJ 	c #894642",
"rJ 	c #874440",
"sJ 	c #8E4B47",
"tJ 	c #904D49",
"uJ 	c #83403C",
"vJ 	c #85423F",
"wJ 	c #84403E",
"xJ 	c #7D3B3A",
"yJ 	c #8A494A",
"zJ 	c #8B4C50",
"AJ 	c #996068",
"BJ 	c #DAC4CF",
"CJ 	c #B6B8C0",
"DJ 	c #ADABA8",
"EJ 	c #9F8C89",
"FJ 	c #895254",
"GJ 	c #904E4E",
"HJ 	c #874A43",
"IJ 	c #83493F",
"JJ 	c #854B47",
"KJ 	c #874B4B",
"LJ 	c #874A4C",
"MJ 	c #874A4B",
"NJ 	c #87494A",
"OJ 	c #854947",
"PJ 	c #854845",
"QJ 	c #8D534C",
"RJ 	c #8E534A",
"SJ 	c #8E4E47",
"TJ 	c #874640",
"UJ 	c #7E3D38",
"VJ 	c #7F3F39",
"WJ 	c #81423D",
"XJ 	c #80433F",
"YJ 	c #7E4E43",
"ZJ 	c #7C4A42",
"`J 	c #724643",
" K 	c #624341",
".K 	c #584644",
"+K 	c #5C5958",
"@K 	c #3E3130",
"#K 	c #2D1B1A",
"$K 	c #200F0E",
"%K 	c #301A18",
"&K 	c #361D1B",
"*K 	c #391E1B",
"=K 	c #3B1D1A",
"-K 	c #42201F",
";K 	c #472120",
">K 	c #4D2424",
",K 	c #522928",
"'K 	c #572E2C",
")K 	c #633A38",
"!K 	c #6C423F",
"~K 	c #6C423E",
"{K 	c #714943",
"]K 	c #724A44",
"^K 	c #78504B",
"/K 	c #6F5554",
"(K 	c #917F81",
"_K 	c #9B9EA5",
":K 	c #AEABB1",
"<K 	c #7F5654",
"[K 	c #80504A",
"}K 	c #814F48",
"|K 	c #844E48",
"1K 	c #885048",
"2K 	c #8C5149",
"3K 	c #91534B",
"4K 	c #92534B",
"5K 	c #8B4C42",
"6K 	c #8D4D43",
"7K 	c #8F4F45",
"8K 	c #925249",
"9K 	c #8F4F46",
"0K 	c #804036",
"aK 	c #7C3C32",
"bK 	c #8C4C43",
"cK 	c #7C3F35",
"dK 	c #85483E",
"eK 	c #874A40",
"fK 	c #84473E",
"gK 	c #86443F",
"hK 	c #894542",
"iK 	c #8C4945",
"jK 	c #8B4B44",
"kK 	c #8C4C44",
"lK 	c #8F5047",
"mK 	c #97564F",
"nK 	c #8F4D47",
"oK 	c #87463F",
"pK 	c #8C4A44",
"qK 	c #884740",
"rK 	c #87453F",
"sK 	c #8A4742",
"tK 	c #84423F",
"uK 	c #8B4B4D",
"vK 	c #93565D",
"wK 	c #C7B0B8",
"xK 	c #ABACB0",
"yK 	c #AFACAC",
"zK 	c #A28C8D",
"AK 	c #894E53",
"BK 	c #924D50",
"CK 	c #8B4C48",
"DK 	c #834C44",
"EK 	c #844B47",
"FK 	c #884B4B",
"GK 	c #884A4B",
"HK 	c #864747",
"IK 	c #864746",
"JK 	c #884B48",
"KK 	c #844642",
"LK 	c #874E48",
"MK 	c #8F5650",
"NK 	c #90564E",
"OK 	c #8D5247",
"PK 	c #93564C",
"QK 	c #915249",
"RK 	c #8E4E46",
"SK 	c #86453D",
"TK 	c #7B3A33",
"UK 	c #7C3C35",
"VK 	c #81413A",
"WK 	c #815046",
"XK 	c #6E4140",
"YK 	c #5F3E3E",
"ZK 	c #564241",
"`K 	c #5C5857",
" L 	c #575556",
".L 	c #3B2E2D",
"+L 	c #2B1A19",
"@L 	c #271413",
"#L 	c #271211",
"$L 	c #361E1C",
"%L 	c #3F2422",
"&L 	c #422522",
"*L 	c #44251F",
"=L 	c #4F2929",
"-L 	c #532829",
";L 	c #592C2E",
">L 	c #5F3031",
",L 	c #5D3030",
"'L 	c #613534",
")L 	c #754846",
"!L 	c #714441",
"~L 	c #774D47",
"{L 	c #7D534F",
"]L 	c #745757",
"^L 	c #978386",
"/L 	c #A5A5AF",
"(L 	c #B8B2BB",
"_L 	c #805554",
":L 	c #814F4C",
"<L 	c #824F4B",
"[L 	c #87504B",
"}L 	c #8C504A",
"|L 	c #965650",
"1L 	c #995953",
"2L 	c #905047",
"3L 	c #8E4E45",
"4L 	c #97574E",
"5L 	c #8A4A41",
"6L 	c #84443B",
"7L 	c #73352C",
"8L 	c #81453C",
"9L 	c #83483E",
"0L 	c #8A4842",
"aL 	c #894640",
"bL 	c #9D5E53",
"cL 	c #9D5D54",
"dL 	c #94534B",
"eL 	c #87473F",
"fL 	c #83443C",
"gL 	c #884840",
"hL 	c #8A4941",
"iL 	c #8E4B45",
"jL 	c #8E4B46",
"kL 	c #8E4A49",
"lL 	c #8C494A",
"mL 	c #8D4D52",
"nL 	c #B39A9D",
"oL 	c #A09FA0",
"pL 	c #B2ACAF",
"qL 	c #A48C91",
"rL 	c #894A51",
"sL 	c #934C51",
"tL 	c #8E4F4D",
"uL 	c #8E544E",
"vL 	c #834C45",
"wL 	c #844A46",
"xL 	c #894C4B",
"yL 	c #89494A",
"zL 	c #854544",
"AL 	c #854442",
"BL 	c #874843",
"CL 	c #874D3F",
"DL 	c #8E5347",
"EL 	c #97584A",
"FL 	c #945446",
"GL 	c #904E41",
"HL 	c #955043",
"IL 	c #8D483A",
"JL 	c #833E30",
"KL 	c #813B2D",
"LL 	c #823B2F",
"ML 	c #823D30",
"NL 	c #864235",
"OL 	c #854337",
"PL 	c #864C48",
"QL 	c #804645",
"RL 	c #734245",
"SL 	c #735053",
"TL 	c #523D40",
"UL 	c #5B5558",
"VL 	c #3F3031",
"WL 	c #2E1C1C",
"XL 	c #1D0D0D",
"YL 	c #110607",
"ZL 	c #17090A",
"`L 	c #1C0B0C",
" M 	c #250F0F",
".M 	c #3F2323",
"+M 	c #4A2A2B",
"@M 	c #4A2828",
"#M 	c #512B2B",
"$M 	c #562F2E",
"%M 	c #6B4040",
"&M 	c #633637",
"*M 	c #663738",
"=M 	c #6A3A3A",
"-M 	c #714140",
";M 	c #7B4A4A",
">M 	c #7F4E4E",
",M 	c #7F524F",
"'M 	c #825A55",
")M 	c #7E534F",
"!M 	c #835955",
"~M 	c #866769",
"{M 	c #A59097",
"]M 	c #A4A4B0",
"^M 	c #BAB7C1",
"/M 	c #84575A",
"(M 	c #884D50",
"_M 	c #8A4B4E",
":M 	c #8A4B4D",
"<M 	c #854848",
"[M 	c #8D4B4B",
"}M 	c #8E4C48",
"|M 	c #92554C",
"1M 	c #93564D",
"2M 	c #91544B",
"3M 	c #93574D",
"4M 	c #92554E",
"5M 	c #935350",
"6M 	c #985754",
"7M 	c #9A5B58",
"8M 	c #9F625E",
"9M 	c #8A4E4A",
"0M 	c #945148",
"aM 	c #8A473E",
"bM 	c #87453B",
"cM 	c #88463A",
"dM 	c #8A483C",
"eM 	c #8D4C3F",
"fM 	c #904F42",
"gM 	c #874538",
"hM 	c #8B493B",
"iM 	c #935143",
"jM 	c #8E4D3F",
"kM 	c #8B4A3D",
"lM 	c #823E38",
"mM 	c #87403D",
"nM 	c #8C4343",
"oM 	c #944F53",
"pM 	c #8F6D6F",
"qM 	c #B5ACAB",
"rM 	c #BDB0B9",
"sM 	c #AF919C",
"tM 	c #8D4E54",
"uM 	c #954E4D",
"vM 	c #8A4F46",
"wM 	c #89483E",
"xM 	c #814136",
"yM 	c #86473C",
"zM 	c #894B3E",
"AM 	c #88493C",
"BM 	c #814537",
"CM 	c #884E41",
"DM 	c #8D5245",
"EM 	c #945649",
"FM 	c #935346",
"GM 	c #934F44",
"HM 	c #955044",
"IM 	c #8F4A3D",
"JM 	c #864134",
"KM 	c #823C30",
"LM 	c #813B2F",
"MM 	c #813D31",
"NM 	c #854234",
"OM 	c #834236",
"PM 	c #874E4A",
"QM 	c #824946",
"RM 	c #744446",
"SM 	c #765456",
"TM 	c #4E3A3C",
"UM 	c #5A5256",
"VM 	c #585256",
"WM 	c #3D2D2F",
"XM 	c #2E1B1B",
"YM 	c #1E0E0E",
"ZM 	c #0A0304",
"`M 	c #120607",
" N 	c #190A0A",
".N 	c #200D0E",
"+N 	c #2F1515",
"@N 	c #462828",
"#N 	c #502F2F",
"$N 	c #4F2B2B",
"%N 	c #593232",
"&N 	c #5D3434",
"*N 	c #6E4342",
"=N 	c #6C3E3D",
"-N 	c #704040",
";N 	c #724241",
">N 	c #794846",
",N 	c #845351",
"'N 	c #855653",
")N 	c #865C57",
"!N 	c #885D5A",
"~N 	c #8C6B6F",
"{N 	c #A8949B",
"]N 	c #A6A7B4",
"^N 	c #BBBAC4",
"/N 	c #84595B",
"(N 	c #854B4E",
"_N 	c #884C4B",
":N 	c #8A4E4D",
"<N 	c #91504F",
"[N 	c #92504D",
"}N 	c #91554C",
"|N 	c #90554C",
"1N 	c #925650",
"2N 	c #955552",
"3N 	c #985856",
"4N 	c #9A5C5A",
"5N 	c #9E615E",
"6N 	c #834845",
"7N 	c #93524A",
"8N 	c #8C4A42",
"9N 	c #87453C",
"0N 	c #87463C",
"aN 	c #89483D",
"bN 	c #864539",
"cN 	c #914F43",
"dN 	c #915043",
"eN 	c #8E4D40",
"fN 	c #8A4440",
"gN 	c #8D4546",
"hN 	c #8B484B",
"iN 	c #9D7D7F",
"jN 	c #B2AAA9",
"kN 	c #B6AAB3",
"lN 	c #A28791",
"mN 	c #914D4B",
"nN 	c #8D4E43",
"oN 	c #8B5145",
"pN 	c #884F46",
"qN 	c #874C43",
"rN 	c #894B40",
"sN 	c #7C3E32",
"tN 	c #894C3F",
"uN 	c #874A3D",
"vN 	c #814638",
"wN 	c #8A4F43",
"xN 	c #8F5246",
"yN 	c #905146",
"zN 	c #924E44",
"AN 	c #955046",
"BN 	c #924D42",
"CN 	c #8D473C",
"DN 	c #864135",
"EN 	c #803B30",
"FN 	c #813D32",
"GN 	c #824034",
"HN 	c #804035",
"IN 	c #844C49",
"JN 	c #754649",
"KN 	c #785759",
"LN 	c #453334",
"MN 	c #5A5458",
"NN 	c #504B50",
"ON 	c #38292B",
"PN 	c #2D1B1B",
"QN 	c #200F0F",
"RN 	c #150707",
"SN 	c #0E0404",
"TN 	c #19090B",
"UN 	c #221011",
"VN 	c #2E1515",
"WN 	c #351919",
"XN 	c #4D2C2D",
"YN 	c #573334",
"ZN 	c #542D2F",
"`N 	c #623A3A",
" O 	c #693E3E",
".O 	c #7B4C4A",
"+O 	c #7B4C49",
"@O 	c #80504D",
"#O 	c #885754",
"$O 	c #895B56",
"%O 	c #865C56",
"&O 	c #8A5B57",
"*O 	c #8E615E",
"=O 	c #907174",
"-O 	c #AB979D",
";O 	c #A7ABB7",
">O 	c #BABCC5",
",O 	c #81595A",
"'O 	c #804748",
")O 	c #814344",
"!O 	c #864849",
"~O 	c #985956",
"{O 	c #9A5955",
"]O 	c #935951",
"^O 	c #945A52",
"/O 	c #965854",
"(O 	c #975957",
"_O 	c #9A5E5B",
":O 	c #995E5A",
"<O 	c #8A504C",
"[O 	c #854C48",
"}O 	c #8C504B",
"|O 	c #8F4F49",
"1O 	c #894941",
"2O 	c #8F4E43",
"3O 	c #87463B",
"4O 	c #8E4D42",
"5O 	c #925146",
"6O 	c #915045",
"7O 	c #8E4D44",
"8O 	c #8D4C45",
"9O 	c #8E4C47",
"0O 	c #904A4B",
"aO 	c #78363A",
"bO 	c #B7989B",
"cO 	c #ABA3A4",
"dO 	c #A79EA5",
"eO 	c #867078",
"fO 	c #884D3E",
"gO 	c #87503F",
"hO 	c #854B40",
"iO 	c #824539",
"jO 	c #74372B",
"kO 	c #804337",
"lO 	c #884D41",
"mO 	c #864C3F",
"nO 	c #82483B",
"oO 	c #874F48",
"pO 	c #874D47",
"qO 	c #8A4944",
"rO 	c #8A4942",
"sO 	c #894840",
"tO 	c #84433C",
"uO 	c #7C3C34",
"vO 	c #783930",
"wO 	c #7C3E37",
"xO 	c #7D403A",
"yO 	c #895445",
"zO 	c #824D43",
"AO 	c #745A57",
"BO 	c #594C4B",
"CO 	c #555457",
"DO 	c #535255",
"EO 	c #3D3031",
"FO 	c #160808",
"GO 	c #100606",
"HO 	c #180A0A",
"IO 	c #2A1212",
"JO 	c #311816",
"KO 	c #482B29",
"LO 	c #512F2D",
"MO 	c #5B3835",
"NO 	c #67403E",
"OO 	c #673F3C",
"PO 	c #764E4A",
"QO 	c #764B47",
"RO 	c #7C4F4C",
"SO 	c #875A56",
"TO 	c #8C5E5B",
"UO 	c #8A5956",
"VO 	c #83524E",
"WO 	c #733F3B",
"XO 	c #8C5B58",
"YO 	c #9F7E7E",
"ZO 	c #A69094",
"`O 	c #A6A8AF",
" P 	c #ADAEB3",
".P 	c #76433D",
"+P 	c #824844",
"@P 	c #804943",
"#P 	c #855046",
"$P 	c #8A5248",
"%P 	c #8B4E48",
"&P 	c #874C4A",
"*P 	c #8B504E",
"=P 	c #894D4B",
"-P 	c #905352",
";P 	c #8E5352",
">P 	c #894D48",
",P 	c #8E5149",
"'P 	c #884D44",
")P 	c #90574D",
"!P 	c #864B44",
"~P 	c #8B4C4A",
"{P 	c #8C4B49",
"]P 	c #925250",
"^P 	c #904F4F",
"/P 	c #8E4E4C",
"(P 	c #8B4B49",
"_P 	c #864444",
":P 	c #8B4A47",
"<P 	c #7C3935",
"[P 	c #7C3B36",
"}P 	c #82413D",
"|P 	c #7A3A35",
"1P 	c #884743",
"2P 	c #85433C",
"3P 	c #854338",
"4P 	c #86453A",
"5P 	c #88483F",
"6P 	c #915655",
"7P 	c #755B5E",
"8P 	c #A19C9E",
"9P 	c #B1B0B1",
"0P 	c #B7A6A7",
"aP 	c #855451",
"bP 	c #8D5547",
"cP 	c #8D5647",
"dP 	c #8C5147",
"eP 	c #8D5049",
"fP 	c #8E504A",
"gP 	c #8B4D48",
"hP 	c #8A4C48",
"iP 	c #8B4D47",
"jP 	c #8C4E49",
"kP 	c #8A514A",
"lP 	c #884E48",
"mP 	c #8C4F4A",
"nP 	c #8A4B45",
"oP 	c #8B4A43",
"pP 	c #86453E",
"qP 	c #803F37",
"rP 	c #7A3B33",
"sP 	c #7D3F38",
"tP 	c #7E423B",
"uP 	c #885343",
"vP 	c #814B40",
"wP 	c #714743",
"xP 	c #735956",
"yP 	c #5C4F4E",
"zP 	c #575759",
"AP 	c #545458",
"BP 	c #3E3131",
"CP 	c #2C1919",
"DP 	c #200E0E",
"EP 	c #2A1312",
"FP 	c #341817",
"GP 	c #4A2B2A",
"HP 	c #5F3A37",
"IP 	c #6C4442",
"JP 	c #704643",
"KP 	c #7D544F",
"LP 	c #815351",
"MP 	c #8D5F5C",
"NP 	c #926360",
"OP 	c #8F5D59",
"PP 	c #79413E",
"QP 	c #935B59",
"RP 	c #8E5B58",
"SP 	c #A28181",
"TP 	c #A79194",
"UP 	c #A6A7AE",
"VP 	c #835D56",
"WP 	c #77453F",
"XP 	c #834F46",
"YP 	c #845045",
"ZP 	c #864E44",
"`P 	c #874A49",
" Q 	c #8B4E4D",
".Q 	c #894B4B",
"+Q 	c #864948",
"@Q 	c #8D4F4F",
"#Q 	c #8D5050",
"$Q 	c #874A46",
"%Q 	c #8A4E45",
"&Q 	c #84483F",
"*Q 	c #8D544A",
"=Q 	c #90584D",
"-Q 	c #8A5147",
";Q 	c #8B4C49",
">Q 	c #8D4C4A",
",Q 	c #8E4C4D",
"'Q 	c #8C4C4B",
")Q 	c #8A4A48",
"!Q 	c #7F3C38",
"~Q 	c #7E3B38",
"{Q 	c #813F3B",
"]Q 	c #874441",
"^Q 	c #844039",
"/Q 	c #854135",
"(Q 	c #854437",
"_Q 	c #83433D",
":Q 	c #7B6266",
"<Q 	c #A09A9D",
"[Q 	c #B0AFAF",
"}Q 	c #81514E",
"|Q 	c #8D5548",
"1Q 	c #8E5148",
"2Q 	c #90514A",
"3Q 	c #8D4E4A",
"4Q 	c #8D4F4A",
"5Q 	c #8D4D49",
"6Q 	c #8C4D48",
"7Q 	c #8F504B",
"8Q 	c #92574F",
"9Q 	c #90544C",
"0Q 	c #8F534B",
"aQ 	c #8E5048",
"bQ 	c #93534B",
"cQ 	c #8F4C43",
"dQ 	c #8E4B43",
"eQ 	c #8B4940",
"fQ 	c #86443B",
"gQ 	c #874941",
"hQ 	c #834D3C",
"iQ 	c #7C473A",
"jQ 	c #715452",
"kQ 	c #625252",
"lQ 	c #615F62",
"mQ 	c #545358",
"nQ 	c #413233",
"oQ 	c #2B1818",
"pQ 	c #0D0304",
"qQ 	c #110606",
"rQ 	c #200D0D",
"sQ 	c #2C1312",
"tQ 	c #351817",
"uQ 	c #583332",
"vQ 	c #623938",
"wQ 	c #724745",
"xQ 	c #7F5453",
"yQ 	c #875A58",
"zQ 	c #8D5E5B",
"AQ 	c #905F5C",
"BQ 	c #976765",
"CQ 	c #976664",
"DQ 	c #925F5D",
"EQ 	c #95615E",
"FQ 	c #955D5B",
"GQ 	c #8C5452",
"HQ 	c #8F5C5A",
"IQ 	c #A28180",
"JQ 	c #A79395",
"KQ 	c #A5A4AB",
"LQ 	c #A6A5A8",
"MQ 	c #876259",
"NQ 	c #7F4C46",
"OQ 	c #955A56",
"PQ 	c #985E58",
"QQ 	c #875348",
"RQ 	c #8B4948",
"SQ 	c #8B4848",
"TQ 	c #874443",
"UQ 	c #854443",
"VQ 	c #874646",
"WQ 	c #83443B",
"XQ 	c #804139",
"YQ 	c #7F4138",
"ZQ 	c #90544A",
"`Q 	c #8D5148",
" R 	c #8A4C45",
".R 	c #8C4B47",
"+R 	c #904E4C",
"@R 	c #803D3B",
"#R 	c #813F3C",
"$R 	c #93504E",
"%R 	c #8A4541",
"&R 	c #8F4944",
"*R 	c #8B4541",
"=R 	c #833F39",
"-R 	c #7C3732",
";R 	c #843F3A",
">R 	c #86413C",
",R 	c #853E36",
"'R 	c #874032",
")R 	c #874335",
"!R 	c #803D33",
"~R 	c #8B4A44",
"{R 	c #844A49",
"]R 	c #AF949B",
"^R 	c #A2989D",
"/R 	c #A6A2A2",
"(R 	c #C5B2B3",
"_R 	c #6F403F",
":R 	c #8E5349",
"<R 	c #90554B",
"[R 	c #914F4A",
"}R 	c #924E4A",
"|R 	c #924F49",
"1R 	c #8F4C46",
"2R 	c #914E48",
"3R 	c #97524D",
"4R 	c #8D5045",
"5R 	c #995E54",
"6R 	c #955A4F",
"7R 	c #884E42",
"8R 	c #7E453A",
"9R 	c #915246",
"0R 	c #96564B",
"aR 	c #905246",
"bR 	c #8B4D43",
"cR 	c #774238",
"dR 	c #7E4943",
"eR 	c #6E4242",
"fR 	c #674949",
"gR 	c #564547",
"hR 	c #6B656A",
"iR 	c #635D65",
"jR 	c #413135",
"kR 	c #2B1719",
"lR 	c #1F0D0E",
"mR 	c #150607",
"nR 	c #0C0304",
"oR 	c #170C0C",
"pR 	c #211213",
"qR 	c #251214",
"rR 	c #291011",
"sR 	c #331818",
"tR 	c #4D2D2D",
"uR 	c #563334",
"vR 	c #5E3738",
"wR 	c #6C4243",
"xR 	c #61383A",
"yR 	c #73484B",
"zR 	c #845559",
"AR 	c #8D5D62",
"BR 	c #8F5F63",
"CR 	c #8D5E61",
"DR 	c #8D5D5F",
"ER 	c #915E62",
"FR 	c #926163",
"GR 	c #946466",
"HR 	c #8A5C5B",
"IR 	c #815A58",
"JR 	c #9B8382",
"KR 	c #A29394",
"LR 	c #BABAC1",
"MR 	c #BCB8BF",
"NR 	c #745250",
"OR 	c #6F3E3D",
"PR 	c #8A5252",
"QR 	c #895552",
"RR 	c #7D3E3A",
"SR 	c #743532",
"TR 	c #6E302D",
"UR 	c #723330",
"VR 	c #783A36",
"WR 	c #6D2F2E",
"XR 	c #773736",
"YR 	c #783A39",
"ZR 	c #793D3B",
"`R 	c #753B39",
" S 	c #733A36",
".S 	c #7B433E",
"+S 	c #844B45",
"@S 	c #864841",
"#S 	c #874A42",
"$S 	c #7F433A",
"%S 	c #88453D",
"&S 	c #834038",
"*S 	c #823F37",
"=S 	c #88433B",
"-S 	c #8A443B",
";S 	c #7E3F39",
">S 	c #854745",
",S 	c #7D3F44",
"'S 	c #937179",
")S 	c #998891",
"!S 	c #B3A8AB",
"~S 	c #AD969A",
"{S 	c #724147",
"]S 	c #9E676B",
"^S 	c #965F5E",
"/S 	c #935958",
"(S 	c #89484A",
"_S 	c #92544A",
":S 	c #915248",
"<S 	c #925148",
"[S 	c #945048",
"}S 	c #914B44",
"|S 	c #9A6055",
"1S 	c #945B4F",
"2S 	c #854E42",
"3S 	c #794336",
"4S 	c #94564A",
"5S 	c #97594D",
"6S 	c #925549",
"7S 	c #744139",
"8S 	c #7D4A45",
"9S 	c #6F4346",
"0S 	c #624345",
"aS 	c #544347",
"bS 	c #6D666D",
"cS 	c #686068",
"dS 	c #413136",
"eS 	c #2B171A",
"fS 	c #1F0E10",
"gS 	c #150608",
"hS 	c #0A0505",
"iS 	c #110809",
"jS 	c #190E10",
"kS 	c #241618",
"lS 	c #28181A",
"mS 	c #281213",
"nS 	c #33191A",
"oS 	c #4C2E2F",
"pS 	c #553335",
"qS 	c #5C3638",
"rS 	c #6A4043",
"sS 	c #583134",
"tS 	c #6D4348",
"uS 	c #7E5156",
"vS 	c #895B61",
"wS 	c #8A5C62",
"xS 	c #895B60",
"yS 	c #8B5B61",
"zS 	c #8E5F64",
"AS 	c #906567",
"BS 	c #855D5D",
"CS 	c #7B5A58",
"DS 	c #948180",
"ES 	c #9F9192",
"FS 	c #BDBDC3",
"GS 	c #705152",
"HS 	c #68393B",
"IS 	c #7D4749",
"JS 	c #814C4E",
"KS 	c #835151",
"LS 	c #835250",
"MS 	c #7E4A49",
"NS 	c #79403F",
"OS 	c #7B3F3A",
"PS 	c #753A34",
"QS 	c #6A2D29",
"RS 	c #642824",
"SS 	c #692E29",
"TS 	c #713630",
"US 	c #612725",
"VS 	c #6E3133",
"WS 	c #703335",
"XS 	c #723839",
"YS 	c #743B3B",
"ZS 	c #6C3434",
"`S 	c #662F2F",
" T 	c #723C3A",
".T 	c #804A45",
"+T 	c #804840",
"@T 	c #81463E",
"#T 	c #844940",
"$T 	c #874D43",
"%T 	c #783E34",
"&T 	c #7C3E36",
"*T 	c #824138",
"=T 	c #87443C",
"-T 	c #89453F",
";T 	c #7D423D",
">T 	c #834646",
",T 	c #7B3E45",
"'T 	c #8B646E",
")T 	c #99858F",
"!T 	c #B9ACB0",
"~T 	c #73424A",
"{T 	c #9E686F",
"]T 	c #945E60",
"^T 	c #8F5759",
"/T 	c #85464B",
"(T 	c #884848",
"_T 	c #8F524B",
":T 	c #905348",
"<T 	c #945249",
"[T 	c #8F4942",
"}T 	c #87544C",
"|T 	c #89564D",
"1T 	c #88574E",
"2T 	c #7A4B40",
"3T 	c #84554B",
"4T 	c #7F5147",
"5T 	c #7C4B41",
"6T 	c #834F45",
"7T 	c #885449",
"8T 	c #875347",
"9T 	c #844F44",
"0T 	c #835044",
"aT 	c #814F45",
"bT 	c #7B4B3F",
"cT 	c #7B534E",
"dT 	c #714B50",
"eT 	c #4F353A",
"fT 	c #65575B",
"gT 	c #6A646A",
"hT 	c #635C63",
"iT 	c #403338",
"jT 	c #29181C",
"kT 	c #1E1012",
"lT 	c #15090B",
"mT 	c #0B0405",
"nT 	c #110A0B",
"oT 	c #1B1314",
"pT 	c #2B2123",
"qT 	c #392C2F",
"rT 	c #2D1B1C",
"sT 	c #362022",
"tT 	c #503739",
"uT 	c #573B3D",
"vT 	c #57393C",
"wT 	c #69494B",
"xT 	c #6C4A4F",
"yT 	c #745258",
"zT 	c #6A464D",
"AT 	c #724D54",
"BT 	c #835E65",
"CT 	c #8A656D",
"DT 	c #88636A",
"ET 	c #825D65",
"FT 	c #7D595F",
"GT 	c #7C5A5E",
"HT 	c #785C5D",
"IT 	c #775F5E",
"JT 	c #7F7270",
"KT 	c #988F91",
"LT 	c #A9A7B1",
"MT 	c #A6A5AD",
"NT 	c #886F72",
"OT 	c #603D43",
"PT 	c #65383F",
"QT 	c #70464B",
"RT 	c #755053",
"ST 	c #795354",
"TT 	c #784D50",
"UT 	c #714245",
"VT 	c #6B3A36",
"WT 	c #683734",
"XT 	c #64332E",
"YT 	c #63322F",
"ZT 	c #683733",
"`T 	c #6E3C39",
" U 	c #622F30",
".U 	c #68383C",
"+U 	c #68373C",
"@U 	c #643539",
"#U 	c #643639",
"$U 	c #64373B",
"%U 	c #603538",
"&U 	c #64393A",
"*U 	c #754948",
"=U 	c #865853",
"-U 	c #794B43",
";U 	c #75483F",
">U 	c #784A41",
",U 	c #7B4D45",
"'U 	c #805049",
")U 	c #774740",
"!U 	c #7C4943",
"~U 	c #754037",
"{U 	c #743E36",
"]U 	c #743D34",
"^U 	c #753E35",
"/U 	c #6E3830",
"(U 	c #683129",
"_U 	c #713834",
":U 	c #7C4241",
"<U 	c #794441",
"[U 	c #7F4D4A",
"}U 	c #814D4D",
"|U 	c #824D52",
"1U 	c #97757E",
"2U 	c #A8969D",
"3U 	c #CABFC4",
"4U 	c #A18E95",
"5U 	c #6D434D",
"6U 	c #5A2833",
"7U 	c #5D3036",
"8U 	c #5C2E34",
"9U 	c #774249",
"0U 	c #794942",
"aU 	c #7B4B41",
"bU 	c #845249",
"cU 	c #855249",
"dU 	c #955B55",
"eU 	c #8E514D",
"fU 	c #7F5E62",
"gU 	c #86686C",
"hU 	c #A68E93",
"iU 	c #A48F93",
"jU 	c #AC999D",
"kU 	c #A9979A",
"lU 	c #A69195",
"mU 	c #AA9295",
"nU 	c #AB9194",
"oU 	c #A98F92",
"pU 	c #AB9295",
"qU 	c #A1898B",
"rU 	c #9A8184",
"sU 	c #977F81",
"tU 	c #8E807E",
"uU 	c #8B7878",
"vU 	c #7D6A6E",
"wU 	c #685E61",
"xU 	c #6E6A6D",
"yU 	c #6B6B6F",
"zU 	c #605F63",
"AU 	c #484446",
"BU 	c #363132",
"CU 	c #2A2527",
"DU 	c #1F1A1B",
"EU 	c #0C0A0A",
"FU 	c #0A0808",
"GU 	c #120F10",
"HU 	c #1B1819",
"IU 	c #282425",
"JU 	c #353032",
"KU 	c #3C3536",
"LU 	c #484242",
"MU 	c #554C4C",
"NU 	c #615658",
"OU 	c #6F6566",
"PU 	c #7A6E6F",
"QU 	c #857C7F",
"RU 	c #887E83",
"SU 	c #898085",
"TU 	c #92898F",
"UU 	c #9A8F95",
"VU 	c #9C9196",
"WU 	c #9B8F95",
"XU 	c #988C92",
"YU 	c #95888D",
"ZU 	c #94868A",
"`U 	c #978D8E",
" V 	c #928C8B",
".V 	c #898586",
"+V 	c #AAAAB5",
"@V 	c #AEAEBA",
"#V 	c #A19EA3",
"$V 	c #948B92",
"%V 	c #91828A",
"&V 	c #8D7E84",
"*V 	c #897D81",
"=V 	c #897C80",
"-V 	c #8A7A80",
";V 	c #8D7A80",
">V 	c #917F87",
",V 	c #928089",
"'V 	c #93838B",
")V 	c #8E7C85",
"!V 	c #8C7B83",
"~V 	c #938189",
"{V 	c #88787E",
"]V 	c #8D7E83",
"^V 	c #8C7D82",
"/V 	c #8A7C80",
"(V 	c #8A7C81",
"_V 	c #807377",
":V 	c #7D7175",
"<V 	c #857A7E",
"[V 	c #8E8285",
"}V 	c #8E7E82",
"|V 	c #8F8083",
"1V 	c #908285",
"2V 	c #908286",
"3V 	c #95868A",
"4V 	c #A09296",
"5V 	c #A49196",
"6V 	c #AA979A",
"7V 	c #A08B8F",
"8V 	c #AF9B9F",
"9V 	c #B09CA1",
"0V 	c #A79398",
"aV 	c #9F8C90",
"bV 	c #9F8A8D",
"cV 	c #A08B8B",
"dV 	c #9B8986",
"eV 	c #95827D",
"fV 	c #927A77",
"gV 	c #947A78",
"hV 	c #A69699",
"iV 	c #AAA7A8",
"jV 	c #BCBFC2",
"kV 	c #BDBAC0",
"lV 	c #AFA0AA",
"mV 	c #A799A3",
"nV 	c #A7A0A4",
"oV 	c #9D9798",
"pV 	c #A59598",
"qV 	c #A99A9C",
"rV 	c #A8999C",
"sV 	c #A89598",
"tV 	c #A89296",
"uV 	c #A3888E",
"vV 	c #9A7C81",
"wV 	c #8B676E",
"xV 	c #7A6670",
"yV 	c #86757E",
"zV 	c #B6A7AF",
"AV 	c #B8ACB3",
"BV 	c #C0B5BC",
"CV 	c #BEB3BA",
"DV 	c #BBADB4",
"EV 	c #BEAEB5",
"FV 	c #BCABB2",
"GV 	c #BAA9B0",
"HV 	c #BEADB3",
"IV 	c #B2A1A7",
"JV 	c #A8989F",
"KV 	c #A7979D",
"LV 	c #999493",
"MV 	c #988D8E",
"NV 	c #85797E",
"OV 	c #767073",
"PV 	c #747577",
"QV 	c #6C7073",
"RV 	c #5C5F62",
"SV 	c #4E4E4F",
"TV 	c #3D3C3D",
"UV 	c #302E2F",
"VV 	c #100E0F",
"WV 	c #0A090A",
"XV 	c #111111",
"YV 	c #1A1A1B",
"ZV 	c #242425",
"`V 	c #323132",
" W 	c #423E3F",
".W 	c #4E4B4B",
"+W 	c #565353",
"@W 	c #656061",
"#W 	c #767272",
"$W 	c #7E797A",
"%W 	c #8C898D",
"&W 	c #8D8B8F",
"*W 	c #949296",
"=W 	c #9D9CA0",
"-W 	c #A09EA3",
";W 	c #A09DA2",
">W 	c #9F9CA1",
",W 	c #9E9BA0",
"'W 	c #9C979C",
")W 	c #9C9398",
"!W 	c #A09C9D",
"~W 	c #9B9998",
"{W 	c #8B8C8E",
"]W 	c #999A9E",
"^W 	c #A4A5B0",
"/W 	c #ABADB9",
"(W 	c #A7ACB2",
"_W 	c #A3A0A7",
":W 	c #9F969E",
"<W 	c #958D95",
"[W 	c #8E8B90",
"}W 	c #8E898E",
"|W 	c #90898E",
"1W 	c #958B91",
"2W 	c #9C919C",
"3W 	c #9E949E",
"4W 	c #A298A3",
"5W 	c #9B919B",
"6W 	c #988E99",
"7W 	c #9F949F",
"8W 	c #958B93",
"9W 	c #999197",
"0W 	c #9A9297",
"aW 	c #989196",
"bW 	c #969095",
"cW 	c #8A858B",
"dW 	c #878489",
"eW 	c #928F94",
"fW 	c #98959A",
"gW 	c #928E94",
"hW 	c #99959B",
"iW 	c #9D999E",
"jW 	c #A19DA3",
"kW 	c #A29DA3",
"lW 	c #B3AEB5",
"mW 	c #B7ADB4",
"nW 	c #C1B5BC",
"oW 	c #C8BCC2",
"pW 	c #C9BCC3",
"qW 	c #BFB3BA",
"rW 	c #B8ABB2",
"sW 	c #B5A8AD",
"tW 	c #B3A7A8",
"uW 	c #ADA4A2",
"vW 	c #A29A94",
"wW 	c #9D908C",
"xW 	c #A0908D",
"yW 	c #AFA8A8",
"zW 	c #ADB1B0",
"AW 	c #B3BFC1",
"BW 	c #CCD1D6",
"CW 	c #CCC3CD",
"DW 	c #C7BDC8",
"EW 	c #C5C4C9",
"FW 	c #B9BABB",
"GW 	c #BCB5B7",
"HW 	c #BFB6B9",
"IW 	c #BFB9BD",
"JW 	c #BEB8BD",
"KW 	c #BBB2B8",
"LW 	c #BAAEB5",
"MW 	c #B2A2AA",
"NW 	c #A09099",
"OW 	c #8C7480",
"PW 	c #989199",
"QW 	c #ABA4AB",
"RW 	c #BDB6BD",
"SW 	c #C5BEC4",
"TW 	c #C1BABF",
"UW 	c #C3BBC2",
"VW 	c #C0B8C1",
"WW 	c #BDB5BE",
"XW 	c #BEB6BF",
"YW 	c #BBB3BC",
"ZW 	c #B9B1BA",
"`W 	c #BCB4BE",
" X 	c #B5ADB7",
".X 	c #A4A0A3",
"+X 	c #A0999E",
"@X 	c #9C959B",
"#X 	c #808285",
"$X 	c #74777A",
"%X 	c #636467",
"&X 	c #565657",
"*X 	c #444344",
"=X 	c #353435",
"-X 	c #282627",
";X 	c #0A0A0B",
">X 	c #101011",
",X 	c #19191A",
"'X 	c #2A2B2C",
")X 	c #4A4A4A",
"!X 	c #585656",
"~X 	c #6A6565",
"{X 	c #757070",
"]X 	c #747271",
"^X 	c #817F7F",
"/X 	c #8C8B8B",
"(X 	c #8C8C8C",
"_X 	c #989898",
":X 	c #A3A3A2",
"<X 	c #A6A6A6",
"[X 	c #A5A4A4",
"}X 	c #A3A3A3",
"|X 	c #A5A2A3",
"1X 	c #A39E9F",
"2X 	c #A5A0A1",
"3X 	c #9D9A9D",
"4X 	c #9D989D",
"5X 	c #A09AA4",
"6X 	c #9B9AA2",
"7X 	c #9BA4A8",
"8X 	c #959A9E",
"9X 	c #9C9DA3",
"0X 	c #97979B",
"aX 	c #96979B",
"bX 	c #98989C",
"cX 	c #969296",
"dX 	c #928F92",
"eX 	c #98979A",
"fX 	c #9C9B9E",
"gX 	c #A4A2A6",
"hX 	c #A6A5A9",
"iX 	c #959499",
"jX 	c #99979C",
"kX 	c #9A989C",
"lX 	c #9C9A9D",
"mX 	c #9C9A9E",
"nX 	c #99989A",
"oX 	c #9D9B9D",
"pX 	c #9A979C",
"qX 	c #97979D",
"rX 	c #91979E",
"sX 	c #8E989F",
"tX 	c #9AA3AA",
"uX 	c #AAAAB1",
"vX 	c #BAB6BC",
"wX 	c #B4B3B6",
"xX 	c #B3B8BC",
"yX 	c #AFB1BA",
"zX 	c #BEBFC7",
"AX 	c #ADACB4",
"BX 	c #B5B4BA",
"CX 	c #B1AFB7",
"DX 	c #ACAAB2",
"EX 	c #A9A7AF",
"FX 	c #B3B0B8",
"GX 	c #B8B3BB",
"HX 	c #B4B0B4",
"IX 	c #B5B0B0",
"JX 	c #BCB6B6",
"KX 	c #C4BABC",
"LX 	c #B3AFB2",
"MX 	c #C3C6C7",
"NX 	c #C0C8C9",
"OX 	c #D5DADC",
"PX 	c #C9C6CC",
"QX 	c #C8C4CA",
"RX 	c #C8C9CC",
"SX 	c #CDCFD1",
"TX 	c #CBC9CA",
"UX 	c #C7C2C5",
"VX 	c #C6C1C7",
"WX 	c #CCC7CD",
"XX 	c #D3CCD2",
"YX 	c #D4CBD1",
"ZX 	c #CFC4C9",
"`X 	c #D9CDD2",
" Y 	c #BAABB0",
".Y 	c #958B90",
"+Y 	c #CABABE",
"@Y 	c #B9AAAE",
"#Y 	c #B6A5A9",
"$Y 	c #B1A1A5",
"%Y 	c #B5A5AA",
"&Y 	c #B9A9AF",
"*Y 	c #BBACB1",
"=Y 	c #BBACB2",
"-Y 	c #B8A9AF",
";Y 	c #B4A4AA",
">Y 	c #B2A5AA",
",Y 	c #AB9EA4",
"'Y 	c #A19497",
")Y 	c #96888D",
"!Y 	c #93858B",
"~Y 	c #887F83",
"{Y 	c #7E787A",
"]Y 	c #736E71",
"^Y 	c #696466",
"/Y 	c #514C4E",
"(Y 	c #3F3A3B",
"_Y 	c #312C2D",
":Y 	c #242121",
"<Y 	c #181516",
"[Y 	c #090809",
"}Y 	c #131314",
"|Y 	c #1C1C1D",
"1Y 	c #292829",
"2Y 	c #393637",
"3Y 	c #433E3E",
"4Y 	c #534A4B",
"5Y 	c #615A5A",
"6Y 	c #6B6364",
"7Y 	c #7A7071",
"8Y 	c #776D6D",
"9Y 	c #797171",
"0Y 	c #7F7777",
"aY 	c #817979",
"bY 	c #817778",
"cY 	c #847A7A",
"dY 	c #897E7E",
"eY 	c #84797B",
"fY 	c #867A7D",
"gY 	c #85797B",
"hY 	c #867A7C",
"iY 	c #817679",
"jY 	c #86797E",
"kY 	c #8D8086",
"lY 	c #91868B",
"mY 	c #99979A",
"nY 	c #9C999C",
"oY 	c #989397",
"pY 	c #8C868A",
"qY 	c #898285",
"rY 	c #867F81",
"sY 	c #7F7679",
"tY 	c #7E7476",
"uY 	c #817678",
"vY 	c #82787A",
"wY 	c #867B7E",
"xY 	c #887E80",
"yY 	c #7F7577",
"zY 	c #807577",
"AY 	c #847A7D",
"BY 	c #857D7F",
"CY 	c #898182",
"DY 	c #92888D",
"EY 	c #9D949C",
"FY 	c #9A99A1",
"GY 	c #9299A1",
"HY 	c #9AA0A8",
"IY 	c #A59EA4",
"JY 	c #ADA0A6",
"KY 	c #B7ADAE",
"LY 	c #BEB8BA",
"MY 	c #C0B6BE",
"NY 	c #C6BEC4",
"OY 	c #B9B0B6",
"PY 	c #CABFC5",
"QY 	c #B8ADB3",
"RY 	c #B5A9B0",
"SY 	c #B7AAB1",
"TY 	c #BEB0B7",
"UY 	c #BFB0B7",
"VY 	c #B8A9AE",
"WY 	c #B7A9AD",
"XY 	c #BCADB0",
"YY 	c #C2B1B5",
"ZY 	c #C0B1B6",
"`Y 	c #CBC1C4",
" Z 	c #B3AEB0",
".Z 	c #C2BCBE",
"+Z 	c #BEB2B6",
"@Z 	c #BEB1B6",
"#Z 	c #C2B8BA",
"$Z 	c #C5BBBD",
"%Z 	c #C6B9BC",
"&Z 	c #BEB0B4",
"*Z 	c #B9AAB0",
"=Z 	c #BDADB4",
"-Z 	c #C2B2B7",
";Z 	c #C1AFB4",
">Z 	c #BEABAE",
",Z 	c #C1AFB2",
"'Z 	c #AA9698",
")Z 	c #A59395",
"!Z 	c #715E61",
"~Z 	c #D9BEC0",
"{Z 	c #AA8C8E",
"]Z 	c #A48385",
"^Z 	c #9B797B",
"/Z 	c #A18385",
"(Z 	c #AF9596",
"_Z 	c #B89FA0",
":Z 	c #B49B9C",
"<Z 	c #AD9494",
"[Z 	c #A78F8F",
"}Z 	c #A08A8A",
"|Z 	c #9E8388",
"1Z 	c #886F74",
"2Z 	c #866E73",
"3Z 	c #826F72",
"4Z 	c #7B686C",
"5Z 	c #716164",
"6Z 	c #6F6163",
"7Z 	c #4B3E40",
"8Z 	c #382B2D",
"9Z 	c #2B2122",
"0Z 	c #1E1718",
"aZ 	c #130E0E",
"bZ 	c #090606",
"cZ 	c #080606",
"dZ 	c #0C090B",
"eZ 	c #171416",
"fZ 	c #282527",
"gZ 	c #211A1B",
"hZ 	c #24171A",
"iZ 	c #352324",
"jZ 	c #3E2D2D",
"kZ 	c #4B3C3D",
"lZ 	c #514143",
"mZ 	c #684F53",
"nZ 	c #604446",
"oZ 	c #553739",
"pZ 	c #523134",
"qZ 	c #523033",
"rZ 	c #543336",
"sZ 	c #5E3E41",
"tZ 	c #69494D",
"uZ 	c #5D3F42",
"vZ 	c #5F474A",
"wZ 	c #624A4D",
"xZ 	c #61484C",
"yZ 	c #5F4749",
"zZ 	c #6C5457",
"AZ 	c #7A6265",
"BZ 	c #867174",
"CZ 	c #958A8C",
"DZ 	c #A19699",
"EZ 	c #94888B",
"FZ 	c #837576",
"GZ 	c #7C6C6D",
"HZ 	c #726263",
"IZ 	c #675455",
"JZ 	c #6A5556",
"KZ 	c #694F4E",
"LZ 	c #664B4A",
"MZ 	c #624443",
"NZ 	c #654746",
"OZ 	c #674A4A",
"PZ 	c #6C5050",
"QZ 	c #695153",
"RZ 	c #6B5758",
"SZ 	c #756564",
"TZ 	c #715E5E",
"UZ 	c #8A767C",
"VZ 	c #A199A3",
"WZ 	c #9499A2",
"XZ 	c #9B9DA5",
"YZ 	c #9C8288",
"ZZ 	c #A98F8E",
"`Z 	c #B7A1A1",
" ` 	c #C9B7B7",
".` 	c #D1BBC3",
"+` 	c #CEBCC1",
"@` 	c #C5B4B7",
"#` 	c #DECACE",
"$` 	c #C0AAAF",
"%` 	c #BEA8AD",
"&` 	c #C6ADB3",
"*` 	c #CAB2B8",
"=` 	c #C6ACB2",
"-` 	c #BDA0A7",
";` 	c #BDA0A8",
">` 	c #C4A7AF",
",` 	c #C8AAB3",
"'` 	c #BDA1A8",
")` 	c #CEB2B9",
"!` 	c #D4BAC1",
"~` 	c #A0878A",
"{` 	c #A68C8F",
"]` 	c #AF9396",
"^` 	c #B09598",
"/` 	c #BA9EA1",
"(` 	c #B99DA0",
"_` 	c #BEA4A7",
":` 	c #B3979B",
"<` 	c #A7878D",
"[` 	c #A8868D",
"}` 	c #AA878C",
"|` 	c #A48185",
"1` 	c #A48282",
"2` 	c #9C7B79",
"3` 	c #927471",
"4` 	c #B69091",
"5` 	c #A37A7B",
"6` 	c #B28887",
"7` 	c #9C6F6F",
"8` 	c #986664",
"9` 	c #966663",
"0` 	c #8C605B",
"a` 	c #8A5F5A",
"b` 	c #875C57",
"c` 	c #794F4B",
"d` 	c #714A47",
"e` 	c #764B4E",
"f` 	c #6D4548",
"g` 	c #6F494C",
"h` 	c #69484A",
"i` 	c #5C3F41",
"j` 	c #533A3C",
"k` 	c #533E3F",
"l` 	c #402C2D",
"m` 	c #311F20",
"n` 	c #261718",
"o` 	c #1A0E0F",
"p` 	c #0E0B0C",
"q` 	c #252122",
"r` 	c #1E1416",
"s` 	c #211113",
"t` 	c #271113",
"u` 	c #2D1719",
"v` 	c #352122",
"w` 	c #3C2628",
"x` 	c #3E2124",
"y` 	c #452225",
"z` 	c #482226",
"A` 	c #4E262B",
"B` 	c #562E33",
"C` 	c #5A3136",
"D` 	c #562E32",
"E` 	c #532C30",
"F` 	c #5B3639",
"G` 	c #543436",
"H` 	c #59383A",
"I` 	c #583739",
"J` 	c #523234",
"K` 	c #553638",
"L` 	c #553537",
"M` 	c #54383A",
"N` 	c #675355",
"O` 	c #715D5E",
"P` 	c #695556",
"Q` 	c #654E4E",
"R` 	c #5E4546",
"S` 	c #583D3E",
"T` 	c #543738",
"U` 	c #4E3030",
"V` 	c #4B2626",
"W` 	c #4A2526",
"X` 	c #4A2424",
"Y` 	c #4D2727",
"Z` 	c #4C2526",
"`` 	c #512929",
"  .	c #552F2F",
". .	c #52302F",
"+ .	c #4D2F2C",
"@ .	c #664947",
"# .	c #684948",
"$ .	c #624448",
"% .	c #695159",
"& .	c #82757E",
"* .	c #959199",
"= .	c #9B969C",
"- .	c #775359",
"; .	c #865F5D",
"> .	c #815E5E",
", .	c #826162",
"' .	c #9B747D",
") .	c #A58287",
"! .	c #8E6C6F",
"~ .	c #987579",
"{ .	c #9A7476",
"] .	c #9C7477",
"^ .	c #9F757A",
"/ .	c #A0767B",
"( .	c #A3767B",
"_ .	c #A6797E",
": .	c #A97B80",
"< .	c #A8797F",
"[ .	c #A5787C",
"} .	c #A6787D",
"| .	c #996C71",
"1 .	c #A2757A",
"2 .	c #96676B",
"3 .	c #9E6F73",
"4 .	c #976A6D",
"5 .	c #94666A",
"6 .	c #8E6164",
"7 .	c #96686C",
"8 .	c #93666A",
"9 .	c #95666B",
"0 .	c #936269",
"a .	c #8D5B63",
"b .	c #905D62",
"c .	c #8D5B5F",
"d .	c #7E4E4F",
"e .	c #835252",
"f .	c #8D5B5A",
"g .	c #A87E7E",
"h .	c #9E7170",
"i .	c #A07270",
"j .	c #93625F",
"k .	c #915B56",
"l .	c #8A554F",
"m .	c #85514A",
"n .	c #834E48",
"o .	c #814D45",
"p .	c #79463F",
"q .	c #74413B",
"r .	c #754243",
"s .	c #6E3E3F",
"t .	c #6C4141",
"u .	c #653E3F",
"v .	c #573636",
"w .	c #4E3131",
"x .	c #4A3131",
"y .	c #3C2525",
"z .	c #231313",
"A .	c #0F0505",
"B .	c #060304",
"C .	c #181416",
"D .	c #201C1D",
"E .	c #1D1314",
"F .	c #1C0D0F",
"G .	c #220D0E",
"H .	c #2E1A1A",
"I .	c #331D1E",
"J .	c #34181A",
"K .	c #38191C",
"L .	c #3B1B1D",
"M .	c #401F21",
"N .	c #472528",
"O .	c #4B282B",
"P .	c #462426",
"Q .	c #432123",
"R .	c #452727",
"S .	c #492A2B",
"T .	c #47292A",
"U .	c #442626",
"V .	c #442727",
"W .	c #442828",
"X .	c #513B3C",
"Y .	c #533D3D",
"Z .	c #523939",
"` .	c #4F3434",
" ..	c #4A2F2E",
"...	c #492C2B",
"+..	c #432524",
"@..	c #42201E",
"#..	c #401E1C",
"$..	c #421F1D",
"%..	c #442220",
"&..	c #472321",
"*..	c #492523",
"=..	c #452521",
"-..	c #553835",
";..	c #583937",
">..	c #533437",
",..	c #583F45",
"'..	c #71656C",
")..	c #89858C",
"!..	c #928B90",
"~..	c #896F74",
"{..	c #6F484C",
"]..	c #7B4F4E",
"^..	c #764E4B",
"/..	c #774F4E",
"(..	c #90626A",
"_..	c #9A6F73",
":..	c #875D5C",
"<..	c #8E6465",
"[..	c #936566",
"}..	c #966667",
"|..	c #976567",
"1..	c #976568",
"2..	c #9B676A",
"3..	c #9D696C",
"4..	c #9E6B6E",
"5..	c #9E6A6D",
"6..	c #9E6A6C",
"7..	c #925D60",
"8..	c #9A6568",
"9..	c #945F61",
"0..	c #966265",
"a..	c #905C5F",
"b..	c #8D595C",
"c..	c #865255",
"d..	c #8F5B5E",
"e..	c #8E595C",
"f..	c #90595E",
"g..	c #8B5358",
"h..	c #8D5458",
"i..	c #7F4849",
"j..	c #8F5656",
"k..	c #7B3F36",
"l..	c #76342B",
"m..	c #7F3F34",
"n..	c #844336",
"o..	c #864337",
"p..	c #813C32",
"q..	c #803A31",
"r..	c #863F37",
"s..	c #854036",
"t..	c #7B3D36",
"u..	c #753B34",
"v..	c #6C372F",
"w..	c #61302A",
"x..	c #552A23",
"y..	c #48221B",
"z..	c #3B1914",
"A..	c #321510",
"B..	c #280E0B",
"C..	c #0B0809",
"D..	c #180A0B",
"E..	c #1F0B0B",
"F..	c #251010",
"G..	c #2A1514",
"H..	c #2E1716",
"I..	c #2D1515",
"J..	c #2C1412",
"K..	c #341B19",
"L..	c #361C1B",
"M..	c #331917",
"N..	c #2F1513",
"O..	c #331815",
"P..	c #331612",
"Q..	c #321411",
"R..	c #30120F",
"S..	c #361915",
"T..	c #391C1A",
"U..	c #3B1D1B",
"V..	c #3D1F1C",
"W..	c #41221E",
"X..	c #40211D",
"Y..	c #3A1D18",
"Z..	c #3D221C",
"`..	c #3C211A",
" +.	c #3B1F19",
".+.	c #371B14",
"++.	c #40241D",
"@+.	c #3F211C",
"#+.	c #3E1E17",
"$+.	c #411C14",
"%+.	c #431F17",
"&+.	c #3D1A13",
"*+.	c #431E18",
"=+.	c #422020",
"-+.	c #462C2E",
";+.	c #5E5255",
">+.	c #7B7679",
",+.	c #857D80",
"'+.	c #6A4D4E",
")+.	c #673D3C",
"!+.	c #75413C",
"~+.	c #8B4E52",
"{+.	c #894F4C",
"]+.	c #854C44",
"^+.	c #8B4E47",
"/+.	c #8C4842",
"(+.	c #8D4B45",
"_+.	c #8C4B44",
":+.	c #84443D",
"<+.	c #95534D",
"[+.	c #904E47",
"}+.	c #92514A",
"|+.	c #92514F",
"1+.	c #834240",
"2+.	c #82403E",
"3+.	c #7F3E3B",
"4+.	c #884644",
"5+.	c #8E4C4A",
"6+.	c #8C4B48",
"7+.	c #8C4A48",
"8+.	c #93504F",
"9+.	c #8B4947",
"0+.	c #955250",
"a+.	c #84483E",
"b+.	c #824537",
"c+.	c #884A3C",
"d+.	c #8A4C3C",
"e+.	c #874838",
"f+.	c #87433D",
"g+.	c #85413A",
"h+.	c #80403A",
"i+.	c #7B3F34",
"j+.	c #743B30",
"k+.	c #69352A",
"l+.	c #603026",
"m+.	c #542920",
"n+.	c #47221A",
"o+.	c #402018",
"p+.	c #351813",
"q+.	c #29110C",
"r+.	c #1F0B08",
"s+.	c #150D0E",
"t+.	c #1D0C0B",
"u+.	c #20110E",
"v+.	c #231110",
"w+.	c #220F0E",
"x+.	c #24100E",
"y+.	c #26120F",
"z+.	c #281310",
"A+.	c #281311",
"B+.	c #29120F",
"C+.	c #27110D",
"D+.	c #29120E",
"E+.	c #260F0B",
"F+.	c #260F0C",
"G+.	c #2D1512",
"H+.	c #2F1713",
"I+.	c #311814",
"J+.	c #2F1712",
"K+.	c #2C1610",
"L+.	c #2D1610",
"M+.	c #301813",
"N+.	c #2F1711",
"O+.	c #301812",
"P+.	c #301611",
"Q+.	c #31160F",
"R+.	c #361911",
"S+.	c #361810",
"T+.	c #34160F",
"U+.	c #381813",
"V+.	c #3D2728",
"W+.	c #524949",
"X+.	c #6A6868",
"Y+.	c #736E6E",
"Z+.	c #5F4644",
"`+.	c #683A31",
" @.	c #6D3F36",
".@.	c #76453D",
"+@.	c #824A48",
"@@.	c #7F4842",
"#@.	c #8C534A",
"$@.	c #884A41",
"%@.	c #86463E",
"&@.	c #86473E",
"*@.	c #87473E",
"=@.	c #84453C",
"-@.	c #7D3C38",
";@.	c #7E3D39",
">@.	c #84443F",
",@.	c #864641",
"'@.	c #864741",
")@.	c #854741",
"!@.	c #864843",
"~@.	c #884945",
"{@.	c #844641",
"]@.	c #874944",
"^@.	c #8F504C",
"/@.	c #82473C",
"(@.	c #85493B",
"_@.	c #894C3E",
":@.	c #894B3B",
"<@.	c #874939",
"[@.	c #8D4A43",
"}@.	c #8B4842",
"|@.	c #80423C",
"1@.	c #733B30",
"2@.	c #683429",
"3@.	c #5E2F25",
"4@.	c #552A21",
"5@.	c #48241B",
"6@.	c #361913",
"7@.	c #1E0B07",
"8@.	c #09090A",
"9@.	c #120606",
"0@.	c #180B09",
"a@.	c #1A0C0A",
"b@.	c #1D0C0A",
"c@.	c #1E0C0A",
"d@.	c #1F0D0B",
"e@.	c #200E0C",
"f@.	c #1E0C08",
"g@.	c #1E0C09",
"h@.	c #24100D",
"i@.	c #23100D",
"j@.	c #220E0A",
"k@.	c #25110C",
"l@.	c #240F0B",
"m@.	c #2A120D",
"n@.	c #2A120C",
"o@.	c #2B110C",
"p@.	c #2E130F",
"q@.	c #2F1615",
"r@.	c #474040",
"s@.	c #5D5C5B",
"t@.	c #656161",
"u@.	c #553F3D",
"v@.	c #563431",
"w@.	c #62382E",
"x@.	c #693D33",
"y@.	c #704239",
"z@.	c #7A4642",
"A@.	c #7A453E",
"B@.	c #824E44",
"C@.	c #865147",
"D@.	c #84463E",
"E@.	c #82443B",
"F@.	c #83453B",
"G@.	c #86473D",
"H@.	c #8A4B41",
"I@.	c #804237",
"J@.	c #7B3C36",
"K@.	c #7D3D38",
"L@.	c #84453E",
"M@.	c #84453F",
"N@.	c #83463E",
"O@.	c #83473F",
"P@.	c #854841",
"Q@.	c #854843",
"R@.	c #824540",
"S@.	c #81453B",
"T@.	c #894E42",
"U@.	c #884C41",
"V@.	c #834839",
"W@.	c #854B3C",
"X@.	c #884944",
"Y@.	c #7E433F",
"Z@.	c #793D33",
"`@.	c #71392D",
" #.	c #643025",
".#.	c #5A2C22",
"+#.	c #592F26",
"@#.	c #4E2920",
"##.	c #3E1E16",
"$#.	c #341812",
"%#.	c #29110D",
"&#.	c #1E0B08",
"*#.	c #150704",
"=#.	c #080404",
"-#.	c #120806",
";#.	c #170808",
">#.	c #160606",
",#.	c #170707",
"'#.	c #170606",
")#.	c #130605",
"!#.	c #170A08",
"~#.	c #160906",
"{#.	c #1A0907",
"]#.	c #190706",
"^#.	c #1B0908",
"/#.	c #1D0A08",
"(#.	c #1D0C08",
"_#.	c #1F0D09",
":#.	c #240E0C",
"<#.	c #281312",
"[#.	c #2C1B1B",
"}#.	c #3C3735",
"|#.	c #50514F",
"1#.	c #5A5757",
"2#.	c #4C3936",
"3#.	c #4E302C",
"4#.	c #5F3A2F",
"5#.	c #5F3A2C",
"6#.	c #5D392A",
"7#.	c #6A3D33",
"8#.	c #6E4136",
"9#.	c #75483B",
"0#.	c #78483D",
"a#.	c #79463A",
"b#.	c #7A4439",
"c#.	c #763E33",
"d#.	c #743A30",
"e#.	c #82463B",
"f#.	c #85473C",
"g#.	c #8A4D42",
"h#.	c #894A40",
"i#.	c #824339",
"j#.	c #7D4034",
"k#.	c #8D4E45",
"l#.	c #8A4C43",
"m#.	c #804138",
"n#.	c #814339",
"o#.	c #82433A",
"p#.	c #82453A",
"q#.	c #82473B",
"r#.	c #83493D",
"s#.	c #844A42",
"t#.	c #7F453E",
"u#.	c #824743",
"v#.	c #8A4C41",
"w#.	c #84483B",
"x#.	c #84473B",
"y#.	c #84453D",
"z#.	c #894A42",
"A#.	c #8B4D44",
"B#.	c #7C4139",
"C#.	c #783B32",
"D#.	c #72382F",
"E#.	c #603027",
"F#.	c #5A2D26",
"G#.	c #4E271F",
"H#.	c #3F1D16",
"I#.	c #381A15",
"J#.	c #050203",
"K#.	c #090403",
"L#.	c #170907",
"M#.	c #1D0A09",
"N#.	c #210E0E",
"O#.	c #241516",
"P#.	c #342E2D",
"Q#.	c #464544",
"R#.	c #4F4B4B",
"S#.	c #453231",
"T#.	c #472A27",
"U#.	c #573329",
"V#.	c #593628",
"W#.	c #5A3728",
"X#.	c #693E34",
"Y#.	c #6E4036",
"Z#.	c #76463C",
"`#.	c #764238",
" $.	c #783F36",
".$.	c #7C4238",
"+$.	c #87463E",
"@$.	c #8A4841",
"#$.	c #824139",
"$$.	c #7A3931",
"%$.	c #84493E",
"&$.	c #864B40",
"*$.	c #824641",
"=$.	c #824643",
"-$.	c #824645",
";$.	c #84413C",
">$.	c #7F3D38",
",$.	c #85463C",
"'$.	c #8A4B40",
")$.	c #7B4036",
"!$.	c #783A32",
"~$.	c #733730",
"{$.	c #6D362E",
"]$.	c #64322A",
"^$.	c #5B2D26",
"/$.	c #4E251F",
"($.	c #411D17",
"_$.	c #3A1B17",
":$.	c #030304",
"<$.	c #2B2625",
"[$.	c #3E3D3C",
"}$.	c #474243",
"|$.	c #3E2C2C",
"1$.	c #4F2E24",
"2$.	c #533225",
"3$.	c #573527",
"4$.	c #663C34",
"5$.	c #6B3E35",
"6$.	c #744038",
"7$.	c #794137",
"8$.	c #7E443B",
"9$.	c #8F4D45",
"0$.	c #86443D",
"a$.	c #803D36",
"b$.	c #89463F",
"c$.	c #935048",
"d$.	c #7F3D35",
"e$.	c #88463E",
"f$.	c #8A4740",
"g$.	c #85483D",
"h$.	c #854A3E",
"i$.	c #854844",
"j$.	c #834744",
"k$.	c #804242",
"l$.	c #7E3934",
"m$.	c #76312B",
"n$.	c #904D46",
"o$.	c #8C4941",
"p$.	c #904E45",
"q$.	c #8D4B42",
"r$.	c #8D4D40",
"s$.	c #905042",
"t$.	c #894B3C",
"u$.	c #7A3B2D",
"v$.	c #763829",
"w$.	c #7B3D30",
"x$.	c #793D2F",
"y$.	c #793730",
"z$.	c #763731",
"A$.	c #743B34",
"B$.	c #6C3731",
"C$.	c #56261F",
"D$.	c #491D18",
"E$.	c #401A15",
"F$.	c #3B1A16",
"G$.	c #301310",
"H$.	c #160B0C",
"I$.	c #241F1F",
"J$.	c #343232",
"K$.	c #3D3739",
"L$.	c #362425",
"M$.	c #3C2220",
"N$.	c #543329",
"O$.	c #5E3C30",
"P$.	c #5B312A",
"Q$.	c #75443A",
"R$.	c #78443B",
"S$.	c #7F453C",
"T$.	c #81463D",
"U$.	c #83413A",
"V$.	c #88433C",
"W$.	c #8C4942",
"X$.	c #8A453F",
"Y$.	c #8F4B44",
"Z$.	c #8B463F",
"`$.	c #87443B",
" %.	c #7F3C34",
".%.	c #935047",
"+%.	c #89463D",
"@%.	c #87473C",
"#%.	c #8D4D45",
"$%.	c #985954",
"%%.	c #8E4F4B",
"&%.	c #7A3A38",
"*%.	c #7D3B32",
"=%.	c #7D3B31",
"-%.	c #89473E",
";%.	c #88473C",
">%.	c #844538",
",%.	c #85463A",
"'%.	c #824437",
")%.	c #814438",
"!%.	c #7E4235",
"~%.	c #7C3C33",
"{%.	c #7B3E36",
"]%.	c #713931",
"^%.	c #6B362E",
"/%.	c #5D2D25",
"(%.	c #522720",
"_%.	c #48231C",
":%.	c #3E1D18",
"<%.	c #311511",
"[%.	c #100809",
"}%.	c #1B1818",
"|%.	c #292A29",
"1%.	c #333031",
"2%.	c #2F2122",
"3%.	c #371F1E",
"4%.	c #42251E",
"5%.	c #4D2E25",
"6%.	c #57352C",
"7%.	c #5D3431",
"8%.	c #633832",
"9%.	c #734037",
"0%.	c #7A4038",
"a%.	c #82423A",
"b%.	c #814038",
"c%.	c #84433A",
"d%.	c #8B4841",
"e%.	c #8A4840",
"f%.	c #82463A",
"g%.	c #8D5044",
"h%.	c #8A4D41",
"i%.	c #884B3F",
"j%.	c #884B40",
"k%.	c #894B41",
"l%.	c #88493F",
"m%.	c #8E4F48",
"n%.	c #83453F",
"o%.	c #7D3E38",
"p%.	c #7D3C30",
"q%.	c #824135",
"r%.	c #814034",
"s%.	c #7A3A2F",
"t%.	c #824337",
"u%.	c #87483C",
"v%.	c #8B4D40",
"w%.	c #87493D",
"x%.	c #7F4036",
"y%.	c #7F4339",
"z%.	c #6D372F",
"A%.	c #6B362D",
"B%.	c #63332B",
"C%.	c #502A22",
"D%.	c #41211A",
"E%.	c #331711",
"F%.	c #270F0A",
"G%.	c #0B0606",
"H%.	c #202120",
"I%.	c #292929",
"J%.	c #291E1D",
"K%.	c #3D211C",
"L%.	c #472821",
"M%.	c #53312A",
"N%.	c #603736",
"O%.	c #613531",
"P%.	c #693B32",
"Q%.	c #723E35",
"R%.	c #6F372F",
"S%.	c #753B33",
"T%.	c #7D453B",
"U%.	c #81493F",
"V%.	c #834940",
"W%.	c #81443B",
"X%.	c #793C33",
"Y%.	c #80433A",
"Z%.	c #8B4C44",
"`%.	c #85453C",
" &.	c #854C3E",
".&.	c #854D3E",
"+&.	c #884F40",
"@&.	c #895142",
"#&.	c #8A5243",
"$&.	c #885041",
"%&.	c #874F40",
"&&.	c #894F42",
"*&.	c #8A4B43",
"=&.	c #86473F",
"-&.	c #804239",
";&.	c #7E3E35",
">&.	c #814239",
",&.	c #894B43",
"'&.	c #80443C",
")&.	c #7A3B36",
"!&.	c #783A34",
"~&.	c #622A25",
"{&.	c #69332E",
"]&.	c #63322D",
"^&.	c #532823",
"/&.	c #4A231D",
"(&.	c #43211C",
"_&.	c #381A16",
":&.	c #2C1310",
"<&.	c #210D0B",
"[&.	c #0B0A0A",
"}&.	c #181A19",
"|&.	c #272727",
"1&.	c #241B1A",
"2&.	c #2C1A18",
"3&.	c #381F18",
"4&.	c #462A21",
"5&.	c #503227",
"6&.	c #552E29",
"7&.	c #5B312C",
"8&.	c #663832",
"9&.	c #814742",
"0&.	c #79413B",
"a&.	c #79423B",
"b&.	c #7E473F",
"c&.	c #7E443E",
"d&.	c #7F433E",
"e&.	c #884C46",
"f&.	c #8F524C",
"g&.	c #8A4E48",
"h&.	c #854743",
"i&.	c #864A44",
"j&.	c #8A5045",
"k&.	c #884E44",
"l&.	c #854C41",
"m&.	c #864C42",
"n&.	c #844A41",
"o&.	c #834841",
"p&.	c #824740",
"q&.	c #80443E",
"r&.	c #874B46",
"s&.	c #834039",
"t&.	c #813F3A",
"u&.	c #7D3D37",
"v&.	c #6D342E",
"w&.	c #6B342E",
"x&.	c #64322C",
"y&.	c #592B26",
"z&.	c #4E2520",
"A&.	c #47221E",
"B&.	c #3C1C18",
"C&.	c #311613",
"D&.	c #080707",
"E&.	c #151616",
"F&.	c #212121",
"G&.	c #291816",
"H&.	c #381F19",
"I&.	c #43291F",
"J&.	c #4D2E24",
"K&.	c #552D26",
"L&.	c #5D332C",
"M&.	c #753D39",
"N&.	c #7E433E",
"O&.	c #804841",
"P&.	c #8A4F47",
"Q&.	c #8C5049",
"R&.	c #945850",
"S&.	c #90534C",
"T&.	c #8B4C46",
"U&.	c #8C4F48",
"V&.	c #8F5249",
"W&.	c #8B4F44",
"X&.	c #894B45",
"Y&.	c #8C473E",
"Z&.	c #8F483F",
"`&.	c #833D35",
" *.	c #823D34",
".*.	c #813C33",
"+*.	c #803B33",
"@*.	c #803C33",
"#*.	c #834037",
"$*.	c #85423D",
"%*.	c #7D413B",
"&*.	c #6F352F",
"**.	c #632E29",
"=*.	c #60302A",
"-*.	c #542924",
";*.	c #411E1A",
">*.	c #2D1411",
",*.	c #121213",
"'*.	c #1E1D1D",
")*.	c #281616",
"!*.	c #39211B",
"~*.	c #42271E",
"{*.	c #4A2A1E",
"]*.	c #572D24",
"^*.	c #62362F",
"/*.	c #65352F",
"(*.	c #6D3732",
"_*.	c #7B403C",
":*.	c #793D38",
"<*.	c #834842",
"[*.	c #8B514B",
"}*.	c #925850",
"|*.	c #995D54",
"1*.	c #9C6057",
"2*.	c #9E6157",
"3*.	c #9D6056",
"4*.	c #985A51",
"5*.	c #93544B",
"6*.	c #94564D",
"7*.	c #925046",
"8*.	c #915046",
"9*.	c #945348",
"0*.	c #7D3B2F",
"a*.	c #8D493E",
"b*.	c #89453A",
"c*.	c #88453A",
"d*.	c #8A473C",
"e*.	c #7D3C31",
"f*.	c #723127",
"g*.	c #79392F",
"h*.	c #854439",
"i*.	c #824238",
"j*.	c #78352E",
"k*.	c #75332D",
"l*.	c #73362E",
"m*.	c #632E27",
"n*.	c #58271F",
"o*.	c #4F221B",
"p*.	c #4A211B",
"q*.	c #401C16",
"r*.	c #351511",
"s*.	c #2A0F0B",
"t*.	c #161516",
"u*.	c #201E1F",
"v*.	c #291617",
"w*.	c #38211D",
"x*.	c #432922",
"y*.	c #4E2F28",
"z*.	c #5A2F28",
"A*.	c #61352D",
"B*.	c #65362E",
"C*.	c #743E37",
"D*.	c #794039",
"E*.	c #864B43",
"F*.	c #91584E",
"G*.	c #93584C",
"H*.	c #95594E",
"I*.	c #985B4F",
"J*.	c #96584D",
"K*.	c #975A4D",
"L*.	c #9B584C",
"M*.	c #965246",
"N*.	c #904D41",
"O*.	c #935147",
"P*.	c #945248",
"Q*.	c #80473D",
"R*.	c #85493F",
"S*.	c #8B5148",
"T*.	c #88534C",
"U*.	c #85534D",
"V*.	c #845049",
"W*.	c #844B42",
"X*.	c #824942",
"Y*.	c #834A43",
"Z*.	c #74362F",
"`*.	c #71342D",
" =.	c #723B34",
".=.	c #6C3730",
"+=.	c #673831",
"@=.	c #5D332D",
"#=.	c #552D27",
"$=.	c #43221D",
"%=.	c #150705",
"&=.	c #181618",
"*=.	c #24191B",
"==.	c #2C1A1D",
"-=.	c #382321",
";=.	c #432B27",
">=.	c #4E322D",
",=.	c #5F3932",
"'=.	c #653C35",
")=.	c #72413C",
"!=.	c #78443F",
"~=.	c #824F48",
"{=.	c #8C574E",
"]=.	c #8D574C",
"^=.	c #955D53",
"/=.	c #8F574D",
"(=.	c #92594F",
"_=.	c #92594E",
":=.	c #985C50",
"<=.	c #925449",
"[=.	c #8B4E42",
"}=.	c #8E5146",
"|=.	c #90524A",
"1=.	c #7E433B",
"2=.	c #825950",
"3=.	c #89625A",
"4=.	c #80584F",
"5=.	c #81594F",
"6=.	c #80574E",
"7=.	c #7F574D",
"8=.	c #8D665F",
"9=.	c #A8817B",
"0=.	c #B38D87",
"a=.	c #A27D78",
"b=.	c #7F5A56",
"c=.	c #7F5A55",
"d=.	c #7E5B57",
"e=.	c #795653",
"f=.	c #643835",
"g=.	c #623533",
"h=.	c #714945",
"i=.	c #613E39",
"j=.	c #6D4E4A",
"k=.	c #6F504B",
"l=.	c #604540",
"m=.	c #533935",
"n=.	c #48302D",
"o=.	c #3E2926",
"p=.	c #34211F",
"q=.	c #2A1A18",
"r=.	c #211311",
"s=.	c #1B100E",
"t=.	c #0C0506",
"u=.	c #070304",
"v=.	c #1B191B",
"w=.	c #2E2528",
"x=.	c #34262A",
"y=.	c #34272A",
"z=.	c #3E3031",
"A=.	c #483838",
"B=.	c #553B3C",
"C=.	c #58403E",
"D=.	c #634945",
"E=.	c #644645",
"F=.	c #6E4F4D",
"G=.	c #7A5754",
"H=.	c #755552",
"I=.	c #725551",
"J=.	c #74534D",
"K=.	c #7E564F",
"L=.	c #8B635D",
"M=.	c #8D655F",
"N=.	c #8A625B",
"O=.	c #8C635D",
"P=.	c #845A53",
"Q=.	c #8E635C",
"R=.	c #855A52",
"S=.	c #82574F",
"T=.	c #875C53",
"U=.	c #7B5046",
"V=.	c #784C44",
"W=.	c #81554D",
"X=.	c #885B54",
"Y=.	c #8A5C57",
"Z=.	c #885954",
"`=.	c #81524E",
" -.	c #7F504C",
".-.	c #835551",
"+-.	c #80524E",
"@-.	c #865854",
"#-.	c #AB9592",
"$-.	c #AF9996",
"%-.	c #B09B98",
"&-.	c #B09A97",
"*-.	c #AE9996",
"=-.	c #B19D9D",
"--.	c #B6A1A1",
";-.	c #BBA6A7",
">-.	c #BBA6A8",
",-.	c #B09D9F",
"'-.	c #AC9899",
")-.	c #AE9B9D",
"!-.	c #B09EA0",
"~-.	c #9A8487",
"{-.	c #9E888C",
"]-.	c #998385",
"^-.	c #816D70",
"/-.	c #857474",
"(-.	c #776768",
"_-.	c #6B5C5D",
":-.	c #605152",
"<-.	c #574A4A",
"[-.	c #504445",
"}-.	c #483E3F",
"|-.	c #403737",
"1-.	c #383031",
"2-.	c #2C2627",
"3-.	c #241E1F",
"4-.	c #1C1718",
"5-.	c #131011",
"6-.	c #0D090A",
"7-.	c #141214",
"8-.	c #1F2021",
"9-.	c #2B2B2C",
"0-.	c #383336",
"a-.	c #433B3F",
"b-.	c #464044",
"c-.	c #534E51",
"d-.	c #605C5E",
"e-.	c #6D6165",
"f-.	c #7C6F71",
"g-.	c #827276",
"h-.	c #8F7D80",
"i-.	c #98888B",
"j-.	c #988B8D",
"k-.	c #918182",
"l-.	c #8C7474",
"m-.	c #8B7272",
"n-.	c #907878",
"o-.	c #8F7676",
"p-.	c #A3898A",
"q-.	c #988081",
"r-.	c #897171",
"s-.	c #8A706E",
"t-.	c #8A6F6D",
"u-.	c #907674",
"v-.	c #937976",
"w-.	c #8F7673",
"x-.	c #866D6B",
"y-.	c #7F6563",
"z-.	c #7F6362",
"A-.	c #826264",
"B-.	c #7F5F61",
"C-.	c #79585A",
"D-.	c #765558",
"E-.	c #775658",
"F-.	c #745355",
"G-.	c #6E4C4E",
"H-.	c #B5A3A2",
"I-.	c #BAA7A6",
"J-.	c #BFADAC",
"K-.	c #BFADAD",
"L-.	c #C0ADAC",
"M-.	c #BEACAC",
"N-.	c #BEAEB0",
"O-.	c #BFAFB2",
"P-.	c #C2B2B5",
"Q-.	c #B9AAAC",
"R-.	c #BCAEB0",
"S-.	c #BEAFB2",
"T-.	c #A79498",
"U-.	c #AD9A9F",
"V-.	c #A39194",
"W-.	c #907F84",
"X-.	c #8E8183",
"Y-.	c #7C7072",
"Z-.	c #766B6E",
"`-.	c #6D6264",
" ;.	c #635A5B",
".;.	c #5D5456",
"+;.	c #554E4F",
"@;.	c #4D4647",
"#;.	c #453F40",
"$;.	c #393435",
"%;.	c #161314",
"&;.	c #100E0E",
"*;.	c #0A0909",
"=;.	c #100D0E",
"-;.	c #151213",
";;.	c #1D1C1D",
">;.	c #272829",
",;.	c #323234",
"';.	c #423D40",
");.	c #4E474B",
"!;.	c #5D5B5E",
"~;.	c #6C696C",
"{;.	c #796F74",
"];.	c #7E7378",
"^;.	c #887E82",
"/;.	c #918589",
"(;.	c #9A8B8F",
"_;.	c #9A8B90",
":;.	c #A6999D",
"<;.	c #A79DA0",
"[;.	c #9F9296",
"};.	c #968386",
"|;.	c #988587",
"1;.	c #9A8689",
"2;.	c #AD999B",
"3;.	c #A19092",
"4;.	c #8F7F81",
"5;.	c #8E7F80",
"6;.	c #9A8686",
"7;.	c #9C8886",
"8;.	c #998786",
"9;.	c #91807F",
"0;.	c #877676",
"a;.	c #887477",
"b;.	c #8A7378",
"c;.	c #866D73",
"d;.	c #81686E",
"e;.	c #80676E",
"f;.	c #7A6166",
"g;.	c #796065",
"h;.	c #796268",
"i;.	c #BFAFB9",
"j;.	c #CABAC2",
"k;.	c #E4D4DE",
"l;.	c #DCCCD5",
"m;.	c #DECED6",
"n;.	c #E1D1DA",
"o;.	c #E6D9DF",
"p;.	c #DBD1D5",
"q;.	c #CCC5C7",
"r;.	c #C6C2C4",
"s;.	c #C8C2C7",
"t;.	c #C7C3C8",
"u;.	c #CCC9CF",
"v;.	c #C8C4CB",
"w;.	c #B0A6AB",
"x;.	c #ADA9AF",
"y;.	c #94949C",
"z;.	c #7F7F86",
"A;.	c #979396",
"B;.	c #929192",
"C;.	c #848386",
"D;.	c #7C7A7D",
"E;.	c #727072",
"F;.	c #626062",
"G;.	c #4E4C4E",
"H;.	c #474446",
"I;.	c #383637",
"J;.	c #2F2D2E",
"K;.	c #262425",
"L;.	c #1A1919",
"M;.	c #131313",
"N;.	c #101010",
"O;.	c #040405",
"P;.	c #080909",
"Q;.	c #0E0E0F",
"R;.	c #171718",
"S;.	c #1D1D1E",
"T;.	c #252526",
"U;.	c #2E2E2F",
"V;.	c #383A3B",
"W;.	c #464648",
"X;.	c #5B5A5C",
"Y;.	c #666367",
"Z;.	c #716C6F",
"`;.	c #6F6A6D",
" >.	c #817B7F",
".>.	c #908589",
"+>.	c #A49CA1",
"@>.	c #AAA1A8",
"#>.	c #B7ACB4",
"$>.	c #B0A5AE",
"%>.	c #AEA4AD",
"&>.	c #C3BAC3",
"*>.	c #C9C1CB",
"=>.	c #C2BCC5",
"->.	c #BCB6BC",
";>.	c #B8B0B5",
">>.	c #C0B0B6",
",>.	c #D0C0C7",
"'>.	c #CCBFC5",
")>.	c #BABAC0",
"!>.	c #A7AEB3",
"~>.	c #ADBBC2",
"{>.	c #B8BEC4",
"]>.	c #C1B7BB",
"^>.	c #C0B3B5",
"/>.	c #BDB9B7",
"(>.	c #B9B8B8",
"_>.	c #B5B5BA",
":>.	c #C0BBC3",
"<>.	c #C2B8C3",
"[>.	c #B8AAB7",
"}>.	c #B6A8B5",
"|>.	c #BEB1BD",
"1>.	c #A294A1",
"2>.	c #A699A6",
"3>.	c #C9BBC8",
"4>.	c #B09AA1",
"5>.	c #AE989F",
"6>.	c #B4A1A8",
"7>.	c #B8A3AA",
"8>.	c #C2ACB3",
"9>.	c #C9B2BA",
"0>.	c #D0BCC1",
"a>.	c #D5C4C6",
"b>.	c #D5C6C7",
"c>.	c #D0C2C3",
"d>.	c #C5B8BA",
"e>.	c #BFB4B8",
"f>.	c #BAAEB3",
"g>.	c #BAA6A7",
"h>.	c #AA999A",
"i>.	c #C2B9BE",
"j>.	c #8E8D95",
"k>.	c #8D8D93",
"l>.	c #9C979A",
"m>.	c #9F9898",
"n>.	c #999393",
"o>.	c #938B8C",
"p>.	c #898283",
"q>.	c #7A7374",
"r>.	c #5D5758",
"s>.	c #4C4648",
"t>.	c #464042",
"u>.	c #353031",
"v>.	c #2C2728",
"w>.	c #0C0B0C",
"x>.	c #0B0A0B",
"y>.	c #070808",
"z>.	c #0A0A0A",
"A>.	c #131212",
"B>.	c #151414",
"C>.	c #1D1B1C",
"D>.	c #222022",
"E>.	c #383638",
"F>.	c #474546",
"G>.	c #524F50",
"H>.	c #635D5F",
"I>.	c #70696B",
"J>.	c #7C7174",
"K>.	c #716668",
"L>.	c #827377",
"M>.	c #978588",
"N>.	c #958488",
"O>.	c #AE9CA2",
"P>.	c #C4B1B7",
"Q>.	c #B8A4AB",
"R>.	c #BBA7B0",
"S>.	c #C2B1B9",
"T>.	c #C4B5BD",
"U>.	c #C0B3BA",
"V>.	c #B2A8AC",
"W>.	c #A4969A",
"X>.	c #C6B0B5",
"Y>.	c #E1C9CE",
"Z>.	c #DECACF",
"`>.	c #C6C3C9",
" ,.	c #A8AEB2",
".,.	c #B0BEC5",
"+,.	c #B6BAC0",
"@,.	c #D2BEC2",
"#,.	c #CDB6B7",
"$,.	c #CBBFBB",
"%,.	c #CCC4C2",
"&,.	c #C9C1C4",
"*,.	c #CDC1C7",
"=,.	c #D0BFC7",
"-,.	c #C9B6BF",
";,.	c #C2AEB7",
">,.	c #C1ADB6",
",,.	c #A29099",
"',.	c #C3AFB8",
"),.	c #DBC6D0",
"!,.	c #A68A90",
"~,.	c #9C8085",
"{,.	c #9F8489",
"],.	c #AF9399",
"^,.	c #B99CA2",
"/,.	c #C1A7AB",
"(,.	c #CFB9BB",
"_,.	c #D8C3C4",
":,.	c #D3BFBF",
"<,.	c #C1B0B0",
"[,.	c #B3A2A5",
"},.	c #B8A6AA",
"|,.	c #B1A0A4",
"1,.	c #A69193",
"2,.	c #AE9A9A",
"3,.	c #CCC1C5",
"4,.	c #8B8991",
"5,.	c #97969C",
"6,.	c #A19C9D",
"7,.	c #A79C9C",
"8,.	c #A69B9B",
"9,.	c #A09595",
"0,.	c #998E8F",
"a,.	c #8B8080",
"b,.	c #776D6E",
"c,.	c #6A5F60",
"d,.	c #53494B",
"e,.	c #544B4C",
"f,.	c #4B4243",
"g,.	c #443C3D",
"h,.	c #3A3334",
"i,.	c #302B2B",
"j,.	c #272323",
"k,.	c #171516",
"l,.	c #151314",
"m,.	c #141213",
"n,.	c #131112",
"o,.	c #100C0C",
"p,.	c #0E0A0A",
"q,.	c #0F0B0B",
"r,.	c #0D0909",
"s,.	c #0C0808",
"t,.	c #0E0A0B",
"u,.	c #0C0909",
"v,.	c #130F0F",
"w,.	c #0E0F10",
"x,.	c #0F1011",
"y,.	c #0F0F10",
"z,.	c #141313",
"A,.	c #171314",
"B,.	c #1A1718",
"C,.	c #1E1A1B",
"D,.	c #201D1E",
"E,.	c #232022",
"F,.	c #292527",
"G,.	c #343032",
"H,.	c #3F3B3D",
"I,.	c #484547",
"J,.	c #504C4F",
"K,.	c #575154",
"L,.	c #60585B",
"M,.	c #6B6264",
"N,.	c #796E70",
"O,.	c #847578",
"P,.	c #736163",
"Q,.	c #826C6F",
"R,.	c #9C8386",
"S,.	c #8B7275",
"T,.	c #B1999D",
"U,.	c #C9B1B6",
"V,.	c #B9A1A7",
"W,.	c #C0A8AF",
"X,.	c #BFA8B1",
"Y,.	c #BEA9B2",
"Z,.	c #AC9EA1",
"`,.	c #C7ADB1",
" '.	c #E7CBCF",
".'.	c #E3CCCF",
"+'.	c #CAC5CA",
"@'.	c #A8ADB1",
"#'.	c #B2BFC7",
"$'.	c #B6B8BE",
"%'.	c #D7BFC3",
"&'.	c #D0B5B4",
"*'.	c #CFBFBA",
"='.	c #D3C7C3",
"-'.	c #D0C3C5",
";'.	c #D2C0C6",
">'.	c #D4BFC6",
",'.	c #D0B9C0",
"''.	c #C6AEB5",
")'.	c #C1A8AF",
"!'.	c #A28C93",
"~'.	c #CFB7BE",
"{'.	c #E0C8D0",
"]'.	c #945C56",
"^'.	c #A06964",
"/'.	c #965F5A",
"('.	c #99625D",
"_'.	c #A06863",
":'.	c #9D6765",
"<'.	c #996465",
"['.	c #9F696B",
"}'.	c #A36F71",
"|'.	c #9C696D",
"1'.	c #9F6D72",
"2'.	c #A47379",
"3'.	c #A17178",
"4'.	c #966F73",
"5'.	c #886060",
"6'.	c #9C7B7C",
"7'.	c #978185",
"8'.	c #807781",
"9'.	c #A2A1A8",
"0'.	c #A8A2A4",
"a'.	c #7E6667",
"b'.	c #6C4949",
"c'.	c #714E4E",
"d'.	c #724F51",
"e'.	c #694749",
"f'.	c #5F3F41",
"g'.	c #5B3D3F",
"h'.	c #503335",
"i'.	c #3E2223",
"j'.	c #3C2324",
"k'.	c #372020",
"l'.	c #2F1A1A",
"m'.	c #221212",
"n'.	c #1B0D0D",
"o'.	c #170A0A",
"p'.	c #180C0D",
"q'.	c #150A0B",
"r'.	c #100506",
"s'.	c #0F0405",
"t'.	c #0E0607",
"u'.	c #151416",
"v'.	c #1B171A",
"w'.	c #181315",
"x'.	c #150E10",
"y'.	c #130606",
"z'.	c #100405",
"A'.	c #110405",
"B'.	c #1A0A0B",
"C'.	c #1E0C0E",
"D'.	c #231011",
"E'.	c #2B1718",
"F'.	c #341D1F",
"G'.	c #371E20",
"H'.	c #391B1E",
"I'.	c #432225",
"J'.	c #532F32",
"K'.	c #522C2D",
"L'.	c #5A3132",
"M'.	c #663B3A",
"N'.	c #693939",
"O'.	c #774546",
"P'.	c #5F2E30",
"Q'.	c #754347",
"R'.	c #703E42",
"S'.	c #643338",
"T'.	c #67363C",
"U'.	c #7A4E52",
"V'.	c #8D6366",
"W'.	c #906367",
"X'.	c #764246",
"Y'.	c #6F3B40",
"Z'.	c #5E3035",
"`'.	c #8C7077",
" ).	c #9C8A92",
".).	c #B9AFB9",
"+).	c #BBA6B0",
"@).	c #7B4A4E",
"#).	c #854D4C",
"$).	c #804E47",
"%).	c #8C5C54",
"&).	c #8E5B57",
"*).	c #8B5652",
"=).	c #89554D",
"-).	c #8A554C",
";).	c #8F5A51",
">).	c #8B564E",
",).	c #804C44",
"').	c #9F655E",
")).	c #A36963",
"!).	c #8B514C",
"~).	c #995F59",
"{).	c #995E58",
"]).	c #9D635E",
"^).	c #9B615D",
"/).	c #9C6163",
"().	c #A06768",
"_).	c #A0686B",
":).	c #A26B6F",
"<).	c #A06A70",
"[).	c #9D686E",
"}).	c #916468",
"|).	c #865A5A",
"1).	c #9A7576",
"2).	c #90797D",
"3).	c #8C808B",
"4).	c #ABA7AF",
"5).	c #ABA6A7",
"6).	c #84696A",
"7).	c #744A4B",
"8).	c #754C4C",
"9).	c #754D4D",
"0).	c #70484A",
"a).	c #694344",
"b).	c #623E40",
"c).	c #533132",
"d).	c #472525",
"e).	c #472827",
"f).	c #432625",
"g).	c #3A201F",
"h).	c #321B1A",
"i).	c #2C1716",
"j).	c #24100F",
"k).	c #200E0D",
"l).	c #211111",
"m).	c #211212",
"n).	c #1F1010",
"o).	c #1A0C0B",
"p).	c #170909",
"q).	c #190C0C",
"r).	c #160707",
"s).	c #180909",
"t).	c #19090A",
"u).	c #170708",
"v).	c #130505",
"w).	c #110404",
"x).	c #0C0202",
"y).	c #120709",
"z).	c #1E1D1F",
"A).	c #231B1E",
"B).	c #1C1215",
"C).	c #180D0E",
"D).	c #150A0A",
"E).	c #150909",
"F).	c #1B0B0B",
"G).	c #180606",
"H).	c #190807",
"I).	c #160506",
"J).	c #180607",
"K).	c #150405",
"L).	c #170405",
"M).	c #1F090A",
"N).	c #260E10",
"O).	c #281011",
"P).	c #2B1113",
"Q).	c #311718",
"R).	c #391C1D",
"S).	c #3B1C1D",
"T).	c #3E191B",
"U).	c #492123",
"V).	c #572D2F",
"W).	c #5A2D2D",
"X).	c #5D2F2E",
"Y).	c #633432",
"Z).	c #754441",
"`).	c #723D3B",
" !.	c #723A3A",
".!.	c #753E3F",
"+!.	c #753E40",
"@!.	c #733C3E",
"#!.	c #794144",
"$!.	c #8A5D5F",
"%!.	c #8A5A5B",
"&!.	c #753C3F",
"*!.	c #723A3D",
"=!.	c #673437",
"-!.	c #82646A",
";!.	c #9C888F",
">!.	c #B7ACB5",
",!.	c #B49DA7",
"'!.	c #804B4E",
")!.	c #7C453C",
"!!.	c #844E45",
"~!.	c #91574D",
"{!.	c #93584F",
"]!.	c #955A51",
"^!.	c #874E45",
"/!.	c #7D433A",
"(!.	c #A96D65",
"_!.	c #A66A62",
":!.	c #8A4E47",
"<!.	c #9C6059",
"[!.	c #995C55",
"}!.	c #9B5F58",
"|!.	c #995B56",
"1!.	c #995958",
"2!.	c #9D5F5F",
"3!.	c #A5696B",
"4!.	c #A66A6C",
"5!.	c #9D6266",
"6!.	c #985E63",
"7!.	c #8C585D",
"8!.	c #845252",
"9!.	c #988A95",
"0!.	c #B3AFB6",
"a!.	c #AFA9AA",
"b!.	c #7C4D4D",
"c!.	c #7A4A4A",
"d!.	c #774949",
"e!.	c #76494A",
"f!.	c #734748",
"g!.	c #673D3E",
"h!.	c #542A2B",
"i!.	c #512828",
"j!.	c #502C29",
"k!.	c #472624",
"l!.	c #371B19",
"m!.	c #2D1615",
"n!.	c #2B1614",
"o!.	c #251210",
"p!.	c #241110",
"q!.	c #210D0C",
"r!.	c #1F0A09",
"s!.	c #220D0D",
"t!.	c #210B0B",
"u!.	c #220C0B",
"v!.	c #220D0B",
"w!.	c #25100F",
"x!.	c #271210",
"y!.	c #210C0A",
"z!.	c #1C0706",
"A!.	c #1C0806",
"B!.	c #1F0A08",
"C!.	c #25100E",
"D!.	c #200A09",
"E!.	c #1A0706",
"F!.	c #130302",
"G!.	c #170507",
"H!.	c #150508",
"I!.	c #292427",
"J!.	c #2A272A",
"K!.	c #332B2F",
"L!.	c #2F2428",
"M!.	c #231518",
"N!.	c #1E0D0E",
"O!.	c #1C0B0B",
"P!.	c #1F0D0C",
"Q!.	c #250F0E",
"R!.	c #210A07",
"S!.	c #210A08",
"T!.	c #210909",
"U!.	c #190304",
"V!.	c #1C0506",
"W!.	c #1A0304",
"X!.	c #200505",
"Y!.	c #2B0E0E",
"Z!.	c #341616",
"`!.	c #351616",
" ~.	c #351515",
".~.	c #381817",
"+~.	c #3D1A1A",
"@~.	c #3F1717",
"#~.	c #401415",
"$~.	c #4E1F20",
"%~.	c #5C2B2A",
"&~.	c #63302E",
"*~.	c #5F2D29",
"=~.	c #5D2924",
"-~.	c #7B433F",
";~.	c #844745",
">~.	c #844846",
",~.	c #773B39",
"'~.	c #7D4040",
")~.	c #844747",
"!~.	c #8A4E4E",
"~~.	c #8B5555",
"{~.	c #885756",
"]~.	c #74383A",
"^~.	c #773C3E",
"/~.	c #713C3F",
"(~.	c #76565B",
"_~.	c #9C868C",
":~.	c #B5A8B0",
"<~.	c #AC939C",
"[~.	c #874E50",
"}~.	c #793B2F",
"|~.	c #995A50",
"1~.	c #9A5C52",
"2~.	c #9B5C53",
"3~.	c #7E4037",
"4~.	c #925856",
"5~.	c #864D4B",
"6~.	c #793F3E",
"7~.	c #804644",
"8~.	c #844948",
"9~.	c #8F554E",
"0~.	c #945A54",
"a~.	c #99615D",
"b~.	c #96605B",
"c~.	c #96605D",
"d~.	c #9E6866",
"e~.	c #9C6262",
"f~.	c #9C625F",
"g~.	c #9C6E6B",
"h~.	c #8C6E71",
"i~.	c #A39199",
"j~.	c #B2ACB1",
"k~.	c #BBB1B2",
"l~.	c #90726F",
"m~.	c #825650",
"n~.	c #7F524C",
"o~.	c #7B4F49",
"p~.	c #734843",
"q~.	c #663B37",
"r~.	c #4C231F",
"s~.	c #4D231D",
"t~.	c #562E28",
"u~.	c #57312B",
"v~.	c #4E2B25",
"w~.	c #43251E",
"x~.	c #3E231D",
"y~.	c #3B211B",
"z~.	c #391F19",
"A~.	c #361C17",
"B~.	c #331A15",
"C~.	c #2C1510",
"D~.	c #2D1612",
"E~.	c #2B1410",
"F~.	c #2B1310",
"G~.	c #29110E",
"H~.	c #280F0C",
"I~.	c #29100D",
"J~.	c #2A120F",
"K~.	c #29120D",
"L~.	c #28110C",
"M~.	c #28110D",
"N~.	c #1C090C",
"O~.	c #353334",
"P~.	c #383A3C",
"Q~.	c #413A3C",
"R~.	c #342729",
"S~.	c #291819",
"T~.	c #2A1413",
"U~.	c #2C1613",
"V~.	c #2E1713",
"W~.	c #2B1513",
"X~.	c #2A1313",
"Y~.	c #220B0C",
"Z~.	c #260F12",
"`~.	c #281114",
" {.	c #260C0D",
".{.	c #331411",
"+{.	c #33120F",
"@{.	c #33100D",
"#{.	c #391612",
"${.	c #411B17",
"%{.	c #421C16",
"&{.	c #451C17",
"*{.	c #481A16",
"={.	c #50211C",
"-{.	c #58261F",
";{.	c #5B261E",
">{.	c #5D271D",
",{.	c #683227",
"'{.	c #6F392F",
"){.	c #773F36",
"!{.	c #79413A",
"~{.	c #804A41",
"{{.	c #834D46",
"]{.	c #834E47",
"^{.	c #825149",
"/{.	c #7E544B",
"({.	c #7E4A45",
"_{.	c #774542",
":{.	c #7F5350",
"<{.	c #5F4A4A",
"[{.	c #A19799",
"}{.	c #B3ADB0",
"|{.	c #884D3C",
"1{.	c #854B3A",
"2{.	c #935349",
"3{.	c #93534C",
"4{.	c #864B47",
"5{.	c #854A46",
"6{.	c #945954",
"7{.	c #874F4E",
"8{.	c #7D4544",
"9{.	c #7B4241",
"0{.	c #7F4645",
"a{.	c #824A49",
"b{.	c #8F564E",
"c{.	c #925A52",
"d{.	c #96605A",
"e{.	c #935F59",
"f{.	c #925E5A",
"g{.	c #9A6663",
"h{.	c #9A605E",
"i{.	c #986A66",
"j{.	c #907073",
"k{.	c #A6929B",
"l{.	c #B7AFB5",
"m{.	c #BFB4B5",
"n{.	c #947672",
"o{.	c #875B53",
"p{.	c #84554E",
"q{.	c #7E514A",
"r{.	c #784B45",
"s{.	c #6C403A",
"t{.	c #623530",
"u{.	c #512521",
"v{.	c #52261F",
"w{.	c #5E332B",
"x{.	c #5F3730",
"y{.	c #563029",
"z{.	c #522F27",
"A{.	c #4E2D25",
"B{.	c #482A22",
"C{.	c #452720",
"D{.	c #44251E",
"E{.	c #41231C",
"F{.	c #3E211A",
"G{.	c #3A1E17",
"H{.	c #361B14",
"I{.	c #351913",
"J{.	c #371C16",
"K{.	c #351B15",
"L{.	c #351915",
"M{.	c #331713",
"N{.	c #351814",
"O{.	c #331712",
"P{.	c #341914",
"Q{.	c #361A15",
"R{.	c #361914",
"S{.	c #331913",
"T{.	c #2D120E",
"U{.	c #280E0E",
"V{.	c #250F12",
"W{.	c #454345",
"X{.	c #484B4C",
"Y{.	c #4F4848",
"Z{.	c #3E2F30",
"`{.	c #351B1A",
" ].	c #391E19",
".].	c #381F1C",
"+].	c #331918",
"@].	c #291010",
"#].	c #2C1315",
"$].	c #2E1418",
"%].	c #301213",
"&].	c #3A1511",
"*].	c #3A140F",
"=].	c #421B15",
"-].	c #4A221C",
";].	c #4B231D",
">].	c #4B211B",
",].	c #4A1F19",
"'].	c #4D1D19",
")].	c #592723",
"!].	c #612D28",
"~].	c #5B261F",
"{].	c #5E271F",
"]].	c #5E271D",
"^].	c #693125",
"/].	c #6F382D",
"(].	c #794239",
"_].	c #814C43",
":].	c #834F48",
"<].	c #84504A",
"[].	c #82524A",
"}].	c #7E544A",
"|].	c #7D5047",
"1].	c #804D47",
"2].	c #7C4C47",
"3].	c #805552",
"4].	c #604D4E",
"5].	c #A79EA0",
"6].	c #B6B2B3",
"7].	c #A89899",
"8].	c #84524F",
"9].	c #864C3D",
"0].	c #93554C",
"a].	c #8B4F4B",
"b].	c #884F4B",
"c].	c #89504C",
"d].	c #884E4B",
"e].	c #834946",
"f].	c #905652",
"g].	c #723C3B",
"h].	c #6E3736",
"i].	c #814949",
"j].	c #814A49",
"k].	c #915958",
"l].	c #905951",
"m].	c #915B51",
"n].	c #8F5950",
"o].	c #935E57",
"p].	c #905E57",
"q].	c #8B5A55",
"r].	c #915F5B",
"s].	c #9B625B",
"t].	c #8E615C",
"u].	c #957576",
"v].	c #A8929A",
"w].	c #C2B6B8",
"x].	c #987A75",
"y].	c #8B6057",
"z].	c #865A51",
"A].	c #80534A",
"B].	c #7A4E45",
"C].	c #73463E",
"D].	c #6B3E38",
"E].	c #562922",
"F].	c #63372E",
"G].	c #5C332D",
"H].	c #59342C",
"I].	c #58342C",
"J].	c #4C2B22",
"K].	c #4B2A21",
"L].	c #48281F",
"M].	c #44241C",
"N].	c #402119",
"O].	c #3C1E16",
"P].	c #3D1F17",
"Q].	c #3E2019",
"R].	c #40221C",
"S].	c #44231E",
"T].	c #3C1B16",
"U].	c #3D1E19",
"V].	c #3E1F1A",
"W].	c #3B1D17",
"X].	c #41221C",
"Y].	c #3F211B",
"Z].	c #3E201A",
"`].	c #40211A",
" ^.	c #3B1C15",
".^.	c #3D1F19",
"+^.	c #3C1D18",
"@^.	c #301112",
"#^.	c #31161A",
"$^.	c #575657",
"%^.	c #575C5C",
"&^.	c #595150",
"*^.	c #433332",
"=^.	c #3C2423",
"-^.	c #40221F",
";^.	c #42241E",
">^.	c #42231D",
",^.	c #44241E",
"'^.	c #462621",
")^.	c #402522",
"!^.	c #3E2220",
"~^.	c #391F1D",
"{^.	c #301415",
"]^.	c #2D1215",
"^^.	c #2F1416",
"/^.	c #3A1A1A",
"(^.	c #3D1510",
"_^.	c #431A15",
":^.	c #492019",
"<^.	c #572D26",
"[^.	c #532822",
"}^.	c #4B1E17",
"|^.	c #66332F",
"1^.	c #65322C",
"2^.	c #5D2720",
"3^.	c #612A21",
"4^.	c #5F261E",
"5^.	c #682E24",
"6^.	c #6C362A",
"7^.	c #784238",
"8^.	c #7F4A40",
"9^.	c #845048",
"0^.	c #804C45",
"a^.	c #85534C",
"b^.	c #82554C",
"c^.	c #7D5448",
"d^.	c #81564B",
"e^.	c #83524A",
"f^.	c #865751",
"g^.	c #805753",
"h^.	c #655557",
"i^.	c #B1A9AC",
"j^.	c #BCBABA",
"k^.	c #A79898",
"l^.	c #864E41",
"m^.	c #925651",
"n^.	c #915553",
"o^.	c #8B5250",
"p^.	c #925958",
"q^.	c #8D5453",
"r^.	c #7D4543",
"s^.	c #844C4A",
"t^.	c #804846",
"u^.	c #824945",
"v^.	c #925853",
"w^.	c #905752",
"x^.	c #915752",
"y^.	c #864E45",
"z^.	c #854D45",
"A^.	c #8A534C",
"B^.	c #8D5751",
"C^.	c #8E5B55",
"D^.	c #8D5A56",
"E^.	c #98645B",
"F^.	c #9D665C",
"G^.	c #8F6259",
"H^.	c #8B6A6A",
"I^.	c #C3B9BF",
"J^.	c #C8BABC",
"K^.	c #9D7D79",
"L^.	c #8E615B",
"M^.	c #8A5C54",
"N^.	c #845750",
"O^.	c #80514C",
"P^.	c #7B4C46",
"Q^.	c #784A44",
"R^.	c #663632",
"S^.	c #5E2E28",
"T^.	c #683831",
"U^.	c #6D3F3A",
"V^.	c #673B36",
"W^.	c #613832",
"X^.	c #5C3630",
"Y^.	c #59342D",
"Z^.	c #5B332C",
"`^.	c #59322A",
" /.	c #563028",
"./.	c #502B23",
"+/.	c #4B261E",
"@/.	c #48241C",
"#/.	c #49261F",
"$/.	c #4B2922",
"%/.	c #502F27",
"&/.	c #47251E",
"*/.	c #4A2720",
"=/.	c #4A2620",
"-/.	c #4A2721",
";/.	c #4D2924",
">/.	c #4B2722",
",/.	c #4C2824",
"'/.	c #4B2723",
")/.	c #411E18",
"!/.	c #3F1C16",
"~/.	c #411F19",
"{/.	c #4B2622",
"]/.	c #391315",
"^/.	c #39191C",
"//.	c #6A6567",
"(/.	c #636666",
"_/.	c #665A57",
":/.	c #503B3A",
"</.	c #4D2E2E",
"[/.	c #512C2A",
"}/.	c #502C28",
"|/.	c #4F2B27",
"1/.	c #512D29",
"2/.	c #522E2A",
"3/.	c #4C2A27",
"4/.	c #482724",
"5/.	c #43211F",
"6/.	c #3C1A18",
"7/.	c #3B1918",
"8/.	c #441F1D",
"9/.	c #4B211D",
"0/.	c #4F2420",
"a/.	c #532723",
"b/.	c #552924",
"c/.	c #5B2F2A",
"d/.	c #633630",
"e/.	c #643731",
"f/.	c #623631",
"g/.	c #6B3937",
"h/.	c #6D3937",
"i/.	c #5B211E",
"j/.	c #622721",
"k/.	c #682A25",
"l/.	c #6D2D28",
"m/.	c #7B413A",
"n/.	c #7C453E",
"o/.	c #7A443E",
"p/.	c #7F4A45",
"q/.	c #86524E",
"r/.	c #834F4B",
"s/.	c #804E4B",
"t/.	c #82534C",
"u/.	c #85584D",
"v/.	c #86564C",
"w/.	c #814D48",
"x/.	c #875652",
"y/.	c #89767B",
"z/.	c #BCB4B9",
"A/.	c #B6B0B3",
"B/.	c #AD9B9C",
"C/.	c #845251",
"D/.	c #8B504C",
"E/.	c #875047",
"F/.	c #875049",
"G/.	c #905554",
"H/.	c #8F5353",
"I/.	c #8B514E",
"J/.	c #925955",
"K/.	c #905653",
"L/.	c #7E4541",
"M/.	c #955A53",
"N/.	c #925851",
"O/.	c #8E544C",
"P/.	c #89514B",
"Q/.	c #8D5853",
"R/.	c #8E5A58",
"S/.	c #97635A",
"T/.	c #9C665A",
"U/.	c #91645B",
"V/.	c #8A6968",
"W/.	c #A48F95",
"X/.	c #C3B8BF",
"Y/.	c #CBBCBF",
"Z/.	c #9F7D7B",
"`/.	c #91625B",
" (.	c #8E5E57",
".(.	c #8A5A54",
"+(.	c #86544F",
"@(.	c #804E49",
"#(.	c #7F4C47",
"$(.	c #6D3B37",
"%(.	c #64312D",
"&(.	c #6C3A35",
"*(.	c #74433E",
"=(.	c #70413C",
"-(.	c #6B3E39",
";(.	c #693E39",
">(.	c #643A34",
",(.	c #60352E",
"'(.	c #5B3129",
")(.	c #562B24",
"!(.	c #532A22",
"~(.	c #542B23",
"{(.	c #5B352E",
"](.	c #502922",
"^(.	c #522923",
"/(.	c #4B221C",
"((.	c #59312C",
"_(.	c #59322C",
":(.	c #572F2A",
"<(.	c #4B241E",
"[(.	c #4A241E",
"}(.	c #572D29",
"|(.	c #44181B",
"1(.	c #452024",
"2(.	c #797275",
"3(.	c #707273",
"4(.	c #70615E",
"5(.	c #5B4240",
"6(.	c #5C312E",
"7(.	c #5A312D",
"8(.	c #5C332F",
"9(.	c #58302D",
"0(.	c #502725",
"a(.	c #552E2A",
"b(.	c #4B241F",
"c(.	c #49231F",
"d(.	c #4F2622",
"e(.	c #562824",
"f(.	c #5B2C29",
"g(.	c #5B2C28",
"h(.	c #5D2D29",
"i(.	c #63332F",
"j(.	c #6C3D38",
"k(.	c #723F3D",
"l(.	c #713B39",
"m(.	c #723B37",
"n(.	c #602423",
"o(.	c #672A26",
"p(.	c #6D2C2A",
"q(.	c #702E2A",
"r(.	c #7E423C",
"s(.	c #7D4540",
"t(.	c #7B4440",
"u(.	c #7F4B48",
"v(.	c #81504B",
"w(.	c #85564D",
"x(.	c #87554D",
"y(.	c #865450",
"z(.	c #815756",
"A(.	c #BBB3B8",
"B(.	c #B8B0B4",
"C(.	c #865352",
"D(.	c #89504A",
"E(.	c #88514C",
"F(.	c #8E5253",
"G(.	c #8D5151",
"H(.	c #8A4F4C",
"I(.	c #8C514C",
"J(.	c #8F5550",
"K(.	c #7E443F",
"L(.	c #95584D",
"M(.	c #915447",
"N(.	c #915548",
"O(.	c #8E5345",
"P(.	c #844944",
"Q(.	c #884D49",
"R(.	c #8D524F",
"S(.	c #8C514F",
"T(.	c #8B5351",
"U(.	c #8E5C53",
"V(.	c #956054",
"W(.	c #9C6D64",
"X(.	c #926D6B",
"Y(.	c #A58C92",
"Z(.	c #BAAEB6",
"`(.	c #CDC0C4",
" _.	c #9F7D7C",
"._.	c #8F5C57",
"+_.	c #965F5B",
"@_.	c #98625D",
"#_.	c #915A57",
"$_.	c #814945",
"%_.	c #713A37",
"&_.	c #6D3432",
"*_.	c #6F3937",
"=_.	c #794443",
"-_.	c #7A4645",
";_.	c #774744",
">_.	c #6D3E3B",
",_.	c #693C39",
"'_.	c #6F403C",
")_.	c #6C3B36",
"!_.	c #693933",
"~_.	c #683730",
"{_.	c #65332D",
"]_.	c #62312B",
"^_.	c #64332C",
"/_.	c #653731",
"(_.	c #62352D",
"__.	c #572A24",
":_.	c #63362F",
"<_.	c #52251E",
"[_.	c #582B23",
"}_.	c #61332E",
"|_.	c #673834",
"1_.	c #693A36",
"2_.	c #683A37",
"3_.	c #673936",
"4_.	c #633633",
"5_.	c #603330",
"6_.	c #5E322F",
"7_.	c #61332F",
"8_.	c #522224",
"9_.	c #592F34",
"0_.	c #857B81",
"a_.	c #7D7C7E",
"b_.	c #6D5855",
"c_.	c #603F3C",
"d_.	c #603631",
"e_.	c #633331",
"f_.	c #623131",
"g_.	c #623232",
"h_.	c #643433",
"i_.	c #643131",
"j_.	c #653330",
"k_.	c #65312E",
"l_.	c #663431",
"m_.	c #612F2A",
"n_.	c #67362F",
"o_.	c #63312D",
"p_.	c #673635",
"q_.	c #6D3B39",
"r_.	c #5F2B2A",
"s_.	c #632E2D",
"t_.	c #6D3938",
"u_.	c #713E3C",
"v_.	c #764240",
"w_.	c #794442",
"x_.	c #743E3E",
"y_.	c #703636",
"z_.	c #763D3C",
"A_.	c #6F3030",
"B_.	c #743333",
"C_.	c #763333",
"D_.	c #753131",
"E_.	c #793B3A",
"F_.	c #7E4443",
"G_.	c #814746",
"H_.	c #83494A",
"I_.	c #7D4444",
"J_.	c #7C4343",
"K_.	c #7E4645",
"L_.	c #814C48",
"M_.	c #88534F",
"N_.	c #834D49",
"O_.	c #804A48",
"P_.	c #825254",
"Q_.	c #A48D95",
"R_.	c #ACA2AD",
"S_.	c #C3B9C0",
"T_.	c #A99095",
"U_.	c #955D5C",
"V_.	c #8E4F4C",
"W_.	c #8B5152",
"X_.	c #86494D",
"Y_.	c #834743",
"Z_.	c #80443D",
"`_.	c #7F423A",
" :.	c #844841",
".:.	c #8F534C",
"+:.	c #8E5249",
"@:.	c #905449",
"#:.	c #8D5447",
"$:.	c #8B5346",
"%:.	c #885046",
"&:.	c #874E47",
"*:.	c #874D49",
"=:.	c #864C49",
"-:.	c #8D5350",
";:.	c #89504D",
">:.	c #824D47",
",:.	c #915C54",
"':.	c #8E6563",
"):.	c #A2868D",
"!:.	c #BDB3BB",
"~:.	c #C7BFC3",
"{:.	c #9B7A7A",
"]:.	c #955D59",
"^:.	c #965D59",
"/:.	c #733937",
"(:.	c #6E3533",
"_:.	c #69332F",
"::.	c #743F3C",
"<:.	c #7B4A46",
"[:.	c #754742",
"}:.	c #7A4A45",
"|:.	c #703E38",
"1:.	c #6D3B34",
"2:.	c #703D36",
"3:.	c #6E3B33",
"4:.	c #68352D",
"5:.	c #67342C",
"6:.	c #6A362E",
"7:.	c #6D3930",
"8:.	c #6D3A32",
"9:.	c #6B3830",
"0:.	c #66352C",
"a:.	c #5E2F26",
"b:.	c #572920",
"c:.	c #6D3A35",
"d:.	c #6C3A36",
"e:.	c #6A3935",
"f:.	c #683834",
"g:.	c #61322E",
"h:.	c #5F322C",
"i:.	c #683C33",
"j:.	c #71423A",
"k:.	c #61322F",
"l:.	c #5E3639",
"m:.	c #918B8F",
"n:.	c #898A8D",
"o:.	c #745B5A",
"p:.	c #67433E",
"q:.	c #663932",
"r:.	c #6A3733",
"s:.	c #693635",
"t:.	c #673434",
"u:.	c #673130",
"v:.	c #67312E",
"w:.	c #6A3633",
"x:.	c #6A3634",
"y:.	c #6E3A38",
"z:.	c #6C3836",
"A:.	c #6E3937",
"B:.	c #703B38",
"C:.	c #703E3A",
"D:.	c #754541",
"E:.	c #774543",
"F:.	c #693331",
"G:.	c #693231",
"H:.	c #723C39",
"I:.	c #784240",
"J:.	c #7A4542",
"K:.	c #79423F",
"L:.	c #7A403E",
"M:.	c #7C4240",
"N:.	c #7A3E3D",
"O:.	c #733735",
"P:.	c #773A38",
"Q:.	c #773936",
"R:.	c #7F4342",
"S:.	c #844B49",
"T:.	c #824847",
"U:.	c #834948",
"V:.	c #8A5853",
"W:.	c #8C5A56",
"X:.	c #8A5959",
"Y:.	c #A28A92",
"Z:.	c #B2AAB3",
"`:.	c #C3BCC5",
" <.	c #A28D91",
".<.	c #96635C",
"+<.	c #9A5F56",
"@<.	c #915653",
"#<.	c #7F4340",
"$<.	c #834642",
"%<.	c #874B47",
"&<.	c #884B46",
"*<.	c #8E5348",
"=<.	c #8D5448",
"-<.	c #895446",
";<.	c #864F45",
"><.	c #884F4A",
",<.	c #8E5550",
"'<.	c #7C4541",
")<.	c #8A5049",
"!<.	c #8C544D",
"~<.	c #8B605F",
"{<.	c #9F8189",
"]<.	c #BCB3BB",
"^<.	c #C5C0C3",
"/<.	c #8D5753",
"(<.	c #945A56",
"_<.	c #8E524F",
":<.	c #804542",
"<<.	c #713734",
"[<.	c #6B3330",
"}<.	c #753F3B",
"|<.	c #7A4440",
"1<.	c #7F4D49",
"2<.	c #75453F",
"3<.	c #7C4C46",
"4<.	c #814F4A",
"5<.	c #75423B",
"6<.	c #713D36",
"7<.	c #754038",
"8<.	c #6F3831",
"9<.	c #6E382F",
"0<.	c #713A32",
"a<.	c #743D33",
"b<.	c #753E36",
"c<.	c #703B32",
"d<.	c #6A372E",
"e<.	c #68372D",
"f<.	c #5C2B22",
"g<.	c #733D36",
"h<.	c #6F3B37",
"i<.	c #6E3B38",
"j<.	c #6E3C38",
"k<.	c #63332D",
"l<.	c #6B3A37",
"m<.	c #673E40",
"n<.	c #9D979B",
"o<.	c #939499",
"p<.	c #795F5D",
"q<.	c #6C463F",
"r<.	c #6C3C33",
"s<.	c #713B37",
"t<.	c #703A3A",
"u<.	c #6D3738",
"v<.	c #6D3332",
"w<.	c #6D342F",
"x<.	c #703A37",
"y<.	c #723B39",
"z<.	c #763F3D",
"A<.	c #753E3C",
"B<.	c #753D3C",
"C<.	c #773F3D",
"D<.	c #703936",
"E<.	c #6F3633",
"F<.	c #763E3B",
"G<.	c #7F4844",
"H<.	c #7D4844",
"I<.	c #7D4441",
"J<.	c #814644",
"K<.	c #773B38",
"L<.	c #7B3F3C",
"M<.	c #7A3F3B",
"N<.	c #834847",
"O<.	c #8B514F",
"P<.	c #854B49",
"Q<.	c #824846",
"R<.	c #89504F",
"S<.	c #8A5554",
"T<.	c #8B5B53",
"U<.	c #8E5D58",
"V<.	c #8C5B5B",
"W<.	c #A0878F",
"X<.	c #B4ACB5",
"Y<.	c #9F8C8F",
"Z<.	c #96655B",
"`<.	c #9E6359",
" [.	c #915753",
".[.	c #8D5452",
"+[.	c #7D403B",
"@[.	c #894C49",
"#[.	c #844744",
"$[.	c #814541",
"%[.	c #834643",
"&[.	c #8B4F45",
"*[.	c #8E5449",
"=[.	c #8D5348",
"-[.	c #8B5247",
";[.	c #895347",
">[.	c #8A534A",
",[.	c #895049",
"'[.	c #8C534C",
")[.	c #925952",
"![.	c #955C55",
"~[.	c #8E554E",
"{[.	c #733C38",
"][.	c #753931",
"^[.	c #844C44",
"/[.	c #7D4F4C",
"([.	c #876B70",
"_[.	c #ACA2AA",
":[.	c #C3BDC1",
"<[.	c #7E4842",
"[[.	c #814841",
"}[.	c #864D46",
"|[.	c #864944",
"1[.	c #834540",
"2[.	c #8F5852",
"3[.	c #844E47",
"4[.	c #7F4B45",
"5[.	c #7A443D",
"6[.	c #7A423A",
"7[.	c #7C4237",
"8[.	c #773E35",
"9[.	c #7A4138",
"0[.	c #754036",
"a[.	c #79453A",
"b[.	c #713D33",
"c[.	c #6F372E",
"d[.	c #713930",
"e[.	c #773E36",
"f[.	c #77413B",
"g[.	c #76403C",
"h[.	c #77423D",
"i[.	c #78443E",
"j[.	c #815045",
"k[.	c #875449",
"l[.	c #74413D",
"m[.	c #7F5457",
"n[.	c #ABA4A9",
"o[.	c #9D9EA3",
"p[.	c #725555",
"q[.	c #703A31",
"r[.	c #7A423C",
"s[.	c #7B4443",
"t[.	c #7B4243",
"u[.	c #7C413F",
"v[.	c #7E423D",
"w[.	c #7E4744",
"x[.	c #7D4643",
"y[.	c #7A4240",
"z[.	c #7C4542",
"A[.	c #7A403C",
"B[.	c #7D4541",
"C[.	c #814A46",
"D[.	c #854D49",
"E[.	c #7A3F3C",
"F[.	c #915552",
"G[.	c #8F5350",
"H[.	c #915855",
"I[.	c #864F4C",
"J[.	c #7F4845",
"K[.	c #814A47",
"L[.	c #804946",
"M[.	c #7E4846",
"N[.	c #7C4945",
"O[.	c #7C4B47",
"P[.	c #895857",
"Q[.	c #8C747B",
"R[.	c #AFA8B1",
"S[.	c #B9B4BC",
"T[.	c #9C888D",
"U[.	c #8F5F54",
"V[.	c #975B51",
"W[.	c #8C514E",
"X[.	c #7A3F3A",
"Y[.	c #733631",
"Z[.	c #7A3D3A",
"`[.	c #804340",
" }.	c #783B38",
".}.	c #7B3E3B",
"+}.	c #864A3F",
"@}.	c #6F3732",
"#}.	c #73372F",
"$}.	c #7E453D",
"%}.	c #7D504C",
"&}.	c #8C6F73",
"*}.	c #B5ABB2",
"=}.	c #C3BCC0",
"-}.	c #917371",
";}.	c #834D47",
">}.	c #8E544D",
",}.	c #8A504A",
"'}.	c #854A44",
")}.	c #8C554E",
"!}.	c #844F48",
"~}.	c #7E4A43",
"{}.	c #814941",
"]}.	c #864A42",
"^}.	c #83473D",
"/}.	c #81453A",
"(}.	c #82463D",
"_}.	c #7F453B",
":}.	c #844E43",
"<}.	c #7F4A3E",
"[}.	c #7B4138",
"}}.	c #7C4239",
"|}.	c #79433E",
"1}.	c #875247",
"2}.	c #703B37",
"3}.	c #7D5053",
"4}.	c #ABA5A9",
"5}.	c #A5A6AA",
"6}.	c #785A59",
"7}.	c #784137",
"8}.	c #7E4444",
"9}.	c #804341",
"0}.	c #814845",
"a}.	c #824A47",
"b}.	c #844B48",
"c}.	c #824B47",
"d}.	c #86504C",
"e}.	c #834645",
"f}.	c #7E4441",
"g}.	c #804743",
"h}.	c #874F4B",
"i}.	c #874C49",
"j}.	c #7C403D",
"k}.	c #7E423F",
"l}.	c #854946",
"m}.	c #925653",
"n}.	c #8F5552",
"o}.	c #844D4A",
"p}.	c #854E4B",
"q}.	c #834C4B",
"r}.	c #7E4C48",
"s}.	c #84544D",
"t}.	c #7C636A",
"u}.	c #ACA4AD",
"v}.	c #B19EA1",
"w}.	c #86564B",
"x}.	c #7D423E",
"y}.	c #7C403C",
"z}.	c #7D413E",
"A}.	c #8A5249",
"B}.	c #965D56",
"C}.	c #905750",
"D}.	c #854C45",
"E}.	c #844B44",
"F}.	c #6C342E",
"G}.	c #71352D",
"H}.	c #793F38",
"I}.	c #8F7276",
"J}.	c #BBB0B8",
"K}.	c #C3BCBF",
"L}.	c #927372",
"M}.	c #87514A",
"N}.	c #8C514B",
"O}.	c #8D504B",
"P}.	c #925550",
"Q}.	c #915952",
"R}.	c #81443A",
"S}.	c #85483C",
"T}.	c #83483D",
"U}.	c #7A4136",
"V}.	c #8D5549",
"W}.	c #7C433A",
"X}.	c #7C433C",
"Y}.	c #804843",
"Z}.	c #864F48",
"`}.	c #7E4A3F",
" |.	c #865045",
".|.	c #7A4C4E",
"+|.	c #AAA5A8",
"@|.	c #AAACB0",
"#|.	c #7C5C5C",
"$|.	c #71413A",
"%|.	c #7F463C",
"&|.	c #804444",
"*|.	c #804646",
"=|.	c #834947",
"-|.	c #8B524E",
";|.	c #814844",
">|.	c #7E4843",
",|.	c #854D4A",
"'|.	c #915452",
")|.	c #8A4D4B",
"!|.	c #884D4A",
"~|.	c #7D403D",
"{|.	c #7A3E3B",
"]|.	c #955956",
"^|.	c #824B48",
"/|.	c #85504F",
"(|.	c #7F4E49",
"_|.	c #85554F",
":|.	c #8F5E59",
"<|.	c #6E555C",
"[|.	c #AAA2AB",
"}|.	c #B9B4BD",
"||.	c #BFABAE",
"1|.	c #7E4E44",
"2|.	c #8B514D",
"3|.	c #834B49",
"4|.	c #804540",
"5|.	c #7F423F",
"                                                                                                                                                                                                                                                                                                                                                                                                ",
"                                                                                                                                                                                                                                                                                                                                                                                                ",
".  +  @  #  $  %  &  *  =  -  ;  >  ,  '  )  !  ~  {  ]  ^  /  (  _  :  <  [  }  |  1  2  3  4  5  6  7  8  9  0  a  b  c  d  e  f  g  h  i  j  k  l  m  n  o  p  q  r  s  t  u  v  w  x  y  z  A  B  C  D  E  F  G  H  I  J  K  L  M  N  O  N  P  Q  R  S  T  U  V  W  X  Y  Z  `   . .. +. @. #. $. %. &. *. =. -. ;. >. ,. '. ). '. !. ~. {. ]. ^. /. (. _. :. <. [. }. |. 1. 2. 3. 4. 5.    ",
"6. 7. 8. 9. 0. a. b. c. d. e. f. g. h. i. j. k. l. m. n. o. p. p. q. r. s. t. u. v. w. x. y. z. A. B. A. C. D. E. F. G. H. I. J. K. L. M. N. O. P. Q. R. S. T. U. V. W. X. Y. Z. `.  + .+ ++ @+ #+ $+ %+ &+ *+ =+ -+ ;+ >+ ,+ '+ )+ !+ ~+ {+ ]+ ^+ /+ (+ _+ :+ <+ [+ }+ |+ 1+ 2+ 3+ 4+ 5+ 6+ 7+ 8+ 9+ 0+ a+ b+ c+ d+ e+ f+ g+ h+ i+ j+ k+ l+ m+ n+ o+ p+ q+ r+ s+ t+ u+ v+ w+ x+ y+ z+ A+ B+    ",
"C+ D+ E+ F+ G+ H+ I+ J+ K+ L+ M+ N+ O+ P+ Q+ R+ S+ T+ U+ V+ W+ X+ Y+ Z+ `+  @ .@ .@ +@ @@ #@ $@ %@ &@ *@ =@ -@ ;@ >@ ,@ '@ )@ !@ ~@ {@ ]@ ^@ /@ (@ _@ :@ <@ [@ }@ |@ 1@ 2@ 3@ 4@ 5@ 6@ 7@ 8@ 9@ 0@ a@ b@ c@ d@ e@ f@ g@ h@ i@ j@ k@ l@ m@ n@ o@ p@ q@ r@ s@ t@ u@ v@ w@ x@ y@ z@ A@ B@ C@ D@ E@ F@ G@ H@ I@ J@ K@ L@ M@ N@ O@ P@ Q@ R@ S@ T@ U@ V@ W@ X@ Y@ Z@ `@  # .# .# +# @# ## $# %# &#    ",
"*# =# -# ;# ># ,# '# )# !# ~# !# {# ]# ^# /# (# _# :# <# [# }# |# |# 1# 2# 3# 4# 5# 6# 7# 8# 9# 0# a# b# c# d# e# f# g# h# i# j# k# l# m# n# o# p# q# r# s# t# u# v# w# x# y# z# A# B# C# D# E# F# G# H# I# J# K# L# M# N# O# P# Q# R# S# T# U# U# V# W# X# Y# Z# `#  $ .$ +$ @$ #$ $$ %$ &$ *$ =$ -$ ;$ >$ ,$ '$ )$ !$ ~$ {$ ]$ ^$ {$ /$ ($ _$ :$ <$ [$ }$ |$ 1$ 2$ 3$ 4$ 5$ 6$ 6$ 7$ 8$ 9$    ",
"0$ a$ b$ c$ d$ e$ f$ g$ h$ h$ i$ j$ k$ l$ m$ n$ o$ p$ q$ r$ s$ t$ u$ v$ w$ x$ y$ z$ A$ B$ C$ D$ E$ F$ G$ H$ H$ I$ J$ K$ L$ M$ N$ O$ P$ Q$ R$ S$ T$ U$ V$ W$ X$ Y$ Z$ `$  % .% +% @% #% $% %% &% *% =% -% ;% >% ,% '% H# )% !% ~% {% ]% ^% /% (% _% :% <% [% }% |% 1% 2% 3% 4% 5% 6% 7% 8% 9% 0% a% b% c% Y+ d% e% f% g% h% i% j% k% l% m% n% o% p% q% r% s% t% u% v% w% x% y% z% A% B% C% D%    ",
"E% F% G% H% I% J% K% s$ L% M% N% O% P% Q% R% S% T% U% V% W% X% Y% Z% `%  & .& +& @& #& $& %& && *& =& -& ;& >& ,& '& )& !& ~& {& ]& ^& /& (& _& :& <& [& }& |& 1& 2& 3& 4& 5& 6& 7& 8& 9& 0& a& 5& b& c& d& e& f& g& h& i& j& k& l& m& n& o& p& q& r& s& t& u& v& w& x& y& z& A& B& C& D& E& +@ F& G& H& F& I& J& K& L& M& N& O& P& Q& R& S& T& U& V& W& X& Y& Z& `&  * .* +* @* #* $* %* &*    ",
"** =* -* ;* >* ,* '* )* !* ~* {* ]* ^* /* (* _* :* <* [* }* |* 1* 2* 3* 4* 5* 6* 7* 8* 9* 0* a* b* c* d* e* f* g* 9& h* i* j* k* l* m* n* o* p* q* r* s* t* u* v* w* x* y* z* A* B* C* D* D* E* F* G* H* I* J* K* L* M* N* O* P* Q* R* S* T* U* V* W* X* Y* 7& Z* `*  = .= += @= #= $= %= &= @@ *= == -= ;= >= ,= '= )= != ~= {= ]= ^= /= (= _= := <= [= }= |= 1= 2= 3= 4= 5= 6= 7= 8= 9= 0=    ",
"a= b= c= d= e= f= g= h= i= j= k= l= m= n= o= p= q= r= s= t= u= v= w= x= y= z= A= B= C= D= E= F= G= H= I= J= K= L= M= N= O= P= Q= R= S= T= U= V= W= X= Y= Z= `=  - .- +- @- #- $- %- &- *- =- -- ;- >- ,- '- )- !- ~- {- ]- ^- /- (- _- :- <- [- }- |- 1- 2- 3- 4- 5- 6- 7- 8- 9- 0- a- b- c- d- e- f- g- h- i- j- k- l- m- n- o- p- q- r- s- t- u- := v- w- x- y- z- A- B- C- D- E- F- G- H-    ",
"I- J- K- L- M- M- N- O- P- Q- R- S- T- U- V- W- X- Y- Z- `-  ; .; +; @; #; $; %; &; *; =; -; ;; >; Q* ,; _- #- '; ); !; ~; {; ]; ^; /; (; _; :; <; [; }; !; |; 1; 2; 3; 4; 5; 6; 7; 8; 9; 0; 0; a; b; c; d; e; f; g; h; i; j; k; l; m; n; o; p; q; r; s; t; u; v; w; x; y; z; A; B; C; D; E; F; G; H; I; J; K; L; M; N; O; P; Q; R; S; T; U; V; 8# p- W; X; Y; Z; `;  > .> +> @> #> $> %> &>    ",
"*> => -> ;> >> ,> '> )> !> ~> {> ]> ^> /> (> _> (> :> <> [> }> |> 1> 2> 3> 4> 5> 6> 7> 8> 9> 0> a> b> c> l; d> e> f> g> h> i> j> k> l> m> n> o> p> q> r> s> t> u> v> w> x> y> z> A> B> C> D> E> F> D> G> H> I> J> K> L> M> N> O> P> Q> R> S> T> U> V> W> X> 6; Y> Z> `>  , ., +, @, #, $, %, &, *, =, -, ;, >, ,, ', ), !, y= ~, {, ], ^, /, v$ (, _, :, <, [, t- }, 8$ |, 1, 2, 3, 4, 5, 6,    ",
"7, 8, 9, 0, a, b, c, d, e, f, g, h, i, j, k, l, m, n, o, p, q, b$ r, s, t, u, v, w, x, y, z, A, B, i; C, O> D, E, F, G, H, I, J, K, L, M, N, O, P, Q, R, S, T, U, V, V, W, X, Y, Y, Z, `,  ' .' +' @' #' $' %' &' *' =' -' ;' >' ,' ,' '' '' )' !' ~' {' ]' ^' /' (' _' :' <' [' }' |' 1' 2' 3' 4' 5' 6' 7' 8' 9' 0' a' b' c' d' ~$ e' f' g' M- h' i' j' k' l' m' n' :$ o' p' q' r' s' t' u'    ",
"v' w' x' y' z' A' B' d, )> C' D' E' F' G' H' I' J' K' L' h, ^, M' N' O' P' Q' R' S' T' {- U' V' W' X' Y' Z' `'  ) .) +) @) #) $) %) &) *) =) -) ;) >) ,) ') )) !) ~) {) {) ]) ^) /) () _) :) <) [) }) [) |) 1) 2) 3) 4) 5) 6) 7) 8) 9) 0) a) b) c) d) e) f) g) h) i) j) k) l) m) n) o) p) q) r) s) t) u) v) w) x) y) z) A) B) C) D) V& E) F) G) H) I) J) K) L) M) N) O) o' P) Q) R) S) T) U)    ",
"V) W) X) Y) Z) `)  ! .! +! @! #! $! %! &! *! =! -! ;! >! ,! '! )! !! ~! {! ]! ^! /! (! _! :! <! [! }! |! 9) () 1! 2! 3! 4! 5! 6! 7! 8! 9! 0! a! a! b! c! d! e! f! f! g! h! i! i! j! j! k! l! 2! m! l! m! n! m! m! 2! o! p! p! q! r! r! ~) s! t! u! v! w! x! 5) y! z! A! B! C! D! E! F! G! H! I! J! $, K! L! M! N! O! P! Q! R! S! T! U! +* V! W! X! Y! Z! Z! `!  ~ .~ +~ .@ @~ #~ $~ %~ &~ *~    ",
"=~ -~ ;~ >~ ,~ '~ )~ !~ ~~ {~ ]~ ^~ /~ (~ _~ :~ <~ [~ }~ |~ 1~ 2~ 3~ 4~ 5~ 6~ 7~ 8~ 9~ 0~ a~ b~ c~ d~ e~ ~) f~ f! g~ h~ i~ j~ k~ l~ m~ n~ o~ p~ q~ p~ o~ r~ s~ p~ t~ q~ h~ u~ u~ u~ u~ v~ v~ w~ x~ v~ u~ y~ y~ x~ w~ w~ g~ g~ z~ A~ B~ A~ A~ A~ A~ C~ C~ D~ E~ F~ G~ H~ I~ J~ K~ L~ M~ N~ O~ P~ Q~ R~ S~ T~ U~ V~ W~ X~ Y~ Z~ `~  { .{ %~ +{ @{ #{ ${ %{ &{ *{ ={ -{ ;{ u% >{ ,{ M+ '{ ){ !{    ",
"~{ {{ ]{ s- ^{ /{ )~ ({ _{ :{ <{ [{ }{ |{ 1{ 2{ 3{ 4{ 5{ 6{ 7{ 8{ 9{ 0{ a{ b{ c{ d{ e{ /' f{ |! g{ s! h{ i{ j{ k{ l{ m{ n{ o{ p{ q{ r{ s{ t{ u{ u{ t{ t{ v{ v{ v{ v{ v{ m{ w{ m{ m{ m{ v{ x{ m{ l{ w{ m{ l{ t~ l{ l{ y{ l{ l{ l{ z{ z{ z{ A{ z{ z{ A{ A{ j{ B{ B{ C{ D{ E{ F{ G{ H{ I{ J{ K{ L{ M{ N{ O{ P{ Q{ R{ S{ T{ U{ V{ W{ X{ Y{ Z{ `{  ] .] +] @] #] $] %] &] *] =] =] -] ;] >] ,] ']    ",
")] !] ~] {] ]] ^] /] (] _] :] <] [] }] |] 1] 2] 3] 4] 5] 6] 7] 8] 9] 0] a] !& b] c] d] e] _) f] l! f! g] l{ x{ u{ u{ h] h] h] i] j] i] k] l] m] h] l] h] h] h] m] m] h] h] u{ h] h] u{ u{ u{ u{ h] h] u{ u{ u{ u{ m] m] n] n] u{ o] m] u{ o] m] u{ u{ v{ v{ v{ v{ x{ p] q] r] s] t] u] v] w] x] y] z] A] B] C] D] E] F] G] H] I] J] K] L] M] N] O] #{ P] Q] R] S] T] %* U] V] V] W] X] Y] Z]    ",
"`]  ^ .^ +^ @^ #^ $^ %^ &^ *^ =^ ], -^ y= !$ Z) ;^ >^ ,^ '^ )^ !^ ~^ {^ ]^ ^^ /^ (^ _^ :^ <^ [^ C{ t~ v{ u{ h] }^ }^ }^ }^ }^ k] k] k] }^ }^ }^ }^ }^ }^ }^ }^ }^ }^ }^ }^ }^ }^ }^ }^ }^ l] }^ }^ }^ }^ }^ }^ }^ }^ }^ }^ }^ }^ }^ }^ }^ }^ }^ }^ o] o] o] o] m] u{ u{ |^ 1^ 2^ 3^ 4^ 5^ 6^ 7^ 2; 8^ 9^ 0^ a^ b^ c^ d^ e^ f^ g^ 4= h^ i^ j^ k^ l^ m^ n^ o^ p^ q^ r^ s^ t^ U] u^ v^ w^ x^ y^    ",
"z^ A^ B^ C^ D^ E^ F^ U! b' G^ H^ I^ J^ y- K^ L^ M^ N^ O^ P^ &, Q^ R^ S^ T^ U^ V^ W^ X^ l! x~ q~ w{ u{ h] }^ }^ }^ Y^ Y^ Y^ Y^ Y^ Y^ Y^ Y^ Y^ Y^ Y^ Y^ Y^ Y^ Y^ Y^ Y^ Y^ Y^ Y^ }^ }^ }^ }^ }^ }^ Y^ }^ }^ }^ }^ }^ }^ Y^ Y^ Y^ }^ Y^ Y^ Y^ Y^ Y^ Y^ }^ Y^ Y^ }^ l] k] k] Z^ `^  / ./ +/ @/ #/ $/ %/ &/ */ =/ -/ ;/ >/ ,/ '/ )/ !/ ~/ {/ ]/ ^/ // (/ _/ :/ </ [/ }/ |/ 1/ 2/ 3/ 4/ 5/ 6/ 7/ 8/    ",
"9/ 9/ 0/ a/ b/ c/ d/ e/ f/ g/ h/ i/ j/ k/ l/ m/ n/ o/ p/ q/ r/ s/ t/ u/ v/ w/ x/ y/ z/ A/ B/ C/ D/ E/ k] k] }^ Y^ Y^ Y^ Y^ Y^ Y^ Y^ Y^ Y^ Y^ Y^ Y^ Y^ Y^ Y^ Y^ Y^ Y^ Y^ Y^ Y^ Y^ Y^ Y^ Y^ Y^ Y^ Y^ Y^ Y^ Y^ Y^ Y^ Y^ Y^ Y^ Y^ Y^ Y^ Y^ Y^ Y^ Y^ Y^ Y^ Y^ Y^ }^ k] k] E/ Z^ q{ F/ G/ H/ I/ J/ K/ L/ M/ N/ O/ P/ Q/ R/ S/ T/ U/ V/ W/ X/ Y/ Z/ `/  ( .( +( @( #( $( %( &( *( =( -( ;( >( ,( '(    ",
")( !( ~( {( ]( ^( /( (( _( :( <( [( }( |( 1( 2( 3( 4( 5( 6( 7( 8( 9( 0( a( b( c( d( I/ e( f( g( s{ k] Y^ Y^ Y^ Y^ Y^ Y^ Y^ Y^ Y^ Y^ Y^ Y^ Y^ Y^ Y^ Y^ Y^ Y^ Y^ Y^ Y^ Y^ Y^ Y^ Y^ Y^ Y^ Y^ Y^ Y^ Y^ Y^ Y^ Y^ Y^ Y^ Y^ Y^ Y^ Y^ Y^ Y^ Y^ Y^ Y^ Y^ Y^ Y^ Y^ Y^ Y^ Y^ k] k] i] i] h( i( j( k( l( m( n( o( p( q( r( s( t( u( v( w( x( y( z( A( B( C( D( E( F( G( H( I( J( K( L( M( N( O( P( Q( R(    ",
"S( T( U( V( W( X( Y( Z( `(  _  _ ._ +_ @_ #_ $_ %_ &_ *_ =_ -_ ;_ >_ ,_ '_ )_ !_ ~_ {_ k~ ]_ h( E/ k] Y^ Y^ Y^ Y^ Y^ Y^ Y^ Y^ Y^ Y^ Y^ Y^ Y^ Y^ Y^ Y^ Y^ Y^ Y^ Y^ Y^ Y^ Y^ Y^ Y^ Y^ Y^ Y^ Y^ Y^ Y^ Y^ Y^ Y^ Y^ Y^ Y^ Y^ Y^ Y^ Y^ Y^ Y^ Y^ Y^ Y^ Y^ Y^ Y^ Y^ Y^ Y^ }^ k] k] k] k] ^_ /_ (_ __ :_ <_ [_ }_ |_ 1_ 2_ 3_ 4_ 5_ 6_ 7_ 8_ 9_ 0_ a_ b_ c_ d_ e_ f_ g_ h_ i_ j_ k_ l_ m_ n_ o_ p_ q_    ",
"r_ s_ t_ u_ v_ t_ w_ x_ x_ y_ z_ A_ B_ C_ D_ E_ F_ G_ H_ I_ J_ K_ L_ M_ N_ O_ P_ Q_ R_ S_ |^ s{ k] Y^ Y^ Y^ Y^ Y^ Y^ Y^ Y^ Y^ Y^ Y^ Y^ Y^ Y^ Y^ Y^ Y^ Y^ Y^ Y^ Y^ Y^ Y^ Y^ Y^ Y^ Y^ Y^ Y^ Y^ Y^ Y^ Y^ Y^ Y^ Y^ Y^ Y^ Y^ Y^ Y^ Y^ Y^ Y^ Y^ Y^ Y^ Y^ Y^ Y^ Y^ Y^ Y^ k] k] k] k] h] T_ U_ V_ W_ X_ Y_ Z_ `_  : .: +: @: #: $: %: &: *: =: -: ;: >: ,: ': ): !: ~: {: ]: ^: /: (: _: :: <: [: }:    ",
"|: 1: 2: 3: 4: 5: 6: 7: 8: 9: 0: a: b: c: d: e: f: g: h: i: j: k: l: m: n: o: p: q: r: s: t: k] k] Y^ Y^ Y^ Y^ Y^ Y^ Y^ Y^ Y^ Y^ Y^ Y^ Y^ Y^ Y^ Y^ Y^ Y^ Y^ Y^ Y^ Y^ Y^ Y^ Y^ Y^ Y^ Y^ Y^ Y^ Y^ Y^ Y^ Y^ Y^ Y^ Y^ Y^ Y^ Y^ Y^ Y^ Y^ Y^ Y^ Y^ Y^ Y^ Y^ Y^ Y^ Y^ Y^ k] h] i] Z^ u: v: w: x: y: z: A: B: C: D: E: F: G: H: I: J: K: L: M: N: O: P: Q: R: S: T: U: V: W: X: Y: Z: `:  < .< +< @<    ",
"#< $< %< &< *< =< -< ;< >< ,< '< )< !< ~< {< ]< ^< /< (< _< :< << [< }< |< 1< 2< 3< 4< u{ h] Y^ Y^ Y^ Y^ Y^ Y^ Y^ Y^ Y^ Y^ Y^ Y^ Y^ Y^ Y^ Y^ Y^ Y^ Y^ Y^ Y^ Y^ Y^ Y^ Y^ Y^ Y^ Y^ Y^ Y^ Y^ Y^ Y^ Y^ Y^ 5< Y^ Y^ Y^ Y^ Y^ }^ }^ Y^ Y^ Y^ Y^ }^ }^ l] k] k] k] k] i] s{ s{ h] h] u{ 6< 7< 8< 9< 0< a< b< c< d< e< f< g< h< i< j< k< l< m< n< o< p< q< r< g- s< t< u< v< w< x< y< z< A< B< C< D<    ",
"E< F< G< H< I< J< K< L< M< N< O< P< Q< R< S< T< U< V< W< X< Y< Z< `<  [ .[ +[ @[ #[ n{ h] k] Y^ Y^ Y^ Y^ Y^ Y^ Y^ Y^ Y^ Y^ Y^ Y^ Y^ Y^ Y^ }^ }^ }^ Y^ Y^ Y^ Y^ Y^ Y^ Y^ Y^ Y^ Y^ Y^ Y^ Y^ Y^ }^ k] k] k] k] k] k] }^ }^ k] k] k] }^ }^ }^ k] k] k] k] h] h] i] $[ o{ n{ n{ v{ l{ %[ &[ *[ =[ -[ ;[ >[ ,[ '[ )[ ![ ~[ {[ ][ ^[ /[ ([ _[ :[ <[ [[ }[ -< D< |[ >$ 1[ 2[ 3[ 4[ a% D+ 5[ 6[ 7[ 8[    ",
"9[ 0[ a[ b[ c[ d[ e[ f[ g[ p, }> h[ i[ j[ k[ l[ m[ n[ o[ p[ q[ r[ s[ t[ u[ v[ z~ k{ u{ o] }^ Y^ Y^ Y^ Y^ Y^ Y^ Y^ Y^ Y^ Y^ Y^ Y^ }^ }^ }^ }^ }^ }^ }^ }^ }^ }^ }^ }^ }^ }^ }^ }^ }^ }^ }^ }^ w[ h] i] Z^ k] k] }^ }^ }^ }^ }^ }^ }^ o] }^ }^ o] m] o] h] h] u{ u{ m] x[ x{ y[ C{ z[ A[ B[ C[ D[ e{ E[ F[ G[ H[ I[ J[ K[ L[ M[ N[ O[ P[ Q[ R[ S[ T[ U[ V[ W[ X[ Y[ Z[ `[  } .} +} @} #} $} %}    ",
"&} *} =} -} ;} >} ,} '} )} !} ~} {} G% ]} C- ^} /} (} _} :} <} [} }} |} 1} 2} 3} 4} h] }^ }^ Y^ Y^ Y^ Y^ Y^ Y^ Y^ Y^ Y^ Y^ Y^ }^ }^ }^ }^ o] o] o] o] o] o] o] o] m] m] n] u{ u{ u{ u{ h] h] h] h] ^_ p{ u{ u{ u{ u{ u{ u{ u{ u{ v{ u{ u{ n] n] n] m] n] u{ n] v{ 4} 5} 6} 7} G~ 8} 9} 0} a} b} c} d} e} f} g} h} i} j} k} l} m} n} o} p} q} r} s} t} u} v} #! w} x} y} z} A} B} C} D} E} F}    ",
"G} H} I} J} K} L} M} N} O} P} Q} R} S} T} D< U} V} W} X} Y} Z} `}  | .| 8) +| B{ x{ m] }^ Y^ Y^ Y^ Y^ Y^ Y^ Y^ Y^ Y^ Y^ }^ }^ }^ o] m] u{ u{ u{ v{ v{ x{ x{ x{ x{ x{ x{ x{ 4} y{ y{ 4} x{ m{ u{ 4< @| #| 6< l{ l{ l{ t~ l{ l{ l{ z{ y{ y{ 4} x{ 4} x{ 4} z{ 4} A{ 6} $| %| &| *| =| i) -| ;| >| ,| '| )| !| ~| {| ]| ^| /| (| _| :| <| [| }| || 1| 2| 3| 4| 5| 6| v} 7| 8| 9| 0| a| b| c| d|    ",
"e| f| g| h| i| j| k| l| m| n| o| p| m' }, q| r| s| t| u| v| w| x| y| z| A| B| C| v{ m] }^ Y^ Y^ Y^ Y^ Y^ Y^ Y^ Y^ Y^ Y^ }^ }^ o] m] u{ v{ x{ 4} k{ A{ D| D| A{ D| D| D| C| B{ B{ E| E| w~ w~ u{ F| G| H| I| h~ u~ w~ w~ z~ y~ w~ g] C| C| B{ B{ E| B{ A~ i{ 7} J| K| L| M| N| O|  ' P| Q| R| u; S| T| U| V| W| X| Y| Z| `|  1 .1 +1 D= @1 #1 $1 %1 &1 *1 =1 -1 ;1 >1 _~ ,1 '1 )1 !1 ~1 {1 ]1    ",
"^1 /1 (1 _1 :1 <1 [1 }1 |1 11 21 31 41 51 61 71 81 91 01 a1 b1 c1 d1 e1 f1 g1 g] v{ }^ }^ Y^ Y^ Y^ Y^ Y^ Y^ Y^ Y^ Y^ }^ }^ }^ m] n] x{ k{ j{ B{ A~ $| h1 i1 j1 j1 j1 j1 h{ k1 k1 E~ k1 k1 l! l1 m1 n1 o1 p1 3! q1 o! o! o! r1 l! h{ B| k1 B| +| s1 s1 t1 f] u1 v1 1) V, w1 }! x1 Y'  | y1 z1 A1 B1 C1 D1 E1 F1 G1 H1 I1 J1 K1 L1 M1 u, N1 O1 P1 Q1 R1 S1 T1 U1 V1 <{ W1 X1 Y1 Z1 `1  2 .2 +2    ",
"@2 #2 $2 $2 %2 &2 *2 =2 -2 ;2 >2 ,2 '2 )2 !2 ~2 {2 ]2 ^2 /2 (2 _2 :2 <2 [2 g1 q~ v{ }^ }^ Y^ Y^ Y^ Y^ Y^ Y^ Y^ Y^ Y^ }^ }^ m] n] x{ z{ E| D~ h{ F~ s! }2 v! |2 12 12 12 22 g{ g{ 32 g{ }) 42 52 62 72 82 92 02 a2 b2 c2 <) d2 /) ]) ^) e2 e2 3) f2 g2 h2 i2 j2 k2 &' l2 m2 n2  | o2 Y> p2 q2 r2 s2 t2 u2 v2 w2 x2 7{ y2 z2 A2 B2 C2 D2 E2 F2 G2 H2 I2 J2 *2 K2 L2 _{ M2 N2 O2 P2 Q2 R2 S2 T2    ",
"U2 V2 W2 X2 Y2 Z2 `2  3 .3 +3 @3 #3 $3 _] %3 &3 *3 =3 -3 ;3 >3 ,3 '3 w1 }) f~ z{ v{ o] }^ Y^ Y^ Y^ Y^ Y^ Y^ Y^ Y^ }^ }^ o] u{ v{ y[ )3 E~ &| !3 ~3 {3 ]3 ^3 /3 (3 (3 (3 _3 :3 <3 {' [3 }3 |3 13 23 33 43 53 63 73 83 +' 93 03 Z, a3 b3 83 c3 d3 e3 f3 g3 h3 i3 j3 k3 l3 m3 n3 o3 p3 q3 r3 s3 t3 u3 v3 w3 x3 y3 z3 A3 B3 C3 D3 E3 F3 G3 H3 I3 J3 K3 L3 M3 N3 O3 P3 Q3 R3 S3 T3 E} U3 V3 W3 X3    ",
"Y3 Z3 `3  4 .4 +4 @4 #4 $4 %4 &4 *4 =4 -4 ;4 >4 ,4 '4 )4 !4 ~4 {4 ]4 w1 ^4 f~ z{ v{ o] }^ Y^ Y^ Y^ Y^ Y^ Y^ Y^ Y^ }^ }^ n] v{ z{ E| E~ }2 5) /4 (4 _4 :4 <4 [4 }4 |4 14 24 34 44 54 64 74 c] 84 94 04 a4 b4 c4 ;[ d4 e4 f4 g4 h4 i4 j4 k4 l4 l4 m4 n4 o4 p4 q4 r4 s4 n3 t4 u4 G* v4 w4 x4 `$ y4 z4 A4 B4 4] C4 D4 E4 F4 G4 /] H4 I4 J4 K4 L4 M4 N4 O4 P4 Q4 R4 S4 T4 U4 V4 W4 X4 Y4 Z4 `4  5    ",
".5 +5 @5 #5 $5 #5 X2 %5 &5 *5 =5 -5 ;5 >5 ,5 '5 )5 !5 ~5 !4 {5 ]5 ^5 c~ ^4 /5 z{ u{ o] }^ Y^ Y^ Y^ Y^ Y^ Y^ Y^ Y^ }^ o] u{ y{ C| (5 _5 :5 <5 [5 }5 |5 15 25 35 45 55 65 75 85 95 05 a5 b5 c5 d5 e5 f5 g5 h5 i5 j5 k5 l5 m5 n5 o5 p5 q5 r5 s5 t5 u5 v5 w5 x5 y5 z5 A5 B5 C5 D5 E5 F5 G5 H5 I5 J5 K5 L5 M5 N5 O5 s, P5 Q5 R5 S5 T5 U5 V5 W5 X5 Y5 Z5 `5  6 .6 +6 @6 #6 $6 %6 &6 *6 V4 S4 =6 W4    ",
"-6 ;6 >6 >6 ,6 '6 )6 !6 ~6 {6 ]6 ^6 /6 (6 _6 :6 <6 [6 }6 |6 16 26 36 46 56 /5 4} x[ }^ }^ Y^ Y^ Y^ Y^ Y^ Y^ Y^ Y^ }^ m] v{ t~ E| B| &| 66 76 }5 86 96 06 a6 b6 c6 d6 e6 f6 g6 h6 i6 j6 k6 l6 m6 n6 o6 p6 q6 r6 s6 t6 u6 v6 w6 u4 x6 y6 z6 A6 B6 C6 D6 E6 F6 G6 H6 I6 J6 K6 L6 M6 N6 (% O6 P6 G$ Q6 R6 S6 T6 U6 V6 W6 ], #^ {, X6 Y6 #{ Z6 `6  7 .7 +7 @7 #7 $7 %7 &7 *7 =7 -7 ;7 >7 ,7 '7 )7    ",
"!7 ~7 {7 :1 %2 ]7 ^7 /7 (7 _7 :7 <7 [7 }7 41 |7 17 27 37 47 57 67 7^ 77 87 97 y[ u{ }^ }^ Y^ Y^ Y^ Y^ Y^ Y^ Y^ }^ }^ o] v{ k{ z~ k1 07 a7 b7 c7 d7 e7 f7 g7 h7 i7 j7 k7 l7 m7 n7 o7 p7 q7 r7 s7 t7 u7 /2 v7 w7 x7 y7 z7 A7 B7 C7 D7 E7 F7 G7 H7 I7 J7 K7 L7 M7 N7 O7 P7 Q7 R7 S7 T7 U7 V7 W7 X7 Y7 Z7 `7  8 .8 +8 @8 [] #8 $8 %8 &8 h^ *8 =8 -8 ;8 >8 ,8 '8 )8 !8 ~8 {8 ]8 ^8 /8 (8 _8 :8 <8    ",
"e| [8 }8 |8 |8 18 28 38 48 58 68 78 88 98 41 08 a8 b8 c8 d8 e8 f8 g8 h8 87 97 t~ u{ o] }^ Y^ Y^ Y^ Y^ Y^ Y^ Y^ }^ }^ o] v{ g] z~ F~ 4) i8 j8 k8 l8 m8 n8 o8 ^! p8 q8 r8 s8 s8 t8 u8 v8 w8 x8 y8 z8 A8 B8 C8 D8 E8 F8 G8 H8 I8 J8 K8 L8 M8 N8 L8 O8 P8 Q8 R8 S8 S8 T8 U8 V8 W8 X8 Y8 Z8 `8  9 .9 +9 @9 #9 $9 %9 &9 *9 =9 -9 ;9 >9 ,9 '9 )9 !9 ~9 {9 ]9 ^9 /9 (9 _9 :9 <9 [9 }9 |9 |9 19 29 39    ",
"49 59 69 79 89 99 09 a9 b9 c9 d9 e9 f9 g9 h9 i9 j9 k9 l9 m9 n9 o9 p9 i2 q9 r9 t~ v{ m] }^ Y^ Y^ Y^ Y^ Y^ Y^ Y^ }^ }^ m] x{ C| E~ ^4 s9 b~ t9 g; u9 v9 w9 x9 y9 z9 A9 B9 C9 D9 E9 F9 G9 H9 I9 J9 K9 L9 M9 N9 O9 P9 Q9 R9 S9 T9 U9 V9 W9 X9 Y9 Z9 `9 `9  0 .0 +0 E= @0 #0 $0 %0 &0 *0 =0 -0 ;0 >0 ,0 '0 )0 !0 ~0 {0 ]0 ^0 /0 (0 _0 :0 <0 [0 }0 |0 10 20 30 40 50 60 70 80 90 00 a0 b0 &6 c0 d0    ",
"e0 c[ f0 g0 h0 i0 j0 k0 l0 m0 n0 ]] o0 C4 p0 q0 r0 s0 t0 u0 v0 67 w0 i2 x0 r9 k{ v{ m] }^ Y^ Y^ Y^ Y^ Y^ Y^ Y^ }^ o] u{ y{ w~ +| ^) y0 z0 A0 B0 C0 D0 l7 E0 F0 G0 H0 I0 J0 K0 L0 M0 N0 O0 P0 Q0 R0 S0 T0 U0 V0 W0 X0 Y0 Z0 `0 6]  a  a .a .a <| +a `0 @a ,, #a >& +a 6] $a H$ %a &a *a =a -a y$ ;a >a _# ,a 'a F% )a !a ~a {a ]a -] ^a /a (a _a :a <a [a *1 }a |a 1a 2a B3 3a J' 3a 4a 5a 6a    ",
"7a 8a 9a 0a aa ba ca da q% ea fa ga ha ^} ia ja ka la ma na oa pa qa ra u1 sa k{ v{ m] }^ Y^ Y^ Y^ Y^ Y^ Y^ Y^ }^ m] v{ q~ y~ ta 1) s9 ua va wa xa ya za Aa Ba Ca Da F# Ea Fa Ga Ha Ia Ja Ka La Ma Na Oa Pa Qa Ra Sa Ta Ua Va Wa Xa Ya Za q| `a  b .b +b @b @b #b Ya $b %b &b *b 3/ =b -b ;b >b ,b 'b )b !b ~b {b ]b ]b j^ ^b /b (b _b :b <b [b }b |b 1b 2b 3b z% 4b &b d% 5b 6b ha 3b 7b 8b    ",
"9b 0b ab bb cb db eb fb gb hb ib jb kb lb mb nb ob pb qb rb sb tb ub vb wb xb m{ u{ }^ }^ Y^ Y^ Y^ Y^ Y^ Y^ Y^ }^ h] v{ p] yb wb zb Ab Bb Cb Db Eb e7 Fb Gb Hb Ib Jb V0 Kb Lb Mb j< Nb Ob Pb Qb Rb Sb Tb Ub Vb Wb Xb Yb Zb `b y)  c .c +c @c #c $c %c &c *c =c -c +# ;c >c ,c 'c D. /+ )c !c ~c {c ]c ^c /c (c _c :c <c [c }c |c 1c 2c 3c 4c 5c 6c 7c 8c 9c 0c ac bc cc dc ec fc gc hc ic jc    ",
"kc lc mc mc nc oc oc pc qc rc sc tc uc vc wc xc yc zc Ac Bc Cc :' Dc Ec Fc Gc 6< s{ h] }^ Y^ Y^ Y^ Y^ Y^ Y^ Y^ }^ h] n{ Hc Ic Jc Kc Lc Mc Nc Oc Z< Pc Qc Rc Sc Tc Uc Vc Wc Xc Yc Zc `c  d .d +d @d #d $d %d &d rc U< *d =d -d ;d >d ,d 'd ,d )d !d ~d {d ]d ^d /d (d _d :d <d [d }d |d 1d 2d 3d 4d 5d 6d 7d 8d 9d 0d ad bd cd ]( dd ed fd gd hd id jd kd ld md nd od pd qd _( rd sd td ud vd    ",
"wd xd yd zd Ad Bd Cd Dd Ed Fd Gd Hd Id Jd Kd Ld Md Nd Od Pd Qd Rd Sd Td Ud Vd Wd Xd s{ k] Y^ Y^ Y^ Y^ Y^ Y^ Y^ k] i] D/ Yd Zd 2^ `d  e .e +e @e #e $e %e &e *e =e -e ;e >e ,e 'e )e !e ~e {e ]e ^e /e (e _e :e <e [e }e |e 1e 2e 3e 4e 5e 6e 7e 8e 9e 0e ae be !9 ce de ee fe ge he ie je ke le me ne oe pe qe re se te ue ve we xe ye ze Ae Be Ce De Ee Fe Ge He Ie Je Ke Le Le Me Ne Oe Pe    ",
"Qe Re Se Te Ue Ve We Xe Ye Ze `e  f .f +f @f #f $f %f &f *f =f -f ;f .e >f ,f l~ r{ 'f k] 5< Y^ Y^ Y^ Y^ Y^ k] h] s{ p{ )f !f ~f __ {f ]f ^f /f (f _f :f 1_ <f [f }f |f 1f 2f 3f 4f 5f 6f 7f 8f 9f 0f af bf cf df ef ff gf hf if jf kf 0_ 9_ lf mf nf of pf qf rf sf tf uf vf wf xf yf zf Af Bf Cf Df Ef Ff Gf Hf If Jf Kf Lf Mf Nf Of Pf Qf Rf Sf Tf Uf Vf Wf Xf Yf Zf `f  g .g +g @g #g $g    ",
"Re %g Se &g *g =g We -g ;g >g ,g 'g )g !g ~g {g ]g ^g /g (g _g :g <g [g }g |g 1g 2g Z^ k] k] Y^ Y^ Y^ Y^ Y^ k] E/ s{ 3g 4g 5g 6g 7g 8g 9g 0g ag bg cg dg eg fg gg hg ig jg kg lg mg ng og pg qg +g rg sg tg ug vg wg xg yg zg Ag Bg Cg Dg Eg Fg Gg Hg Ig Jg Kg Lg Mg Ng Og Pg Qg Rg Sg Tg Ug Vg Wg Xg Yg Zg `g  h .h +h @h #h $h %h &h *h =h -h ;h >h ,h 'h )h !h ~h {h ]h ^h /h (h _h :h <h    ",
"[h }h |h 1h 2h 3h 4h 5h 6h 7h 8h 9h 0h ah bh ch dh eh fh gh hh ih jh kh lh mh e( Wd D/ i] k] Y^ Y^ Y^ Y^ Y^ }^ k] h] u: i(  / nh oh ph qh rh sh th uh vh wh xh yh zh Ah Bh Ch Dh Eh Fh Gh Hh Ih Jh Kh Lh Mh Nh Oh Ph Qh Rh Sh Th Uh Uh Vh Wh Xh Yh Zh `h  i .i +i {: @i #i $i %i &i *i =i -i ;i >i ,i 'i )i !i ~i {i ]i ^i /i (i _i :i <i [i }i |i 1i 2i 3i 4i 5i 6i 7i 8i 9i 0i ai bi ci di    ",
"ei fi gi _d hi ii ji ki li mi ni oi pi qi ri si ti ui vi wi xi yi zi Ai Bi Ci Di Ei o{ i] k] Y^ Y^ Y^ Y^ Y^ Y^ k] k] s{ 4< Fi j( Gi d( Hi Ii Ji Ki Li Mi Ni Oi Pi Qi Ri Si Ti Ui Vi S~ Wi Xi Yi Zi `i  j .j +j @j #j $j O< %j &j *j =j -j ;j >j ,j 'j )j !j ~j {j ]j ^j /j (j _j :j <j [j }j |j 1j 2j 3j `~ 4j 5j 6j 7j 8j 9j 0j aj bj cj dj ej fj gj hj ij jj kj lj mj nj oj pj 4i qj rj sj    ",
"tj uj vj wj xj yj zj Aj Bj Cj Dj Ej Fj Gj Hj Ij Jj Kj Lj Mj Nj Oj Pj Qj yb I| Rj Sj o{ i] l] Y^ Y^ Y^ Y^ Y^ Y^ }^ k] h] n{ C/ Tj {_ Uj Vj Wj Xj [3 Yj Zj `j  k >| .k +k @k #k $k %k &k p& *k =k -k ;k r& >k #0 ,k 'k )k !k ~k {k ]k ^k /k (k _k :k <k [k }k |k 1k 2k 3k 4k 5k 6k 7k 8k 9k 0k ak bk ;a ck dk ek fk gk hk ik jk kk lk mk nk ok pk qk rk 3* sk 1a tk o$ uk vk wk xk yk zk Ak Bk    ",
"Ck Dk Ek Fk Gk Hk Ik Jk Kk Lk Mk Nk Ok Pk Qk Rk Sk Tk Uk Vk Wk Xk Yk Zk `k  l x{ o] }^ Y^ Y^ Y^ Y^ Y^ Y^ Y^ Y^ }^ }^ .l s{ v: +l @l #l $l %l &l *l =l S> -l ;l >l ,l 'l )l !l ~l {l ]l ^l /l (l _l :l <l [l }l |l 1l 2l 3l 4l 5l 6l 7l 8l 9l 0l al bl cl dl el fl gl hl il jl kl ll ml nl ol pl ql rl sl W4 tl ul W4 vl wl xl yl zl Al Bl Cl Dl El Fl Gl Hl Il Jl {7 Kl Ll Ml Nl Ol ]> Pl Ql    ",
"Rl Sl Tl Ul Vl Wl Xl Yl Zl `l  m .m +m P6 @m #m $m %m 0] &m *m =m -m Zk ;m >m x{ n] }^ Y^ Y^ Y^ Y^ Y^ Y^ Y^ Y^ Y^ }^ k] s{ T_ @| ,m 'm )m !m 0) ~m {m ]m ^m /m (m _m :m <m [m }m |m 1m 2m 3m 7> 4m 5m 6m 7m 8m 9m 0m am bm cm dm em fm gm hm im jm km lm mm nm om pm qm rm sm tm um vm wm xm ym C3 !~ zm Kl Am Bm +6 Cm Dm Em Fm Gm Hm Im }{ Jm $2 Km Lm *2 Mm Nm ^6 T1 Om Om Pm C} Qm Rm Sm    ",
"Tm Um Vm Wm Xm Ym Zm @; `m  n .n +n @n #n $n j@ %n &n *n =n -n ;n >n ,n 'n g~ y{ u{ }^ }^ Y^ Y^ Y^ Y^ Y^ Y^ Y^ Y^ }^ k] i] o{ )n !n e( ~n Qj {n 9} 9} ]n ^n /n (n _n :n <n [n }n |n 1n 2n 3n 4n 5n 6n 7n 8n 9n 0n an bn cn dn en fn gn hn in jn kn ln mn nn on pn qn rn sn tn un vn wn xn yn zn An Bn a9 T3 Cn Dn En Fn Gn Hn Hn In In }{ Jn Kn Ln Mn Nn /6 On Pn Qn Rn h, Pl Sn ]] Tn Z) Un    ",
"Vn Wn Xn Yn Zn `n  o &{ .o +o @o #o $o %o &o *o =o -o ;o >o ,o 'o )o !o ~o {o r~ u{ h] }^ Y^ Y^ Y^ Y^ Y^ Y^ Y^ Y^ }^ }^ h] Z^ 2g ]o ^o g] C{ 2! +| /o ~) (o _o :o <o [o }o |o /m 1o 2o 3o 4o 5o 6o 7o 8o 9o 0o Z7 ao bo co do eo fo go ho io jo ko lo mo no oo po qo ro so to uo vo P+ wo xo yo zo Ao _| d9 Kl Bo Co Do Eo vl Fo Go Ho Io vl Jo Ko Lo E} D3 Mo No Oo Po Qo ^, Ro So To Uo Vo    ",
"Wo Xo Yo Zo `o  p .p +p D- b% @p #p $p %p 2| &p *p =p -p ;p >p ,p 'p )p !p {o r~ t{ h] }^ Y^ Y^ Y^ Y^ Y^ Y^ Y^ Y^ Y^ }^ k] i] T_ Ei Yd l{ t~ f! i{ [^ r9 ~p $l 56 z! {p ]p ^p }o /p (p _p }- :p <p [p }p |p %0 Z7 1p 2p 3p 4p eo 5p en 6p 7p 8p 9p 0p D^ ap bp cp dp ep fp tf gp `@ hp ip jp kp h| D} lp mp np op _~ pp qp rp 00 sp tp up vp wp xp yp zp Ap !> Bp Cp M' Dp Ep Fp Gp Hp Ip 11    ",
"Jp Kp Lp Mp Np Op Pp Qp Rp Sp Tp %> Up Vp Wp Xp Yp Zp `p  q .q +q @q #q =) $q r~ n{ h] }^ Y^ Y^ Y^ Y^ Y^ Y^ Y^ Y^ Y^ }^ k] h] 'f T_ C/ v{ l{ k{ k{ B{ u~ z~ %q l! ~p &q *q =q -q ;q >q ,q 'q )q !q ~q {q ]q ^q /q (q _q :q <q [q }q |q 1q 2q 3q 4q 5q 6q 7q 8q 9q 0q aq bq cq dq eq fq gq hq iq jq kq lq mq nq oq pq qq rq sq tq uq vq wq xq yq zq Aq Bq Cq Dq Eq Fq Gq r= Hq h$ <> Iq Jq Kq    ",
"Lq Mq Nq Oq Pq Qq R) Rq Sq Tq Uq Vq Wq Xq Yq Zq `q  r .r +r @r #r $r #q ~o $q r~ n{ h] }^ Y^ Y^ Y^ Y^ Y^ Y^ Y^ Y^ Y^ Y^ }^ k] E/ s{ 'f h] u{ v{ x{ y{ z{ z{ A{ B{ i{ (5 r! &q y! %r &r *r =r -r ;r >r ,r 'r )r !r ~r {r ]r ^r /r (r _r :r <r [r }r T1 >a |r 1r 2r 3r 4r 5r 6r 7r 8r 9r 0r ar br cr dr er fr gr hr ir jr kr lr mr nr or pr qr rr sr tr ur ]1 vr wr xr yr L% zr Ar Br Cr Dr Er    ",
"Fr Gr Lp Hr Ir j' Jr Kr Lr Mr Nr Or Pr Qr Rr Zq Sr Tr Ur Vr Wr Xr Yr Zr `r $q o~ n{ h] k] Y^ Y^ Y^ Y^ Y^ Y^ Y^ Y^ Y^ Y^ Y^ k] k] h] h] }^ }^ m] h] u{ u{ u{ v{ y{ k{ C| 3} f~ r!  s .s x> +s @s #s $s %s &s *s =s -s ;s >s ,s 's )s !s ~s {s ]s v' ^s /s (s _s :s <s [s }s |s 1s 2s 3s 4s 5s 6s 7s 8s 9s 0s as {1 bs cs ds es fs gs or hs is js pr ks ls 9s ms ns os ps qs rs ss ts L' }> d,    ",
"us vs ws xs ys zs As Bs Cs Ds Es Fs Gs Hs Is Js Ks Ls Ms Ns Os Ps Qs Rs Ss {o o~ n{ h] k] Y^ Y^ Y^ Y^ Y^ Y^ Y^ Y^ Y^ Y^ Y^ Y^ k] k] k] }^ }^ }^ }^ }^ m] m] h] u{ v{ y{ t~ C| 3} Ts 07 Us A> Vs Ws Xs Ys Zs `s  t .t +t @t #t $t %t &t i0 *t =t -t ;t >t ,t 't )t !t ~t {t ]t ^t /t (t _t :t <t Br [t }t 39 |t 1t 2t 3t 4t 5t 6t 7t er 8t 9t 0t at bt }{ ct dt et ft gt y$ ht it jt kt lt mt    ",
"V) !$ U; @~ nt ot Cs pt qt rt st tt ut vt wt xt yt zt At Bt Ct Dt Et Ft Gt l1 r~ n{ h] k] Y^ Y^ Y^ Y^ Y^ Y^ Y^ Y^ Y^ Y^ Y^ Y^ Y^ Y^ }^ Y^ Y^ Y^ Y^ }^ }^ }^ }^ }^ m] u{ v{ x{ k{ 6} F~ 4) i8 k3 Ht It Jt Kt Lt Mt Nt Ot Pt Qt Rt St Tt Ut Vt Wt Xt Yt Zt `t  u .u +u @u #u $u %u &u w^ *u ym =u -u ;u >u ,u }9 'u )u mm !u <{ V4 8s Fo ~u vl {u ]u ^u 40 /u (u k$ Z% _u jt :u 5] <u [u L] }u    ",
"|u 1u 2u 3u Ds 4u Cs pt 5u 6u 7u 8u 9u 0u au bu cu du At eu fu gu hu iu ju ku r~ n{ h] k] Y^ Y^ Y^ Y^ Y^ Y^ Y^ Y^ Y^ Y^ Y^ Y^ Y^ Y^ Y^ Y^ Y^ Y^ Y^ Y^ Y^ Y^ Y^ }^ }^ }^ o] h] v{ y[ lu &q 46 mu nu k; ou E5 pu qu ru su Pt tu uu vu wu xu yu zu Au Bu Cu Du Eu Fu Gu Hu Iu Ju Ku Lu L+ Mu Nu Ou Pu Qu Ru Su Tu 'u Uu Vu =7 S4 Wu np Xu Yu Zu ~u `u  v +! .v <] +v @v #v $v :u %v &v *v =v &v    ",
"-v ;v >v ,v 'v )v !v ~v {v ]v ^v /v $~ (v _v :v <v [v }v |v 1v 2v 3v Ft 4v {o t~ u{ k] }^ Y^ Y^ Y^ Y^ Y^ Y^ Y^ Y^ Y^ Y^ Y^ Y^ Y^ Y^ Y^ Y^ Y^ Y^ Y^ Y^ Y^ Y^ Y^ Y^ }^ }^ }^ }^ h] y{ A~ ~) 5v 6v 7v 8v 9v %k 0v av <l bv cv dv ev fv gv hv iv jv 49 kv lv mv nv ov pv qv rv sv tv <0 uv vv wv xv yv zv tp Av Bv Cv Dv Ev Fv Gv Hv Iv Jv Kv Lv Mv Nv Cm Ov }{ Pv Qv {~ ]~ Rv Sv Tv Uv Vv Wv a9    ",
"Xv Yv Zv `v ,b  w .w +w Zv @w #w $w %w I& &w *w I2 =w -w ;w >w ,w 'w #q Ss {o t~ u{ k] }^ Y^ Y^ Y^ Y^ Y^ Y^ Y^ Y^ Y^ Y^ Y^ Y^ Y^ Y^ Y^ Y^ Y^ Y^ Y^ Y^ Y^ Y^ Y^ Y^ Y^ }^ Y^ Y^ }^ x{ E| r! )w b~ !w ~w 9v {w ]w ^w /w (w _w :w <w [w }w |w 1w 2w 18 3w 4w 5w 6w ,{ 7w 8w 9w 0w aw bw !] t$ cw dw ew fw gw hw iw jw 3w kw lw mw nw ow pw qw rw sw tw uw vw zm .3 In O3 @3 ww xw yw zw Aw Bw zp    ",
"Cw Dw Ew Fw Gw Hw Iw Jw Kw Lw Mw Nw Ow Pw Qw Rw Sw Tw Uw Vw Ww ,w Qs Xw Yw Zw o~ u{ k] }^ }^ Y^ Y^ Y^ Y^ Y^ Y^ Y^ Y^ Y^ Y^ Y^ Y^ Y^ Y^ Y^ Y^ Y^ Y^ Y^ Y^ Y^ Y^ Y^ Y^ }^ }^ }^ m] x{ z~ F~ `w f{ +s  x .x *k +x @x #x $x %x &x *x =x -x ;x >x ,x 'x )x !x ~x Hp $* {x ]x ^x /x (x _x :x <x [x }x |u |x 1x 2x 3x 4x 5x 5x ]0 6x 7x 8x 9x 0x ax bx tw cx >1 Z4 Ho ~u dx ex fx gx hx ix jx vr kx    ",
"lx mx nx ox px qx rx sx tx ux vx wx xx yx zx Ax Bx Cx Dx Ex Fx Gx Hx Ix Jx Ic Kx u{ k] }^ Y^ Y^ Y^ Y^ Y^ Y^ Y^ Y^ Y^ Y^ Y^ Y^ Y^ Y^ Y^ Y^ Y^ Y^ Y^ Y^ Y^ Y^ Y^ Y^ Y^ }^ l] h] u{ w{ Lx Mx Nx Ox Px Qx Rx Sx Tx Ux Vx Wx Xx Yx Zx `x  y .y +y @y #y $y %y &y *y =y -y ;y >y ,y 'y )y !y ~y {y ]y ^y /y (y _y :y <y [y }y |y 1y 2y 3y 4y 5y 6y 7y 8y 9y 0y e^ ay by cy dy ey fy gy hy iy jy ky    ",
"ly my ny oy py qy ry sy ty uy vy wy xy yy zy Ay By Cy Dy Ey Fy Gy Hy Iy Jy Ky v: s{ k] k] Y^ Y^ Y^ Y^ Y^ Y^ Y^ Y^ Y^ Y^ Y^ Y^ Y^ Y^ Y^ Y^ Y^ Y^ }^ k] k] k] k] k] h] E/ s{ T_ Ly My Ny Oy Py Qy Ry Sy Ty Uy Vy Wy Xy Yy Zy `y  z .z +z @z #z $z %z &z *z =z -z ;z {. >z ,z 'z )z !z ~z {z ]z ~t ^z /z (z _z :z ed <z [z }z |z |z |z 1z 2z 3z 4z 5z U  6z 7z 8z 9z 0z az bz cz dz ez fz gz hz    ",
"iz jz kz lz mz nz oz pz B@ qz rz sz tz uz vz wz xz yz zz Az Bz Cz Dz Oy Ez My v: s{ k] k] Y^ Y^ Y^ Y^ Y^ Y^ Y^ Y^ Y^ Y^ Y^ Y^ k] k] k] k] k] k] h] i] i] s{ o{ h( g( |^ Fz Gz Hz Gi Iz Jz Kz Lz Mz Nz Oz Pz Qz Rz Sz Tz Uz Vz Wz Xz Yz Zz `z  A .A +A @A #A $A %A &A *A =A -A ;A >A ,A 'A )A !A ~A {A ]A ^A /A (A _A _A :A <A [A }A |A 1A 2A 3A 4A 5A 6A 7A 8A 9A 0A aA bA cA dA eA fA gA hA    ",
"iA jA kA lA mA nA .g oA pA qA rA rA sA we tA uA vA wA xA yA zA AA BA Sd CA DA +l |^ i] k] k] Y^ Y^ Y^ Y^ Y^ Y^ Y^ Y^ Y^ k] k] k] k] i] s{ Z^ h( h( ^_ p{ EA `^ @| FA GA HA IA ~_ JA KA LA MA NA OA PA QA RA SA TA UA VA WA XA YA ZA `A  B .B +B @B #B $B %B &B *B =B -B ;B >B ,B 'B )B Ff !B ~B {B ]B ^B /B (B _B :B <B [B }B |B 1B 2B 3B 4B 5B 6B 7B 8B 9B 0B aB bB cB dB eB fB gB hB iB jB    ",
"kB lB mB mB nB oB pB qB rB sB tB uB vB wB xB yB zB AB BB CB DB EB FB GB HB IB JB |^ s{ k] k] Y^ Y^ Y^ Y^ Y^ Y^ Y^ Y^ k] k] k] i] Z^ h( ^_ 3g EA KB LB MB NB OB PB QB RB SB TB UB VB WB XB YB ZB `B  C .C +C @C #C $C %C &C *C =C -C ;C >C ,C 'C )C !C ~C {C ]C ^C /C (C _C :C <C [C }C |C 1C 2C 3C 4C 5C 6C 7C 8C 9C 0C aC bC cC dC eC fC gC hC iC jC kC lC mC nC oC pC qC rC sC tC uC vC wC    ",
"xC yC zC AC BC CC DC EC FC GC HC IC JC KC LC _j MC NC OC PC QC RC SC TC UC VC WC Ly s{ k] k] Y^ Y^ Y^ Y^ Y^ Y^ Y^ k] k] i] s{ o{ XC 2g YC Wd q] ZC ZC `C  D Gi .D +D @D #D $D %D &D *D =D -D ;D >D ,D 'D )D !D ~D {: {D ]D ^D /D (D _D :D <D [D }D |D 1D 2D 3D 4D 5D 6D 7D 8D 9D 0D aD bD cD dD eD fD gD hD iD jD kD lD mD nD oD pD qD rD sD tD uD vD wD xD yD zD AD BD CD DD ED FD GD HD ID    ",
"JD KD LD MD ND OD PD QD RD SD TD =j UD VD WD XD YD ZD `D  E .E +E @E #E $E %E Lx n{ h] }^ Y^ Y^ Y^ Y^ Y^ Y^ Y^ Y^ Y^ }^ k] h] &E n{ u: Hc *E =E -E ;E >E ,E 'E )E !E ~E {E ]E ^E /E (E _E :E <E [E }E |E 1E 2E 3E 4E 5E 6E 7E 8E 9E 0E aE bE cE dE eE fE fE gE hE iE jE kE lE mE nE oE pE 9. qE rE sE tE uE vE wE xE yE zE AE BE CE DE EE FE GE HE IE JE KE LE ME NE OE !y PE QE RE SE TE UE    ",
"VE WE XE YE ZE `E  F ^9 .F Q- +F @F #F $F %F &F *F =F -F ;F >F ,F 'F )F !F C{ l{ u{ }^ }^ Y^ Y^ Y^ Y^ Y^ Y^ Y^ Y^ Y^ }^ }^ o] h] v{ ~F {F v~ y[ >m ]F ^F G~ /F (F _F :F <F [F }F |F o4 1F 2F 3F 4F 5F 6F 7F 8F 9F 0F aF bF cF dF eF fF gF hF iF jF kF lF mF nF oF pF qF rF sF tF Ga uF vF 'x wF xF yF zF AF BF CF DF EF FF <~ GF HF IF bF 2d JF KF LF MF NF OF :v PF QF RF SF TF UF VF WF XF    ",
"YF ZF `F #9  G .G +G @G #G $G %G &G *G =G -G ;G >G ,G 'G )G !G ~G {G ]G 'n g~ y{ u{ o] }^ Y^ Y^ Y^ Y^ Y^ Y^ Y^ Y^ }^ }^ o] u{ u{ x{ k{ 6} lu ^G /G (G _G :G <G [G }G |G 1G 2G 3G 4G 5G 6G y7 R^ 7G 8G 9G 0G aG bG cG dG eG fG gG hG hG iG jG kG lG mG nG oG pG 9l qG rG sG tG uG vG *x wG xG yG zG AG BG CG DG EG FG GG HG IG JG KG LG MG NG OG PG QG RG SG TG UG VG WG XG d, p, YG ZG `G  H    ",
",{ .H mt +H @H #H fw $H %H &H *H Mm Ul =H -H ;H >H ,H 'H )H !H ~H {H _o )m >m y{ u{ o] }^ Y^ Y^ Y^ Y^ Y^ Y^ Y^ Y^ Y^ }^ o] n] v{ 4} j{ /5 ^G ]H ^H /H (H <o _H :H <H [H }H |H 1H 2H 3H Gb 4H 5H 6H 7H 8H 9H 0H aH bH cH dH eH ~~ fH gH hH iH jH kH lH mH nH oH pH qH rH sH ^1 tH uH vH U2 wH xH yH zH AH BH CH DH EH FH GH HH IH JH KH LH MH NH OH PH QH RH SH TH UH VH WH h% XH YH E4 ZH `H    ",
" I .* L] .I Qo +I @I #I $I %I 59 &I *I =I -I ;I >I ,I 'I )I !I ~I {I ]I ~p >m z{ u{ }^ }^ Y^ Y^ Y^ Y^ Y^ Y^ Y^ Y^ Y^ }^ o] u{ x{ y[ 6} ~p ^I u[ /I (I _I :I <I [I }I l; |I 1I 2I 3I 4I Xx 5I 6I 7I 8I 9I 0I aI bI cI dI eI fI gI hI iI jI Qv b0 kI ~u AF lI mI Qv nI oI pI zo qI Ek rI uH 49 *H sI tI uI vI wI |w xI yI zI AI BI CI DI EI FI GI HI II z% JI KI LI MI NI OI PI QI RI SI TI UI    ",
" I +* VI .I WI {] XI b, YI ZI `I  J .J +J @J #J $J %J &J *J =J -J ;J >J <^ z~ y{ u{ }^ }^ Y^ Y^ Y^ Y^ Y^ Y^ Y^ }^ }^ }^ o] v{ y[  l lu 87 ,J 'J )J -| !J R> e{ ~J {J ]J ^J /J (J _J :J <J [J }J |J 1J 2J 3J 4J 5J 6J 7J ^, 8J 5{ 9J 0J aJ bJ bJ $7 cJ dJ eJ (~ fJ gJ hJ iJ jJ kJ lJ mJ Nm nJ oJ E% pJ qJ rJ sJ tJ ~6 uJ vJ wJ xJ yJ zJ AJ BJ CJ DJ EJ FJ GJ HJ IJ U6 JJ KJ LJ MJ NJ OJ NI PJ    ",
"W] P+ ;a QJ ap RJ d, SJ x' TJ UJ VJ WJ XJ YJ ZJ `J  K .K +K [' @K #K >J 2! w~ y{ u{ }^ }^ Y^ Y^ Y^ Y^ Y^ Y^ Y^ }^ }^ k] u{ v{ k{ 3} `k $K 77 %K &K *K =K -K ;K >K q3 ,K 'K )K !K ~K {K ]K ^K /K (K _K :K <K [K }K |K 1K 2K 3K 4K 5K $7 6K 7K 8K 9K D} 0K aK bK cK dK eK iJ fK gK hK iK jK kK lK %! mK nK oK Vl pK qK rK sK qJ tK d[ uK vK wK xK yK zK AK BK CK W6 DK EK FK GK HK IK JK KK On    ",
"LK MK NK Qm OK PK QK RK 09 SK TK UK VK C2 WK @n XK YK ZK `K  L .L +L >J m! z~ y{ u{ }^ }^ Y^ Y^ Y^ Y^ Y^ Y^ Y^ }^ }^ h] u{ x{ v~ /5 v[ @L #L $L %L &L *L =L -L ;L >L ,L 'L XK )L !L ~L }@ {L ]L ^L /L (L _L :L <L [L 6q }L |L 1L 2L 9K 3L +! 4L QK !~ 5L |8 6L 7L 8L !> 9L fK 0L aL !6 3L (~ &! bL cL dL eL fL gL gL hL iL jL 79 kL lL mL nL oL pL qL rL sL tL uL vL wL xL yL zL AL Xl BL A}    ",
"CL DL EL FL GL rp HL IL JL KL LL ML NL OL PL QL RL SL TL p( UL VL WL XL /5 >m t~ v{ o] }^ Y^ Y^ Y^ Y^ Y^ Y^ Y^ }^ }^ u{ x{ s~ YL ZL `L  M Yk .M +M @M #M $M %M &M *M =M -M ;M >M ,M 'M )M !M ~M {M ]M ^M /M (M _M :M <M HK [M }M |] |M 1M |] 2M 3M 4M 5M 6M 7M 8M 9M SI Zl #7 Dn 0M aM bM cM dM eM fM gM hM Im iM jM kM bM lM lM mM nM oM pM qM rM sM tM uM 9K ss y= vM d9 wM xM yM zM AM BM    ",
"CM DM EM FM P3 GM HM IM JM KM LM MM NM OM PM QM RM SM TM UM VM WM XM YM ^G g~ k{ v{ h] }^ Y^ Y^ Y^ Y^ Y^ Y^ Y^ }^ o] h] x{ ZM `M  N .N {G +N @N #N $N %N &N *N =N -N ;N >N ~/ ,N 'N )N s< !N ~N {N ]N ^N /N (N 3[ 9r _N :N <N [N RJ }N h, |N 6w h[ 1N 2N 3N 4N 5N W) 6N Mk ,a 7N jw 8N 9N 0N aN :{ Ml bN X4 cN dN fM eN Bm Ln Mn fN gN hN iN jN kN lN (= mN nN oN pN qN rN yM sN Uv tN uN vN    ",
"k= wN xN yN ]~ zN AN BN CN DN EN FN GN HN d' IN JN KN LN MN NN ON PN QN RN SN t~ u{ h] }^ Y^ Y^ Y^ Y^ Y^ Y^ Y^ }^ o] h] l{ v~ ~n TN UN VN WN XN YN ZN `N I8  O )L .O +O @O #O #O $O %O &O *O =O -O ;O >O ,O 'O )O !O ^{ ;v ~O {O ]O w$ NK ]} ^O _u /s /O (O _O :O <O [O -~ }O |O i| K' 0| qK 1O j| 2O 3O zv 4O 4O 5O 6O 7O 8O 9O $I 0O aO bO cO dO eO d% B' fO gO hO 8L _| iO jO kO lO mO nO    ",
"oO B$ pO ]] ,a k0 qO rO sO tO uO vO wO xO yO zO Q{ AO BO CO DO EO #K  ) FO SN t~ u{ }^ }^ Y^ Y^ Y^ Y^ Y^ Y^ Y^ }^ }^ u{ w{ v~ GO HO QN IO JO KO LO MO NO OO PO QO RO SO TO G- UO VO WO .@ XO YO ZO `O  P @j .P +P @P Wa #P $P %P &P *P =P '~ -P ;P >P ,P d, 'P ,! Dp )P Qo !P ~P {P ]P ^P /P (P _P :P <P [P }P |P ^6 1P 2P 3P 4P 5P nJ 6P 7P 8P 9P 0P aP QJ bP cP dP eP fP gP hP XI iP %P jP    ",
"kP &8 lP f' mP XI nP oP hL pP qP rP sP tP uP vP wP xP yP zP AP BP CP >J FO SN t~ u{ }^ }^ Y^ Y^ Y^ Y^ Y^ Y^ Y^ }^ }^ u{ w{ h~ GO !p DP EP FP GP =n HP IP JP KP V~ LP MP NP s. OP P[ PP QP RP SP TP UP || VP WP PM c' XP YP ZP _# `P  Q .Q +Q @Q #Q $Q %Q <] &Q g9 *Q =Q -Q Mo ;Q >Q ;> ,Q 'Q )Q WG Fk !Q ~Q {Q tu ]6 ]Q ^Q /Q (Q l} _Q 6P :Q <Q [Q p  }Q  n |Q h= 1Q 2Q 5a 3Q 4Q 5Q 6Q b, 7Q    ",
"8Q ~a 9Q 0Q aQ 2Q bQ a| cQ dQ eQ fQ /7 gQ hQ iQ >I jQ kQ lQ mQ nQ oQ ]G G~ pQ t~ u{ }^ }^ Y^ Y^ Y^ Y^ Y^ Y^ Y^ }^ }^ u{ l{ s~ qQ 87 rQ sQ tQ t6 uQ vQ wQ xQ yQ zQ AQ BQ CQ DQ EQ FQ 6P GQ HQ IQ JQ KQ LQ MQ NQ OQ PQ lj QQ I1 A} RQ RQ SQ TQ UQ VQ Hk fL WQ XQ YQ %Q ZQ `Q  R .R +R 5Q @R #R &I $R %R &R *R =R -R ;R >R ,R 'R )R !R ~R {R ]R ^R /R (R _R <O :R <R [R }R |R z' pJ 1R 1R 2R 3R    ",
"4R '0 5R 6R 7R 8R ZG 9R 5s 0R 0R aR bR '0 cR dR eR fR gR hR iR jR kR lR mR nR t~ u{ }^ }^ Y^ Y^ Y^ Y^ Y^ Y^ Y^ }^ h] n{ Lx %E oR pR qR rR sR tR uR vR wR xR yR zR AR BR CR DR ER FR GR HR IR JR KR LR MR NR OR Ow PR QR Z; S; +J  J RR SR TR UR VR WR Pt XR YR ZR `R  S .S +S F4 @S <7 :7 #S $S an do ^7 %S &S *S *S {7 =S -S Lm ;S >S ,S 'S )S !S ~S {S ]S ^S /S (S U5 !a _S :S <S 0M [S }S    ",
"`G no |S 1S 2S 3S #8 xN 4S 5S 5S 6S '0 Fq 7S 8S 9S 0S aS bS cS dS eS fS gS nR t~ u{ }^ }^ Y^ Y^ Y^ Y^ Y^ Y^ Y^ }^ h] w{ hS iS jS kS lS mS nS oS pS qS rS sS tS uS vS wS xS yS AR zS AS BS CS DS ES FS cq GS HS IS JS KS LS MS NS OS PS QS RS SS TS US VS WS XS YS ZS `S  T .T +T @T #T qN $T Bp %T &T |8 h| |8 <1 ^1 *T =T -T ^6 ;T >T ,T 'T )T !T qL ~T {T ]T ^T /T (T _T eH :T 8K <T ]u [T    ",
"}T |T 1T 2T 3T 4T 5T 6T 7T 8T 9T 0T aT bT cT M! dT eT fT gT hT iT jT kT lT mT w{ u{ }^ }^ Y^ Y^ Y^ Y^ Y^ Y^ Y^ }^ h] n{ *E nT oT pT qT rT sT tT uT vT wT xT yT zT AT BT CT DT ET FT GT HT IT JT KT LT MT NT OT PT QT RT ST TT UT VT WT XT YT ZT `T  U .U +U @U #U $U %U &U *U =U -U ;U >U ,U 'U )U !U ~U {U ]U ^U /U (U _U :U <U [U }U |U 1U 2U 3U 4U 5U 6U 7U 8U 9U 4$ 0U aU bU cU Po dU eU    ",
"fU gU hU iU jU kU lU mU nU oU pU qU rU sU tU uU vU wU xU yU zU AU BU CU DU Ez EU XC i] k] Y^ Y^ Y^ Y^ Y^ Y^ Y^ k] i] T_ FU GU HU IU JU KU LU MU NU OU PU QU RU SU TU UU VU WU XU YU ZU `U  V .V @f +V @V #V $V %V &V *V =V -V ;V >V ,V 'V )V !V ~V {V ]V ^V /V (V _V :V <V [V }V |V 1V 2V 3V od 4V 5V 6V 7V 8V 9V 0V aV bV cV dV eV fV gV hV iV jV kV lV mV nV oV pV kU qV rV sV tV uV vV wV    ",
"xV yV zV AV BV CV DV EV FV GV HV IV JV KV LV MV NV OV PV QV RV SV TV UV $) r] VV EA Z^ k] k] Y^ Y^ Y^ Y^ Y^ Y^ k] i] g( WV XV YV ZV `V  W .W +W @W #W $W %W &W *W =W -W ;W >W ,W 'W )W !W ~W {W ]W ^W /W (W _W :W <W [W }W |W 1W 2W 3W 4W 5W 6W 7W 8W 9W 0W aW bW cW dW eW fW gW hW iW iW jW kW lW mW nW >z oW pW qW rW sW tW uW vW wW xW yW zW AW BW CW DW EW FW GW HW IW JW KW LW MW NW OW    ",
"PW QW RW SW mA TW UW VW WW XW YW ZW `W  X .X +X @X &W #X $X %X &X *X =X -X IA j( i( h( i] k] Y^ Y^ Y^ Y^ Y^ Y^ k] i] ^_ ;X >X ,X %) 'X )X !X ~X {X ]X ^X /X (X _X :X <X [X }X [X |X nV 1X 2X 3X 4X 5X 6X 7X 8X 9X 0X aX bX cX dX eX fX gX hX iX jX kX lX mX nX oX pX qX rX sX tX uX vX wX 'g xX yX zX AX BX CX DX EX FX GX HX Se IX JX KX LX MX NX OX PX QX RX SX TX UX VX WX XX YX ZX `X  Y    ",
"&. .Y +Y @Y #Y $Y %Y &Y *Y =Y -Y ;Y >Y ,Y 'Y )Y !Y ~Y {Y ]Y ^Y /Y (Y _Y :Y <Y G/ XC Z^ k] k] Y^ Y^ Y^ Y^ Y^ Y^ k] h] h( [Y k~ }Y |Y 1Y 2Y 3Y 4Y }' 5Y 6Y 7Y 8Y 9Y 0Y aY bY cY dY eY fY gY hY iY jY kY lY mY nY oY pY qY rY sY tY uY vY wY xY yY zY eY AY BY @= CY DY EY FY GY HY IY JY Bd KY LY MY NY OY PY QY RY SY TY UY VY WY XY YY w_ ZY `Y  Z .Z +Z @Z #Z $Z %Z &Z *Z =Z -Z ;Z >Z ,Z 'Z    ",
")Z !Z ~Z {Z ]Z ^Z /Z (Z _Z _Z :Z <Z [Z }Z |Z 1Z 2Z 3Z 4Z 5Z 6Z 7Z 8Z 9Z 0Z aZ bZ o{ k] }^ }^ Y^ Y^ Y^ Y^ Y^ Y^ }^ k] Z^ cZ Wd dZ eZ fZ gZ hZ iZ jZ kZ lZ mZ nZ oZ pZ qZ rZ sZ tZ uZ vZ wZ xZ yZ zZ AZ BZ CZ DZ EZ FZ GZ HZ IZ JZ KZ LZ MZ NZ OZ MZ PZ QZ RZ SZ TZ UZ NW VZ WZ XZ y( YZ ZZ `Z  ` .` +` @` #` $` %` &` *` =` -` ;` >` ,` '` )` !` ~` {` ]` ^` /` (` _` :` <` [` }` |` 1` 2` 3`    ",
"4` 5` 6` 7` CQ 8` 9` M< 0` a` b` @+ c` d` e` f` g` h` i` j` k` l` m` n` o` 4! 6< u{ w[ }^ Y^ Y^ Y^ Y^ Y^ Y^ Y^ Y^ }^ k] s{ Sj p` HU q` r` s` t` u` v` w` x` y` z` A` B` C` D` E` F` G` H` I` J` K` L` M` N` O` P` Q` R` S` T` U` V` W` X` Y` Z` ``   .. .+ .@ .# .$ .% .& .* .= .n/ - .; .> ., .' .) .! .~ .{ .] .^ ./ .( ._ .: .< .[ .} .| .1 .2 .3 .4 .5 .6 .7 .8 .9 .0 .a .b .c .d .e .f .   ",
"g .h .i .j .x^ `+ k .l .m .m .n .o .p .q .r .s .t .u .v .w .x .y .XM z .~o A .t~ u{ }^ }^ Y^ Y^ Y^ Y^ Y^ Y^ Y^ Y^ }^ k] u{ B .f( C .D .E .F .G .mS H .I .J .K .L .M .N .O .P .Q .+M R .S .T .U .R .V .W .X .'G Y .Z .` . .....+..%- @..#..$..%..&..*..c> =..-..;..>..,..'..)..!..~..{..]..^../..(.._..:..<..[..}..|..1..2..3..4..5..6..5..7..8..9..0..a..b..c..d..e..[/ f..g..h..4, i..D< j..   ",
"k..C' l..m..:{ n..o..p..q..r..s..oH %2 qP t..u..v..w..x..y..z..A..B..)w &q i{ k{ v{ }^ }^ Y^ Y^ Y^ Y^ Y^ Y^ Y^ Y^ }^ h] u{ u: C..Hz r] E .D..E..F..G..H..I..)J J.._I K..L..M..N..O..P..Q..Q> R> R..S..74 T..T..;| U..V..W..X..Y..Z..`.. +..+.++.@+.#+.$+.%+.&+.*+.=+.-+.;+.>+.,+.'+.)+.:% ^% !+.~+.{+.]+.}L ^+.fG 9O /+.(+._+.:+._+.<+.[+.(+.}+.|+.1+.2+.2+.3+.4+.:P e[ 5+.6+.7+.8+.9+.{P 0+.   ",
"ZG a+.b+.c+.d+.e+.W4 Il sI f+.g+.]7 Nn h+.i+.j+.k+.l+.m+.n+.o+.p+.q+.r+.~) i{ z{ v{ m] }^ Y^ Y^ Y^ Y^ Y^ Y^ Y^ Y^ }^ }^ h] s{ |^ k~ GA s+.&[ !m t+.u+.v+.w+.=| x+.y+.z+.@' A+. ' B+.C+.-' Yj D+.-' E+.F+.0} 0} B+.G+.H+.I+.I+.J+.K+.L+.M+.N+.O+.P+.Q+.R+.S+.T+.U+.c] V+.W+.X+.Y+.Z+.HP `+. @..@.+@.@@.#P #@.%8 ;t $@.%@.&@.KG &@.5K d9 !~ *@.=@._7 -@.|P ;@.>@.,@.Wm '@.)@.)@.!@.~@.{@.]@.^@.   ",
"/9 /@.(@._@.:@.<@.Qv [@.}@.Vm *4 oK Wm |@._q 1@.2@.3@.4@.5@.o+.6@.;q 7@.s! i{ z{ v{ m] }^ Y^ Y^ Y^ Y^ Y^ Y^ Y^ Y^ Y^ }^ l] h] T_ 8@.k~ Ky Zw 9@.z[ 0@.a@.8} 42 *| b@.c@.d@.d@.e@.c@.f@.g@.g@.g@.4) *q 4) 9} c@.g@.1} h@.i@.Us Us j@.s9 Y, k@.w1 l@.E+.m@.n@.o@.p@.q@.n> r@.s@.t@.u@.v@.w@.x@.y@.z@.A@.B@.C@.>0 'P D@.E@.D} F@.G@.D3 H@.5K l} I@.'x UJ J@.K@.L@.A} A} M@.N@.O@.P@.Q@.R@.Q@.Ip    ",
":] S@.T@.U@.V@.W@./9 M[ M@.X@.7Q 5a 3> Y@.Z@.`@. #..#.+#.@#.##.$#.%#.&#.*#.i{ y{ n] }^ }^ Y^ Y^ Y^ Y^ Y^ Y^ Y^ Y^ Y^ }^ }^ k] Z^ r{ 8@.cZ =#.x~ a! c! -#.FO ;#.'n ;m >#.,#.'#.^I 2} q! p! p! )#.2! !#.z[ q! ~p s1 p! s1 q! ~#.!) {#.{#.]#.^#.%l %l /#.(#._#.66 :#.<#.[#.}#.|#.1#.2#.3#.4#.5#.6#.7#.8#.9#.0#.a#.b#.c#.d#.i+.e#.f#.g#.gJ h#.i#.j#.k#.!0 l#.m#.n#.o#.o#.p#.q#.r#.|~ s#.t#.u#.&P    ",
"_Q h+.)0 v#.w#.x#._| WQ y#.z#.k#.A#.N@.B#.C#.D#.)% E#.F#.G#.H#.I#.[! |! &q r9 k{ v{ o] }^ Y^ Y^ Y^ Y^ Y^ Y^ Y^ Y^ Y^ Y^ }^ k] i] D/ 3g T_ J#.p~ s~ K#.u~ w~ >m >m >m 3} SN SN 97 SN f! A .g! f! A .A .A .g~ z~ SN SN i{ i{ i{ f! r9 f~ f~ l! l! )#.G~ )m L#.56 M#.N#.O#.P#.Q#.R#.S#.T#.U#.V#.W#.X#.Y#.>k Z#.`#.F#  $..$.S@.fL ;! 7O 5L +$.@2 |8 @$.40 #$.$$.SK *@.+$.G@.iJ %$.&$./] *$.=$.-$.   ",
";$.>$./7 T3 U3 ,$.lp lp yM '$.5K $@.48 )$.!$.~$.{$.]$.^$./$.($._$.!J a7 {#.B| C| m{ m] }^ Y^ Y^ Y^ Y^ Y^ Y^ Y^ Y^ Y^ Y^ Y^ }^ k] i] :$.s{ u{ v{ w{ w{ l{ l{ y{ y{ l{ t~ t~ t~ k{ t~ t~ r~ s~ q~ r~ q~ r~ t~ t~ t~ t~ t~ t~ t~ k{ k{ k{ g] v~ v~ C{ w~ g~ ~n l! >#.87 Vj <$.[$.}$.|$.>[ 1$.2$.3$.4$.5$.`9 #0 6$.~U 7$.8$.N@.(7 SK 9$.hL 0$.a$.Jl b$.c$.d$.am e$.sO f$.b9 g$.h$.!> f, i$.j$.k$.   ",
"l$.m$.n$.o$.p$.q$.mp r$.s$.t$.u$.v$.w$.x$.y$.z$.A$.B$.C$.D$.E$.F$.G$.F+.y! j1 j{ v{ m] }^ Y^ Y^ Y^ Y^ Y^ Y^ Y^ Y^ Y^ Y^ Y^ Y^ k] k] E/ h] k] h] h] u{ u{ u{ u{ u{ u{ u{ u{ u{ u{ u{ u{ v{ v{ v{ v{ v{ v{ u{ u{ u{ u{ v{ v{ v{ v{ u{ u{ v{ v{ m{ w{ l{ k{ v~ g~ 97 !F H$.I$.J$.K$.L$.M$.)- N$.O$.P$.c* `9 Q$.R$.&^ S$.T$.fL U$.Fl V$.W$.X$.Y$.Z$.`$. %.eQ .%.aM +%.%G 4{ @%.F} h#.#%.$%.%%.&%.   ",
"*%.=%.-%.bM ;%.bM nI >%.AM AM ,%.'%.)%.!%.~%.{%.]%.^%./%.(%._%.:%.<%.E+.!3 E~ B{ x{ m] }^ Y^ Y^ Y^ Y^ Y^ Y^ Y^ Y^ Y^ Y^ Y^ Y^ Y^ k] k] k] }^ }^ }^ }^ }^ }^ }^ }^ }^ }^ }^ m] h] h] h] h] h] h] h] h] h] o] m] m] m] m] m] m] m] }^ o] h] h] h] u{ u{ v{ w{ t~ g] x~ [%.}%.|%.1%.2%.3%.4%.5%.6%.7%.8%.E= 9%.]U 0%.ao n} (] a%.b%.c%.oP d%.e%.e$.fJ f%.gJ g%.h%.tN i%.j%.k%.h#.l%.=G m%.n%.o%.   ",
"p%.q%.jI q%.r%.r%.s%.oI t%.u%.6s v%.w%.f%.x%.y%.z%.A%.B%.+#.C%.D%.E%.F%.f) s! z~ z{ u{ }^ Y^ Y^ Y^ Y^ Y^ Y^ Y^ Y^ Y^ Y^ Y^ Y^ Y^ Y^ w[ }^ Y^ }^ }^ Y^ Y^ Y^ }^ }^ }^ }^ }^ }^ }^ }^ }^ }^ }^ }^ }^ }^ }^ }^ }^ }^ }^ }^ }^ }^ }^ }^ }^ }^ }^ }^ }^ m] h] h] u{ m{ o~ G%.R_ H%.I%.J%.a< K%.L%.M%.N%.O%.P%.Q%.R%.S%.T%.U%.V%.W%.X%.Y%.Z%.T3 `%.G@. &..&.+&.@&.#&.$&.%&.&&.'8 *&.=&.=@.KG /| -&.   ",
";&.>&.'x 'x 6L tO a%.y#.y#.jJ ,&.,&.N[ '&.)&.!&.~&.{&.]&.^&./&.(&._&.:&.<&.&q 7} k{ v{ o] }^ Y^ Y^ Y^ Y^ Y^ Y^ Y^ Y^ Y^ Y^ Y^ Y^ Y^ Y^ Y^ Y^ Y^ Y^ Y^ Y^ Y^ Y^ Y^ Y^ Y^ Y^ Y^ Y^ Y^ Y^ Y^ Y^ Y^ Y^ Y^ Y^ Y^ Y^ Y^ Y^ Y^ Y^ Y^ Y^ Y^ Y^ Y^ Y^ }^ }^ }^ }^ }^ l] h] h] u: [&.}&.|&.1&.2&.3&.4&.5&.6&.7&.8&.:% O0 9&.0&.a&.b&.c&.d&.e&.f&.g&.h&.i&.Ep *Q j&.k&.l&.l&.m&.n&.o&.P5 Yl >P p&.q&.r&.   ",
":1 fQ #2 #2 (1 s&.b%./7 18 /7 jJ y#.D@.L@.t&.u&.v&.w&.x&.y&.z&.A&.B&.C&.}3 4) )#.B{ x{ m] }^ Y^ Y^ Y^ Y^ Y^ Y^ Y^ Y^ Y^ Y^ Y^ Y^ Y^ Y^ Y^ Y^ Y^ Y^ Y^ Y^ Y^ Y^ Y^ Y^ Y^ Y^ Y^ Y^ Y^ Y^ Y^ Y^ Y^ Y^ Y^ Y^ Y^ Y^ Y^ Y^ Y^ Y^ Y^ Y^ Y^ Y^ Y^ Y^ Y^ Y^ Y^ Y^ }^ }^ }^ }^ h] D&.E&.F&.Ec G&.H&.I&.J&.K&.L&.`$ z4 M&.N&.tF O&.B$ P&.Q&.Gp R&.S&.T&.U&.]> V&.4R YG '8 W&.YG <] f, X&.iP ^+._# _# %P    ",
"Y&.Z&.`&. *..*.+*.@*.#*.(1 d$.d$.<~ h| gL aL $*.%*.&*.**.=*.-*.(! ;*._&.>*.|! $l r9 k{ u{ }^ }^ Y^ Y^ Y^ Y^ Y^ Y^ Y^ Y^ Y^ Y^ Y^ Y^ Y^ Y^ Y^ Y^ Y^ Y^ Y^ Y^ Y^ Y^ Y^ Y^ Y^ Y^ Y^ Y^ Y^ Y^ Y^ Y^ Y^ Y^ Y^ Y^ Y^ Y^ Y^ Y^ Y^ Y^ Y^ Y^ Y^ Y^ Y^ Y^ Y^ Y^ Y^ Y^ }^ Y^ Y^ k] C/ ,*.'*.Ec )*.!*.~*.{*.]*.^*./*.(*._*.:*.<*.[*.}*.|*.1*.2*.3*.4*.5*.6*.jw 7*.7*.8*.Hn 9*.<T 3w 9K RK RK RK QK /u .v    ",
"0*.[q a*.b*.o..c*.d*.e*.f*.g*.h*.3O i*.`%.j*.k*.l*.8m m*.n*.o*.p*.q*.r*.s*.%r 07 j1 A{ v{ m] }^ Y^ Y^ Y^ Y^ Y^ Y^ Y^ Y^ Y^ Y^ Y^ Y^ Y^ Y^ Y^ Y^ Y^ Y^ Y^ Y^ Y^ Y^ Y^ Y^ Y^ Y^ Y^ Y^ Y^ Y^ Y^ Y^ Y^ Y^ Y^ Y^ Y^ Y^ Y^ Y^ Y^ Y^ Y^ Y^ Y^ Y^ Y^ Y^ Y^ Y^ Y^ Y^ }^ }^ }^ h] Ei t*.u*.u] v*.w*.x*.y*.z*.A*.B*.C*.D*.tP E*.3* F*.G*.H*.I*.6S 4S J*.K*.Em L*.M*.sl N*.Nv Ho In 4O 2O O*.P*.Jm bM sH    ",
"Bp Q*.W&.88 R*.!> S*.T*.U*.V*.W*.], X*.Y*.Z*.`*. =..=.+=.@=.#=.^- $=.!w ]4 03 e2 %=.z~ y{ v{ h] }^ }^ Y^ Y^ Y^ Y^ Y^ Y^ Y^ Y^ Y^ Y^ Y^ Y^ Y^ Y^ Y^ Y^ Y^ Y^ Y^ Y^ Y^ Y^ Y^ Y^ Y^ Y^ Y^ Y^ Y^ Y^ Y^ Y^ Y^ Y^ Y^ Y^ Y^ Y^ Y^ Y^ Y^ Y^ Y^ Y^ Y^ Y^ Y^ Y^ Y^ }^ }^ }^ h] n{ Fi &=.+D *=.==.-=.;=.>=.C7 ,=.'=.)=.!=.dR ~=.Z{ {=.]=.:0 ^=./=.(=.(=._=.:=.l$ <=.:T [=.}=._S ]> +v aQ V&.|=.88 N[ 1=.   ",
"2=.3=.4=.5=.6=.7=.8=.9=.0=.a=.b=.c=.d=.e=.f=.g=.h=.i=.j=.k=.l=.m=.n=.o=.p=.q=.r=.s=.Mx t=.u=.n{ &E k] }^ Y^ Y^ Y^ Y^ Y^ Y^ Y^ Y^ Y^ Y^ Y^ Y^ Y^ Y^ Y^ Y^ Y^ Y^ Y^ Y^ Y^ Y^ Y^ Y^ Y^ Y^ Y^ Y^ Y^ Y^ Y^ Y^ Y^ Y^ Y^ Y^ Y^ Y^ Y^ Y^ Y^ Y^ Y^ Y^ Y^ Y^ Y^ }^ }^ k] h] n{ Hc p` v=.G{ w=.x=.y=.z=.A=.B=.C=.D=.E=.F=.G=.H=.I=.J=.K=.L=.M=.N=.O=.P=.`b Q=.R=.S=.T=.U=.V=.W=.X=.Y=.Z=.`=. -..-.+-.@-.   ",
"#-.$-.$-.%-.&-.*-.=-.--.;-.>-.,-.'-.)-.!-.~-.{-.]-.^-./-.(-._-.:-.<-.[-.}-.|-.1-.2-.3-.4-.5-.My |^ o{ s{ h] k] k] k] k] k] k] k] k] k] k] Y^ Y^ Y^ Y^ Y^ Y^ Y^ Y^ Y^ }^ Y^ Y^ Y^ Y^ }^ Y^ Y^ Y^ Y^ Y^ Y^ Y^ Y^ Y^ }^ }^ k] k] k] k] k] k] k] k] k] i] s{ Z^ o{ T_ cZ 6-.7-.8-.9-.0-.a-.b-.c-.d-.e-.27 f-.g-.h-.|( i-.j-.k-.l-.m-.n-.o-.p-.q-.r-.s-.t-.u-.v-.w-.x-.y-.z-.A-.B-.C-.D-.E-.F-.G-.   ",
"H-.I-.J-.K-.L-.M-.{: N-.O-.P-.XY Q-.R-.S-.T-.U-.V-.W-.X-.Y-.Z-.`-. ;..;.+;.@;.#;.$;._Y IU mh %;.&;.Wd D&.T_ Z^ Z^ i] i] i] i] i] i] i] k] k] k] k] k] k] k] k] k] k] k] k] k] k] k] k] k] k] k] k] k] k] k] k] k] k] k] k] i] E/ h] i] i] i] 'f o{ g( XC )n *;.EU =;.-;.;;.>;.,;.';.);.ag !;.~;.{;.];.^;./;.(;._;.:;.<;.[;.};.(K |;.1;.2;.3;.4;.5;.[z 6;.7;.8;.9;.0;.a;.b;.c;.d;.e;.f;.g;.h;.   ",
"i;.j;.k;.l;.m;.n;.o;.p;.q;.r;.s;.t;.u;.v;.w;.XY DZ x;.y;.z;.A;.B;.C;.D;.E;.F;./; G;.H;.I;.J;.K;.F{ L;.M;.N;.)f 8@.]_ p{ p{ p{ ^_ ^_ O;.h( Z^ T_ T_ ^_ h( h( h( g( g( ^_ XC g( T_ g( g( T_ ^_ h( D/ Z^ Z^ Z^ :$.Z^ Z^ Z^ Z^ h( ^_ q{ p{ r{ EA P;.@| 4g Q;.,*.R;.S;.o1 T;.U;.V;.W;.X;.Y;.Z;.`;. >..>.+>.@>.#>.$>.%>.&>.*>.=>.->.;>.>>.,>.'>.)>.!>.~>.{>.]>.^>./>.(>._>.:>.<>.[>.}>.|>.1>.2>.3>.   ",
"4>.5>.6>.7>.8>.9>.0>.a>.b>.c>.d>.C_ e>.f>.r_ g>.h>.i>.j>.k>.l>.m>.n>.o>.p>.q>.47 r>.s>.t>.K$.u>.v>.+D .D IB {_ GA j( Gz w>.w>.x>.[&.[&.D&.cZ cZ Ly Ly |^ |^ cZ Ei Ei Ly Ly cZ v: Ei Ei EA KB FU cZ )n y>.]_ ]_ ]_ EA EA )n z>.]o G/ Gz +l 1^ 1^ A>.B>.{_ C>.D>.-X K~ E>.l> F>.G>.H>.I>.J>.K>.L>.M>.N>.O>.P>.Q>.R>.S>.T>.U>.V>.W>.X>.Y>.Z>.`>. ,..,.+,.@,.#,.$,.%,.&,.*,.=,.-,.;,.>,.,,.',.),.   ",
"!,.~,.*( {,.],.^,./,.(,._,.:,.<,.[,.},.|,.1,.--.2,.3,.4,.5,.6,.7,.8,.9,.0,.a,.b,.c,.d,.e,.f,.g,.h,.i,.v>.j,.q` s] HU k,.l,.-;.m,.n,.e( B/ o,.p,.q,.q,.r,.s,.t,.6-.p,.p,.6-.s,.j~ t,.t,.u,.U_ v,.q] N;.w,.x,.y,./_ +l NB N;.z,.l,.A,.A,.6! V_ B,.C,.D,.E,.F,.UB G,.H,.I,.J,.K,.L,.M,.N,.O,.P,.Q,.R,.S,.T,.U,.V,.W,.X,.Y,.FV Z,.tz `,. '..'.+'.@'.#'.$'.%'.&'.*'.='.-'.;'.>'.,'.''.)'.!'.~'.{'.   ",
"]'.^'.W] /'.('._'.:'.<'.['.}'.|'.1'.2'.3'.4'.5'.6'.7'.8'.9'.0'.a'.b'.c'.d'.e'.f'.g'.h'.i'.j'.k'.l'.)*.m'.n'.o'.p'.8< q'.@[ yb yb @[ @[ $q A .r'.GO s'.~n >m SN SN A .SN nR C{ C{ A .g~ C{ t~ s~ t'.2^ u'.v'.w'.x'.nT ;E Zw {o &[ j! m! r9 y'.]F y'.z'.A'.mR B'.C'.D'.E'.F'.G'.H'.I'.J'.K'.L'.M'.d- N'.O'.P'.Q'.R'.S'.T'.U'.V'.W'.X'.Y'.Z'.`'. )..).+).@).#).$).%).&).*).=).-).{=.;).>).,).B=    ",
"').)).!).~).{).]).^).Fw /).()._).:).<).[).}).|).1).2).3).4).5).6).7).8).9).0).a).b).c).d).e).f).g).h).i).j).k).l).m).n).o).p).o'.!p q).r).r).s).t).u).u).'n ,#.-) q9 r).v).F~ ;m ]H >#.w).x).97 y).`d z). e A).B).C).D).E). N F).{#.^#.G).H).I).J).K).L).M).N).O).P).Q).R).S).T).U).V).W).X).Y).Z).`).p0  !..!.+!.@!.#!.;= $!.%!.&!.*!.=!.-!.;!.>!.,!.'!.=$.)!.!!.kP So ^$ ~!.{!.]!.^!.ao /!.   ",
"(!._!.:!.<!.[!.}!.|!.1!.*# 2!.3!.4!.5!.6!.7!.8!.jE ~..9!.0!.a!.[y b!.c!.d!.e!.f!.g!.h!.i!.C5 j!.k!.V..l!.]4 J..m!.i).n!.6^ o!.h8 p!.h8 q!.r!.s!. M t!.M).u!.v!.w!.x!.y!.z!.A!.B!.C!.D!.E!.F!.G!.H!.I!.J!.K!.L!.M!.N!.O!.P!.w!.Q!.%r R!.S!.T!.U!.V!.W!.X!.Y!.Z!.`!. ~..~.+~.@~.#~.$~.%~.&~.*~.=~.P# -~.;~.>~.,~.'~.)~.!~.~~.{~.Q# ]~.^~./~.(~._~.:~.<~.[~.0p }~.j#.+$.40 %! |~.1~.2~.F@.3~.k%.   ",
"4~.5~.6~.7~.D) 8~.+P lP 9~.0~.a~.b~.c~.d~.e~.f~.g~.h~.i~.j~.k~.l~.m~.n~.o~.p~.q~.w4 r~.s~.t~.u~.v~.L%.w~.x~.y~.z~.A~.B~.J+.l2 l2 C~.D~.E~.F~.G~.H~.I~.)' J~.%#.K~.L~.-' M~.w> x> x> x> ;' R!.M).N~.O~.P~.Q~.R~.S~.T~.U~.V~.[! [! d3 W~.X~.Y~.Z~.`~. {..{.+{.@{.#{..k ${.%{.&{.*{.={.y9 -{.;{.>{.,{.'{.]U ){.!{.~{.{{.]{.^{./{.,U ({._{.:{.<{.[{.}{.kU A- #S |{.1{.2{.3{.,a o0 4{.PL 5{.6{.O5    ",
"7{.8{.9{.0{.a{./{ [O kP b{.c{.d{.e{.f{.g{.h{.]).i{.j{.k{.l{.m{.n{.o{.p{.q{.r{.s{.t{.u{.v{.w{.x{.y{.z{.A{.B{.C{.D{.E{.F{.G{.H{.I{.H{.J{.K{.N> L{.M{.N{.N{.+s <! va *r O{.P{.Q{.+s R{.I{.S{.T{.U{.V{.W{.X{.Y{.Z{.)o `{.Q|  ].!w Y...].d4 +].@].#].$].%].d{ &].*].=].-].;].>].,].'].)].!].~].{].]].^]./].^U (].)! _].:].<].[].}].|].1].2].3].4].5].6].7].8].'P L2 9].0].1] a].b].c].d].e].f].Nk    ",
"g].h].i].j].c# k].)$ l].m].n].o].p].q].r].4# s].t].u].v].BV w].x].y].z].A].B].C].D].n7 E].F].4$.G].H].I].A{.J].J].K].L].M].N].O].P].Q].F{.R].R].j; S].T].U].V].W].W].V].X].Y].Z].`]. ^..^.+^.@^.#^.$^.%^.&^.*^.=^.-^.;^.>^.,^.'^.)^.!^.~^.{^.]^.^^./^.E$.(^._^.:^.>; <^.[^.}^.e} |^.1^.2^.3^.4^.5^.6^.7^.8^.9^.0^.a^.}= b^.c^.d^.e^.f^.g^.h^.i^.j^.k^.XO Qo l^.2S m^.n^.o^.$~ p^.q^.r^.s^.t^.   ",
"u^.t, v^.w^.*v x^.uL y^.z^.A^.B^.C^.D^.OP E^.F^.G^.H^.A( I^.J^.K^.L^.M^.N^.O^.P^.Q^.R^.S^.T^.U^.V^.W^.N7 X^.Y^.Z^.`^. /../.+/.@/.Ys #/.$/.%/.&/.*/.=/.($.-/.-/.;/.;/.>/.v; ,/.'/.)/.!/.~/.{/.]/.^/.//.(/._/.:/.</.[/.}/.|/.1/.2/.3/.%..4/.5/.6/.7/.8/.9/.0/.a/.b/.c/.d/.e/.f/.g/.h/.v3 i/.j/.k/.l/.m/.n/.o/.p/.q/.r/.s/.t/.u/.v/.w/.x/.um y/.z/.A/.B/.C/.D/.E/.F/.G/.H/.I/.|u J/.K/.w^.JJ L/.   ",
"lP X6 M/.N/.N/.x= O/.]+.Y*.P/.W] Q/.+~ R/.S/.T/.U/.V/.W/.X/.Y/.Z/.`/. (..(.+(.@(.#(.$(.%(.&(.*(.=(.-(.;(.[& >(.H= p& ,(.'(.)(.!(.~(.r2  /.{(.](.K&.^(./(.t~.a> ((._(.:(.a> !q a> <(.[(./&.}(.|(.1(.2(.3(.4(.5(.A7 5o 6(.7(.8(.5o 9(.0(.a(.G* b(.c(.d(.e(.f(.g(.h(.i(.VT j(.v& k(.l(.m(.n(.o(.p(.q(.r(.s(.t(.p/.O; `a u(.v(.w(.x(.w/.y(.z(.N( A(.B(.2;.C(.dF D(.E(.F(.G(.H(.I(.J(.|u v^. m K(.   ",
"W- _S L(.M(.N(.O(.Z% @^ P(.Q(.R(.S(.VI T(.U(.V(.W(.X(.Y(.Z(.`(. _.._.+_.@_.#_.Q; $_.%_.&_.*_.=_.-_.;_.>_.,_.'_.)_.!_.~_.{_.]_.^_.^_.Aa /_.(_.__.:_.<_.[_.}_.|_.1_.1_.2_.3_.4_.5_.6_.6o W* 7_.8_.9_.0_.a_.b_.c_.d_.e_.f_.g_.h_.i_.j_.k_.l_.m_.n_.T^.o_.p_.q_.r_.s_.t_.u_.v_.w_.x_.y_.z_.A_.B_.C_.D_.E_.F_.QL G_.H_.I_.J_.K_.L_.M_.N_.O_.P_.Q_.R_.S_.T_.U_.V_.)b W_.X_.2[ Y_.Z_.`_. :..:.,a Z_.   ",
"D' +:.@:.R- #:.$:.%:.&:.*:.Mk JJ =:.-:.;:.>:.b{.,:.':.):.!:.~:.{:.w^ ]:.^:.)$ Nk cF /:.(:._:.::.@m <:.Z$ [:.}:.|:.1:.2:.3:.4:.5:.6:.7:.8:.9:.0:.@% a:.b:.O6 1:.c:.c:.d:.e:.f:.7o g:.h:.i:.j:.k:.l:.m:.n:.o:.p:.q:.r:.s:.t:.u:.v:.w:.x:.y:.z:.A:.B:.C:.D:.E:.F:.G:.H:.I:.J:.J:.K:.L:.M:.N:.O:.P:.Q:.R:.{{ {{ S:.T:.p- U:./{ 4b V:.*] W:.X:.Y:.Z:.`:. <..<.+<.@<.q^.8# #<.$<.%<.$<.$<.&<.P5 $<.   ",
"Qm Sn *<.=<.$:.-<.;<.LK ><.*:.wL  m ,<.-~ '<.)<.!<.~<.{<.]<.^<.D@ /<.(<.(<._<.Mk :<.P:.<<.[<.}<.|<.1<.2<.3<.4<.5<.6<.2~ 7<.8<.9<.0<.a<.b<.)k c<.d<.e<.f<.Ca G1 g<.B= J5 h<.i<.j<.j_.k<.5@ #J l<.m<.n<.o<.p<.q<.r<.s<.t<.u<.v<.w<.x<.y<.z<.A<.B<.C<.$n 1<.`; D<.E<.F<.'<.G<.H<.I<.sF :<.J<.K<.L<.M<.N<.r- O<.P<.Q<.Q<.P<.R<.S<.V:.T<.U<.V<.W<.X<.=>.Y<.Z<.`<. [..[.5{.+[.YH @[.#[.$[.i$.$<.%[.   ",
"88 &[.*[.=[.-[.;[.>[.,[.&8 '[.)[.$v ![.~[.{[.][.^[./[.([._[.:[.-d <[.[[.}[.^] <*.|[.1[.;T LK O[ 2[.3[.4[.p .T+ 5[. =.G1 6[.'! n&.Q*.7[.8[.9[.7$.0[.a[.b[.c[.d[.e[.a&.f[.g[.h[.WO h<.i[.j[.k[.l[.m[.n[.o[.p[.H= q[.r[.s[.t[.u[.v[.w[.x[.bF y[.z[.w[.N_.T! u^ 0{.ZR A[.B[.C[.D[.7# E[.=$.F[.F) G[.]b H[.I[.w[.z[.J[.K[.L[.M[.q0 N[.[].O[.P[.Q[.R[.S[.T[.U[.V[.W[.+@.X[.Y[.Z[.#[.`[. }.Lk #[..}.   ",
"+}.8J *[.1a @H ek >[.~[.$v $v $v ~[.'[.&8 @}.#}.$}.%}.&}.*}.=}.-}.;}.kP >}.,}.'}.XI k0 `l Tn O5 d' )}.!}.~}.,] DK O&.{}.C^ ]}.^}.8L /}.(}.T$._}.HF :}.<}.[}.B#.}}.dG r[.M5 <= 51 |}.Wa XE 1}.2}.3}.4}.5}.6}.`s 7}.d&.8}.8}.9}.R@.0}.a}.IN hp b}.c}.C[.w/.d}.{+.e}.f}.g}.EK h}.i}.j}.k}.l}.6[ Y) m}.n}.o}.J[.K[.o}.p}.o}.q}.{/ r}.s}.9= P[.t}.u}.S[.v}.w}.<R I/.9# x}.:*.y}.NI `[.z}.Lk %[.NI    ",
"iJ /9 *[.1a ^, ek A}.$v B}.![.C}.+H D}.E}.F}.G}.H}.%}.I}.J}.K}.L}.M}.C}.)[.N}.&<.O}.*1 >2 P}.To #; Q}.F/.&a O+ ,[.{, @H +:.tk R}.p#.S}.l#.eK T}.U}.V}. F #T N[ _}.W}.X}.Y}.Oo a}.0}.Z}.`}. |.A4 .|.+|.@|.#|.$|.%|.R@.&|.*|.X) )~ =|.=:.-|.-:.c].Nk ;|.>|.,|.'|.)|.j$.+P Nk c].!|.~|.j}.{|.PJ PJ ]|.-:.^|.L[.o}.C) %{ I[.C- /|.(|._|.:|.*@ <|.[|.}|.||.1|.dH 2|.3|.4|.v[.+J 5|.`[.NI NI Lk PJ    "};
