/* XPM */
static char * North_xpm[] = {
"128 128 10543 3",
"   	c None",
".  	c #B89D9C",
"+  	c #C0A6A4",
"@  	c #C4ABA9",
"#  	c #C4ADAA",
"$  	c #BCA7A4",
"%  	c #BAA6A3",
"&  	c #B9A29E",
"*  	c #B89F99",
"=  	c #B89D96",
"-  	c #B99D96",
";  	c #B89C95",
">  	c #B69A93",
",  	c #BEA29C",
"'  	c #B29790",
")  	c #BFA7A0",
"!  	c #BDA59D",
"~  	c #BBA39B",
"{  	c #C5ADA5",
"]  	c #BBA49C",
"^  	c #AE968E",
"/  	c #AC948C",
"(  	c #BCA09B",
"_  	c #AF918E",
":  	c #A38481",
"<  	c #9F807D",
"[  	c #A0817E",
"}  	c #A38582",
"|  	c #A98B88",
"1  	c #AA8C89",
"2  	c #B09391",
"3  	c #AE9492",
"4  	c #AC9292",
"5  	c #B29897",
"6  	c #BCA2A1",
"7  	c #BEA4A3",
"8  	c #A88E8D",
"9  	c #B69C9E",
"0  	c #AF9197",
"a  	c #A4868C",
"b  	c #96797B",
"c  	c #8C7272",
"d  	c #8B7978",
"e  	c #847E7C",
"f  	c #747573",
"g  	c #7A7E7D",
"h  	c #888889",
"i  	c #8E8182",
"j  	c #A78F8C",
"k  	c #B3A29A",
"l  	c #BAB1A7",
"m  	c #BAAFA5",
"n  	c #B6A5A5",
"o  	c #C7B6B8",
"p  	c #CEBBBD",
"q  	c #CAB6B7",
"r  	c #D0BBBB",
"s  	c #D6C1C0",
"t  	c #D7C1BF",
"u  	c #D8C1C0",
"v  	c #D5BDBC",
"w  	c #D7BCC0",
"x  	c #C4A8AC",
"y  	c #CCB1B5",
"z  	c #BFA3A7",
"A  	c #C9ADB1",
"B  	c #D1B8BB",
"C  	c #BEB2B5",
"D  	c #C3BBBC",
"E  	c #B7B1B2",
"F  	c #ACA3A5",
"G  	c #AA9EA1",
"H  	c #BBA6AB",
"I  	c #D1B2BB",
"J  	c #D8B9C0",
"K  	c #CAB2B0",
"L  	c #CCB2B0",
"M  	c #C4ACAA",
"N  	c #C9B1AF",
"O  	c #C5ACAA",
"P  	c #AE9091",
"Q  	c #B59195",
"R  	c #B79898",
"S  	c #A78C8B",
"T  	c #8F7373",
"U  	c #B59BA2",
"V  	c #BAA7B0",
"W  	c #A09AA3",
"X  	c #868B95",
"Y  	c #8A8795",
"Z  	c #938B96",
"`  	c #91878E",
" . 	c #918282",
".. 	c #8B7B7B",
"+. 	c #9A8A8B",
"@. 	c #9A8D90",
"#. 	c #9D9196",
"$. 	c #9F9398",
"%. 	c #AB9DA2",
"&. 	c #AB9DA3",
"*. 	c #A9989E",
"=. 	c #A7969C",
"-. 	c #A7959B",
";. 	c #A8969B",
">. 	c #A9979C",
",. 	c #AA989D",
"'. 	c #8E7C81",
"). 	c #A49297",
"!. 	c #AB999E",
"~. 	c #C2ADAF",
"{. 	c #C1ABAD",
"]. 	c #B6A3A4",
"^. 	c #C1AEAE",
"/. 	c #B8A6A6",
"(. 	c #BAA9A9",
"_. 	c #C1B1B0",
":. 	c #BBABA9",
"<. 	c #B2A4A0",
"[. 	c #B1A29D",
"}. 	c #B09F9A",
"|. 	c #AD9A96",
"1. 	c #B39C9A",
"2. 	c #B39A99",
"3. 	c #AE9493",
"4. 	c #956565",
"5. 	c #A07070",
"6. 	c #A67878",
"7. 	c #A27675",
"8. 	c #A47978",
"9. 	c #A27876",
"0. 	c #A17471",
"a. 	c #9D6E69",
"b. 	c #986862",
"c. 	c #92635D",
"d. 	c #8D5E59",
"e. 	c #8A5B56",
"f. 	c #8C5E58",
"g. 	c #895A55",
"h. 	c #865B56",
"i. 	c #825752",
"j. 	c #7C524C",
"k. 	c #855B55",
"l. 	c #80554F",
"m. 	c #875B55",
"n. 	c #865954",
"o. 	c #855954",
"p. 	c #895957",
"q. 	c #8A5A57",
"r. 	c #8C5C59",
"s. 	c #8E5E5B",
"t. 	c #90605E",
"u. 	c #936360",
"v. 	c #936462",
"w. 	c #8B5E5D",
"x. 	c #8E6160",
"y. 	c #926362",
"z. 	c #956766",
"A. 	c #916262",
"B. 	c #986968",
"C. 	c #7A4C4C",
"D. 	c #8D6162",
"E. 	c #906566",
"F. 	c #865C5C",
"G. 	c #835A59",
"H. 	c #866361",
"I. 	c #866C6C",
"J. 	c #817778",
"K. 	c #918E90",
"L. 	c #99999B",
"M. 	c #A39192",
"N. 	c #9A7A7B",
"O. 	c #996C6A",
"P. 	c #956C67",
"Q. 	c #85635B",
"R. 	c #89645E",
"S. 	c #946A67",
"T. 	c #956D68",
"U. 	c #8E6561",
"V. 	c #8A615C",
"W. 	c #89605A",
"X. 	c #8D625B",
"Y. 	c #94675F",
"Z. 	c #956860",
"`. 	c #90625B",
" + 	c #8B5E58",
".+ 	c #8A5A55",
"++ 	c #895B55",
"@+ 	c #90625D",
"#+ 	c #92625C",
"$+ 	c #895A54",
"%+ 	c #92645E",
"&+ 	c #825B56",
"*+ 	c #8D6862",
"=+ 	c #97736D",
"-+ 	c #A27E77",
";+ 	c #9D7770",
">+ 	c #946965",
",+ 	c #926361",
"'+ 	c #8F605F",
")+ 	c #835A58",
"!+ 	c #78504F",
"~+ 	c #794F4E",
"{+ 	c #835958",
"]+ 	c #8D6261",
"^+ 	c #926765",
"/+ 	c #936666",
"(+ 	c #936667",
"_+ 	c #886160",
":+ 	c #8D6764",
"<+ 	c #8F6865",
"[+ 	c #926D71",
"}+ 	c #B1959C",
"|+ 	c #B3A4AB",
"1+ 	c #A19FA8",
"2+ 	c #AEAAB3",
"3+ 	c #B5AAB1",
"4+ 	c #A8999C",
"5+ 	c #A38A89",
"6+ 	c #A28685",
"7+ 	c #A88987",
"8+ 	c #997979",
"9+ 	c #906D6C",
"0+ 	c #8D6B67",
"a+ 	c #8F6C69",
"b+ 	c #8E6866",
"c+ 	c #8C6564",
"d+ 	c #845D5C",
"e+ 	c #825A5A",
"f+ 	c #805757",
"g+ 	c #7B5351",
"h+ 	c #7D5552",
"i+ 	c #825956",
"j+ 	c #78504E",
"k+ 	c #784D4A",
"l+ 	c #825A58",
"m+ 	c #7A524F",
"n+ 	c #865D5F",
"o+ 	c #7A5355",
"p+ 	c #7D5657",
"q+ 	c #7E595A",
"r+ 	c #8F696A",
"s+ 	c #846161",
"t+ 	c #856262",
"u+ 	c #886565",
"v+ 	c #8A6665",
"w+ 	c #84605F",
"x+ 	c #7B5655",
"y+ 	c #835B5B",
"z+ 	c #8B6062",
"A+ 	c #855A5B",
"B+ 	c #885A5C",
"C+ 	c #935C5D",
"D+ 	c #9B6565",
"E+ 	c #A26D6E",
"F+ 	c #9C6A69",
"G+ 	c #A27170",
"H+ 	c #A06F6D",
"I+ 	c #9D6A67",
"J+ 	c #99645F",
"K+ 	c #955F59",
"L+ 	c #915B55",
"M+ 	c #8C5651",
"N+ 	c #88524D",
"O+ 	c #89534D",
"P+ 	c #8A534E",
"Q+ 	c #8C5852",
"R+ 	c #85514C",
"S+ 	c #78453F",
"T+ 	c #814D47",
"U+ 	c #7F4A45",
"V+ 	c #87544E",
"W+ 	c #84514C",
"X+ 	c #84504C",
"Y+ 	c #875251",
"Z+ 	c #8B5754",
"`+ 	c #8E5956",
" @ 	c #8E5A57",
".@ 	c #8D5A57",
"+@ 	c #8F5A59",
"@@ 	c #865250",
"#@ 	c #8A5554",
"$@ 	c #8B5756",
"%@ 	c #8D5958",
"&@ 	c #8D5857",
"*@ 	c #935E5D",
"=@ 	c #814C4B",
"-@ 	c #8C5A5A",
";@ 	c #8D5D5C",
">@ 	c #835453",
",@ 	c #825553",
"'@ 	c #845F5D",
")@ 	c #846969",
"!@ 	c #867B7D",
"~@ 	c #9B989B",
"{@ 	c #A3A2A5",
"]@ 	c #A69091",
"^@ 	c #9B7778",
"/@ 	c #996765",
"(@ 	c #966561",
"_@ 	c #885C55",
":@ 	c #8B5B57",
"<@ 	c #95625E",
"[@ 	c #92615A",
"}@ 	c #8D5B53",
"|@ 	c #8A574F",
"1@ 	c #855147",
"2@ 	c #855045",
"3@ 	c #8B5549",
"4@ 	c #8D574B",
"5@ 	c #8A5348",
"6@ 	c #834C41",
"7@ 	c #854C42",
"8@ 	c #834B40",
"9@ 	c #885147",
"0@ 	c #8F574D",
"a@ 	c #834A40",
"b@ 	c #885248",
"c@ 	c #7E4940",
"d@ 	c #83534A",
"e@ 	c #8D6158",
"f@ 	c #996E64",
"g@ 	c #94685F",
"h@ 	c #8A5951",
"i@ 	c #87504B",
"j@ 	c #854E49",
"k@ 	c #84504F",
"l@ 	c #794644",
"m@ 	c #713E3C",
"n@ 	c #7D4A48",
"o@ 	c #875553",
"p@ 	c #8B5957",
"q@ 	c #915E5E",
"r@ 	c #8F5E5E",
"s@ 	c #845856",
"t@ 	c #875F5A",
"u@ 	c #8A605E",
"v@ 	c #875E62",
"w@ 	c #A2848A",
"x@ 	c #AB99A0",
"y@ 	c #A39FA7",
"z@ 	c #B2ADB5",
"A@ 	c #B5AAAF",
"B@ 	c #A19092",
"C@ 	c #A08382",
"D@ 	c #A1807F",
"E@ 	c #A2807E",
"F@ 	c #977373",
"G@ 	c #916866",
"H@ 	c #8E6560",
"I@ 	c #8B625E",
"J@ 	c #8B5E5A",
"K@ 	c #895B58",
"L@ 	c #845451",
"M@ 	c #82524F",
"N@ 	c #7E4D4A",
"O@ 	c #794742",
"P@ 	c #7C4B45",
"Q@ 	c #82504A",
"R@ 	c #76443F",
"S@ 	c #71413B",
"T@ 	c #7A4B47",
"U@ 	c #75433D",
"V@ 	c #7E4D4F",
"W@ 	c #774548",
"X@ 	c #7C4D4E",
"Y@ 	c #7A4B4D",
"Z@ 	c #885C5E",
"`@ 	c #815657",
" # 	c #815556",
".# 	c #835858",
"+# 	c #805453",
"@# 	c #7C4E4E",
"## 	c #835353",
"$# 	c #815153",
"%# 	c #7F4D4F",
"&# 	c #875255",
"*# 	c #995A5A",
"=# 	c #995B5B",
"-# 	c #A06363",
";# 	c #975C5B",
"># 	c #A56968",
",# 	c #A26967",
"'# 	c #995E5B",
")# 	c #965853",
"!# 	c #975953",
"~# 	c #985A54",
"{# 	c #93554F",
"]# 	c #93534F",
"^# 	c #995955",
"/# 	c #A86C66",
"(# 	c #9E625C",
"_# 	c #874A43",
":# 	c #8B5049",
"<# 	c #8D524C",
"[# 	c #925852",
"}# 	c #8F554E",
"|# 	c #925855",
"1# 	c #925956",
"2# 	c #965E5A",
"3# 	c #98605C",
"4# 	c #925B57",
"5# 	c #8E5553",
"6# 	c #8B5350",
"7# 	c #8B524F",
"8# 	c #834947",
"9# 	c #874B49",
"0# 	c #864C4A",
"a# 	c #844947",
"b# 	c #905453",
"c# 	c #925755",
"d# 	c #9C615F",
"e# 	c #985F5C",
"f# 	c #915956",
"g# 	c #864F4B",
"h# 	c #85524F",
"i# 	c #826666",
"j# 	c #94888A",
"k# 	c #AEA9AE",
"l# 	c #B6B2B6",
"m# 	c #A68C8B",
"n# 	c #997070",
"o# 	c #9F6663",
"p# 	c #A26864",
"q# 	c #A16B64",
"r# 	c #9E6460",
"s# 	c #A16460",
"t# 	c #9D615A",
"u# 	c #9F645A",
"v# 	c #9F6257",
"w# 	c #94564B",
"x# 	c #8B4C40",
"y# 	c #8C4C40",
"z# 	c #904F41",
"A# 	c #955447",
"B# 	c #8B4A3C",
"C# 	c #8C4B3E",
"D# 	c #8E4D40",
"E# 	c #945346",
"F# 	c #8C4A3D",
"G# 	c #854437",
"H# 	c #874437",
"I# 	c #7C3A2D",
"J# 	c #7A3B2D",
"K# 	c #824435",
"L# 	c #7D4132",
"M# 	c #7C3D2E",
"N# 	c #813E32",
"O# 	c #884941",
"P# 	c #9D6160",
"Q# 	c #955B58",
"R# 	c #79403D",
"S# 	c #874E4B",
"T# 	c #8A514E",
"U# 	c #955A59",
"V# 	c #905957",
"W# 	c #895654",
"X# 	c #82544E",
"Y# 	c #80504E",
"Z# 	c #714344",
"`# 	c #775256",
" $ 	c #8C787C",
".$ 	c #A29BA1",
"+$ 	c #B4AEB4",
"@$ 	c #B1A3A5",
"#$ 	c #887272",
"$$ 	c #94706F",
"%$ 	c #966C6B",
"&$ 	c #8D5F5E",
"*$ 	c #936565",
"=$ 	c #946461",
"-$ 	c #97635D",
";$ 	c #87524C",
">$ 	c #8C5450",
",$ 	c #8D5450",
"'$ 	c #905652",
")$ 	c #8E5450",
"!$ 	c #854A45",
"~$ 	c #80453D",
"{$ 	c #8B4F47",
"]$ 	c #8F544C",
"^$ 	c #662C25",
"/$ 	c #6E322B",
"($ 	c #773B34",
"_$ 	c #7F4546",
":$ 	c #874D51",
"<$ 	c #8D5657",
"[$ 	c #885153",
"}$ 	c #855052",
"|$ 	c #8C5859",
"1$ 	c #8B5859",
"2$ 	c #845151",
"3$ 	c #7E4A4A",
"4$ 	c #824D4D",
"5$ 	c #8E5757",
"6$ 	c #733B3A",
"7$ 	c #7E4545",
"8$ 	c #8F5556",
"9$ 	c #90504B",
"0$ 	c #975853",
"a$ 	c #965953",
"b$ 	c #945852",
"c$ 	c #9C615B",
"d$ 	c #9E645D",
"e$ 	c #9F645B",
"f$ 	c #9B5F54",
"g$ 	c #995D52",
"h$ 	c #93574C",
"i$ 	c #8F5347",
"j$ 	c #8E5247",
"k$ 	c #965A4F",
"l$ 	c #9E6257",
"m$ 	c #8C5046",
"n$ 	c #8E5549",
"o$ 	c #9A6054",
"p$ 	c #985D52",
"q$ 	c #955B50",
"r$ 	c #90584F",
"s$ 	c #895149",
"t$ 	c #854E46",
"u$ 	c #875049",
"v$ 	c #88524B",
"w$ 	c #865048",
"x$ 	c #875149",
"y$ 	c #89534B",
"z$ 	c #854D45",
"A$ 	c #7F463F",
"B$ 	c #814840",
"C$ 	c #8B5149",
"D$ 	c #864C45",
"E$ 	c #80453F",
"F$ 	c #915750",
"G$ 	c #965A53",
"H$ 	c #8D4F46",
"I$ 	c #894B42",
"J$ 	c #8A524D",
"K$ 	c #794947",
"L$ 	c #6E5558",
"M$ 	c #998B92",
"N$ 	c #B3ACB3",
"O$ 	c #BAB6BB",
"P$ 	c #B39B95",
"Q$ 	c #AE8780",
"R$ 	c #9A6058",
"S$ 	c #965D53",
"T$ 	c #9E665B",
"U$ 	c #A1645C",
"V$ 	c #A2625E",
"W$ 	c #9E5F5C",
"X$ 	c #A3645F",
"Y$ 	c #9E5E59",
"Z$ 	c #8F4E48",
"`$ 	c #8C4942",
" % 	c #934F47",
".% 	c #8F4B42",
"+% 	c #8C4A40",
"@% 	c #8E4C42",
"#% 	c #8D4A40",
"$% 	c #904D43",
"%% 	c #934F46",
"&% 	c #8B483E",
"*% 	c #823E35",
"=% 	c #8B4137",
"-% 	c #893F35",
";% 	c #80392E",
">% 	c #8C473B",
",% 	c #8D483C",
"'% 	c #894539",
")% 	c #8A473D",
"!% 	c #8D4D43",
"~% 	c #945850",
"{% 	c #8F544B",
"]% 	c #854941",
"^% 	c #854A43",
"/% 	c #874D44",
"(% 	c #874D45",
"_% 	c #834640",
":% 	c #864743",
"<% 	c #7F443E",
"[% 	c #8A5049",
"}% 	c #8A514B",
"|% 	c #703B39",
"1% 	c #6E4042",
"2% 	c #8F7374",
"3% 	c #A89A9C",
"4% 	c #ADA5A7",
"5% 	c #AF9D9C",
"6% 	c #8A6D6B",
"7% 	c #986664",
"8% 	c #9E6765",
"9% 	c #9F6765",
"0% 	c #985F5F",
"a% 	c #935B5A",
"b% 	c #935C59",
"c% 	c #925957",
"d% 	c #8B5150",
"e% 	c #7B403F",
"f% 	c #6E3534",
"g% 	c #7C4141",
"h% 	c #874948",
"i% 	c #7F4140",
"j% 	c #723533",
"k% 	c #6F3431",
"l% 	c #814240",
"m% 	c #874847",
"n% 	c #8C4C4C",
"o% 	c #8B4B4A",
"p% 	c #824746",
"q% 	c #854A4A",
"r% 	c #925B58",
"s% 	c #8C5553",
"t% 	c #935E5A",
"u% 	c #8F5B56",
"v% 	c #885451",
"w% 	c #834E4A",
"x% 	c #844E4B",
"y% 	c #8D5654",
"z% 	c #945D5A",
"A% 	c #895351",
"B% 	c #88524F",
"C% 	c #96615E",
"D% 	c #8D4D46",
"E% 	c #94564F",
"F% 	c #93574F",
"G% 	c #935850",
"H% 	c #9A5F57",
"I% 	c #9D635A",
"J% 	c #9B6054",
"K% 	c #995E51",
"L% 	c #985D50",
"M% 	c #905548",
"N% 	c #8C5244",
"O% 	c #8B5044",
"P% 	c #93584B",
"Q% 	c #995F52",
"R% 	c #92574A",
"S% 	c #8C5245",
"T% 	c #8D5447",
"U% 	c #985F53",
"V% 	c #965C51",
"W% 	c #925A4E",
"X% 	c #8C554B",
"Y% 	c #844D44",
"Z% 	c #7F4B42",
"`% 	c #814D44",
" & 	c #7E4B42",
".& 	c #804E44",
"+& 	c #834F46",
"@& 	c #804B42",
"#& 	c #7B453D",
"$& 	c #7D463E",
"%& 	c #875047",
"&& 	c #7E473F",
"*& 	c #783F37",
"=& 	c #90564D",
"-& 	c #87493F",
";& 	c #86483E",
">& 	c #854D47",
",& 	c #6F403D",
"'& 	c #674F53",
")& 	c #9A8C93",
"!& 	c #B3ABB3",
"~& 	c #BBB6BB",
"{& 	c #B29C95",
"]& 	c #AF8A82",
"^& 	c #985F56",
"/& 	c #955C50",
"(& 	c #9C6559",
"_& 	c #A1635A",
":& 	c #A0605D",
"<& 	c #9D5E5C",
"[& 	c #A36360",
"}& 	c #9D5C59",
"|& 	c #8F4E4A",
"1& 	c #8E4B45",
"2& 	c #945049",
"3& 	c #8E4A44",
"4& 	c #8A4840",
"5& 	c #904E46",
"6& 	c #8E4C44",
"7& 	c #8C4A42",
"8& 	c #8F4C44",
"9& 	c #914E47",
"0& 	c #8A473F",
"a& 	c #803D35",
"b& 	c #8C4138",
"c& 	c #81392F",
"d& 	c #8C463C",
"e& 	c #8E483E",
"f& 	c #8A463C",
"g& 	c #8B493E",
"h& 	c #8D4F43",
"i& 	c #8F554A",
"j& 	c #8A5046",
"k& 	c #844940",
"l& 	c #80473E",
"m& 	c #844B41",
"n& 	c #834A41",
"o& 	c #7B3F37",
"p& 	c #80403A",
"q& 	c #7A3D36",
"r& 	c #864C44",
"s& 	c #884D47",
"t& 	c #6F3735",
"u& 	c #6D3B3D",
"v& 	c #8D6F6F",
"w& 	c #A79797",
"x& 	c #A9A1A1",
"y& 	c #AA9897",
"z& 	c #886866",
"A& 	c #976260",
"B& 	c #9D6462",
"C& 	c #A16664",
"D& 	c #975D5C",
"E& 	c #925A58",
"F& 	c #925A59",
"G& 	c #8A5050",
"H& 	c #7A3F40",
"I& 	c #662C2E",
"J& 	c #763A3B",
"K& 	c #834546",
"L& 	c #7C3E3F",
"M& 	c #6F3132",
"N& 	c #692C2C",
"O& 	c #814242",
"P& 	c #8C4D4D",
"Q& 	c #915152",
"R& 	c #8E4E4E",
"S& 	c #824845",
"T& 	c #925C57",
"U& 	c #8D5652",
"V& 	c #95615B",
"W& 	c #905C56",
"X& 	c #8E5B56",
"Y& 	c #895551",
"Z& 	c #844F4B",
"`& 	c #854F4B",
" * 	c #8C5653",
".* 	c #945E5B",
"+* 	c #8D5855",
"@* 	c #8A5551",
"#* 	c #98635F",
"$* 	c #874B43",
"%* 	c #884D45",
"&* 	c #925950",
"** 	c #945B52",
"=* 	c #986257",
"-* 	c #9A645A",
";* 	c #966054",
">* 	c #955E4F",
",* 	c #965E4F",
"'* 	c #905849",
")* 	c #824A3B",
"!* 	c #824C3D",
"~* 	c #7E4637",
"{* 	c #854E40",
"]* 	c #925A4C",
"^* 	c #8C5446",
"/* 	c #865042",
"(* 	c #895446",
"_* 	c #8A5447",
":* 	c #885447",
"<* 	c #824E43",
"[* 	c #804D43",
"}* 	c #7F4D43",
"|* 	c #7B4A40",
"1* 	c #78473D",
"2* 	c #76463D",
"3* 	c #76473D",
"4* 	c #76473E",
"5* 	c #7A4A41",
"6* 	c #804F45",
"7* 	c #7E4C43",
"8* 	c #7F4D44",
"9* 	c #734239",
"0* 	c #744238",
"a* 	c #7A483E",
"b* 	c #844E45",
"c* 	c #7B4139",
"d* 	c #81453D",
"e* 	c #6B352E",
"f* 	c #43120F",
"g* 	c #614D50",
"h* 	c #9E8E94",
"i* 	c #B4ADB4",
"j* 	c #BDB9BE",
"k* 	c #A69088",
"l* 	c #A07D74",
"m* 	c #9C675C",
"n* 	c #9B6558",
"o* 	c #976456",
"p* 	c #985F54",
"q* 	c #965B58",
"r* 	c #945959",
"s* 	c #9A5F5E",
"t* 	c #975959",
"u* 	c #965856",
"v* 	c #985955",
"w* 	c #955550",
"x* 	c #8E4C49",
"y* 	c #8E4F4A",
"z* 	c #965854",
"A* 	c #8A4B47",
"B* 	c #894B47",
"C* 	c #824440",
"D* 	c #8D4E4A",
"E* 	c #864844",
"F* 	c #7D3E38",
"G* 	c #7D3932",
"H* 	c #7E3A33",
"I* 	c #8A453F",
"J* 	c #8B4641",
"K* 	c #85463E",
"L* 	c #884C44",
"M* 	c #92564D",
"N* 	c #8A5247",
"O* 	c #844C42",
"P* 	c #7B443A",
"Q* 	c #743E34",
"R* 	c #855046",
"S* 	c #7D473E",
"T* 	c #753B34",
"U* 	c #773732",
"V* 	c #773A33",
"W* 	c #793F36",
"X* 	c #7C413B",
"Y* 	c #723836",
"Z* 	c #774647",
"`* 	c #8B6B6B",
" = 	c #9F8F8F",
".= 	c #9D8A89",
"+= 	c #7E5D5B",
"@= 	c #915B5A",
"#= 	c #975F5C",
"$= 	c #9A605D",
"%= 	c #935C5A",
"&= 	c #976263",
"*= 	c #905E5F",
"== 	c #8C5759",
"-= 	c #885356",
";= 	c #8F5659",
">= 	c #753D41",
",= 	c #692E34",
"'= 	c #662A2F",
")= 	c #6B3033",
"!= 	c #804548",
"~= 	c #793E41",
"{= 	c #824648",
"]= 	c #874A4D",
"^= 	c #8B4E51",
"/= 	c #884C4E",
"(= 	c #7F4744",
"_= 	c #7F4943",
":= 	c #8E5A54",
"<= 	c #88564F",
"[= 	c #93615A",
"}= 	c #91615A",
"|= 	c #8D5D55",
"1= 	c #895852",
"2= 	c #87544F",
"3= 	c #87534F",
"4= 	c #895752",
"5= 	c #8D5C57",
"6= 	c #8A5954",
"7= 	c #885752",
"8= 	c #946560",
"9= 	c #82433E",
"0= 	c #844741",
"a= 	c #935751",
"b= 	c #955953",
"c= 	c #955C54",
"d= 	c #965D55",
"e= 	c #945B51",
"f= 	c #8E5649",
"g= 	c #895143",
"h= 	c #884F42",
"i= 	c #895144",
"j= 	c #8B5346",
"k= 	c #8A5345",
"l= 	c #8E564A",
"m= 	c #90564A",
"n= 	c #8D5449",
"o= 	c #8D564A",
"p= 	c #864F44",
"q= 	c #865046",
"r= 	c #865049",
"s= 	c #844F48",
"t= 	c #7F4B44",
"u= 	c #79473F",
"v= 	c #73413B",
"w= 	c #6B3A34",
"x= 	c #683731",
"y= 	c #6A3933",
"z= 	c #683932",
"A= 	c #6D3F36",
"B= 	c #6D3D35",
"C= 	c #6A3B32",
"D= 	c #72413A",
"E= 	c #704037",
"F= 	c #734138",
"G= 	c #74423A",
"H= 	c #713F39",
"I= 	c #76433D",
"J= 	c #6C3D39",
"K= 	c #57302F",
"L= 	c #695556",
"M= 	c #9C9095",
"N= 	c #B4AFB5",
"O= 	c #C1BDC1",
"P= 	c #9D817C",
"Q= 	c #A07873",
"R= 	c #9A6158",
"S= 	c #996358",
"T= 	c #916052",
"U= 	c #946055",
"V= 	c #955C57",
"W= 	c #975E5B",
"X= 	c #985E59",
"Y= 	c #935753",
"Z= 	c #90544E",
"`= 	c #91544D",
" - 	c #92544C",
".- 	c #8F5049",
"+- 	c #874A44",
"@- 	c #915552",
"#- 	c #915551",
"$- 	c #945956",
"%- 	c #925754",
"&- 	c #965C58",
"*- 	c #935855",
"=- 	c #8E5550",
"-- 	c #905A4D",
";- 	c #885044",
">- 	c #82453B",
",- 	c #84433C",
"'- 	c #884740",
")- 	c #874A41",
"!- 	c #8A5047",
"~- 	c #874E45",
"{- 	c #824A41",
"]- 	c #7B423A",
"^- 	c #763F37",
"/- 	c #7A443B",
"(- 	c #733D35",
"_- 	c #713831",
":- 	c #6F332E",
"<- 	c #733B33",
"[- 	c #743E36",
"}- 	c #77413A",
"|- 	c #6D3734",
"1- 	c #6F4141",
"2- 	c #856868",
"3- 	c #988C8A",
"4- 	c #9D9897",
"5- 	c #9E8D8B",
"6- 	c #826462",
"7- 	c #8E5955",
"8- 	c #8F5A57",
"9- 	c #8D605B",
"0- 	c #946562",
"a- 	c #8D5B5A",
"b- 	c #8A5655",
"c- 	c #8B5656",
"d- 	c #824C4B",
"e- 	c #7F4847",
"f- 	c #814A49",
"g- 	c #844C4A",
"h- 	c #864C4B",
"i- 	c #814846",
"j- 	c #814947",
"k- 	c #8A5150",
"l- 	c #8B5251",
"m- 	c #834A47",
"n- 	c #8E5854",
"o- 	c #8D5854",
"p- 	c #8D5954",
"q- 	c #8A5752",
"r- 	c #83524D",
"s- 	c #804E4A",
"t- 	c #824C4A",
"u- 	c #864F4E",
"v- 	c #8B5554",
"w- 	c #8D5957",
"x- 	c #8A5855",
"y- 	c #8B5B58",
"z- 	c #956663",
"A- 	c #7F3F3B",
"B- 	c #83443F",
"C- 	c #945652",
"D- 	c #955853",
"E- 	c #935853",
"F- 	c #92584F",
"G- 	c #8B5146",
"H- 	c #834A3D",
"I- 	c #834A3F",
"J- 	c #8D5347",
"K- 	c #8F574A",
"L- 	c #90594D",
"M- 	c #955B51",
"N- 	c #91564C",
"O- 	c #8F564C",
"P- 	c #8E564C",
"Q- 	c #834C42",
"R- 	c #824D44",
"S- 	c #814E44",
"T- 	c #844F49",
"U- 	c #824D47",
"V- 	c #7A4741",
"W- 	c #73413C",
"X- 	c #6C3B36",
"Y- 	c #60302B",
"Z- 	c #5C2C27",
"`- 	c #5E2F2B",
" ; 	c #5C2E28",
".; 	c #5F332B",
"+; 	c #5F322B",
"@; 	c #5C2F27",
"#; 	c #6A3D36",
"$; 	c #693B34",
"%; 	c #6A3B33",
"&; 	c #683933",
"*; 	c #683C37",
"=; 	c #6C3F3B",
"-; 	c #693E3B",
";; 	c #5E3939",
">; 	c #6D585A",
",; 	c #988F93",
"'; 	c #AFACB1",
"); 	c #BFBABE",
"!; 	c #977874",
"~; 	c #9F7371",
"{; 	c #965C56",
"]; 	c #966057",
"^; 	c #8E5E51",
"/; 	c #925F54",
"(; 	c #945C56",
"_; 	c #99615B",
":; 	c #975D56",
"<; 	c #90564F",
"[; 	c #8D5149",
"}; 	c #8D5148",
"|; 	c #8F5349",
"1; 	c #8F5248",
"2; 	c #844842",
"3; 	c #8E5451",
"4; 	c #955A56",
"5; 	c #995F5C",
"6; 	c #9B615D",
"7; 	c #945D58",
"8; 	c #926153",
"9; 	c #8C564A",
"0; 	c #834A3E",
"a; 	c #81423A",
"b; 	c #874A42",
"c; 	c #844A41",
"d; 	c #854C43",
"e; 	c #834A42",
"f; 	c #7E463E",
"g; 	c #774038",
"h; 	c #743D37",
"i; 	c #723D35",
"j; 	c #6C3630",
"k; 	c #6B342E",
"l; 	c #682F2A",
"m; 	c #6D3831",
"n; 	c #6E3C33",
"o; 	c #723E37",
"p; 	c #683432",
"q; 	c #693D3D",
"r; 	c #806564",
"s; 	c #928685",
"t; 	c #93908F",
"u; 	c #9B8B8A",
"v; 	c #826664",
"w; 	c #845654",
"x; 	c #885552",
"y; 	c #875753",
"z; 	c #89625C",
"A; 	c #916661",
"B; 	c #90615D",
"C; 	c #8E5D59",
"D; 	c #8B5955",
"E; 	c #8A5553",
"F; 	c #88514E",
"G; 	c #8C5451",
"H; 	c #8E5652",
"I; 	c #89504C",
"J; 	c #854D49",
"K; 	c #814A46",
"L; 	c #905854",
"M; 	c #8D5552",
"N; 	c #864B49",
"O; 	c #804745",
"P; 	c #8F5855",
"Q; 	c #905956",
"R; 	c #8A5652",
"S; 	c #86534F",
"T; 	c #7F4C48",
"U; 	c #7C4846",
"V; 	c #7F4848",
"W; 	c #854C4D",
"X; 	c #8B5455",
"Y; 	c #8C5757",
"Z; 	c #8A5856",
"`; 	c #8C5C5A",
" > 	c #956664",
".> 	c #813D3B",
"+> 	c #864241",
"@> 	c #935250",
"#> 	c #92524F",
"$> 	c #8F504D",
"%> 	c #8D504C",
"&> 	c #8E514B",
"*> 	c #8C5047",
"=> 	c #874B41",
"-> 	c #85483F",
";> 	c #8D5147",
">> 	c #8F544A",
",> 	c #8F554B",
"'> 	c #92564E",
")> 	c #8D534B",
"!> 	c #8C534B",
"~> 	c #824C45",
"{> 	c #7D4941",
"]> 	c #834D49",
"^> 	c #7F4A46",
"/> 	c #76433F",
"(> 	c #6E3C39",
"_> 	c #633331",
":> 	c #532421",
"<> 	c #51221F",
"[> 	c #562826",
"}> 	c #592C28",
"|> 	c #542A25",
"1> 	c #582D28",
"2> 	c #5F332E",
"3> 	c #60342E",
"4> 	c #60332E",
"5> 	c #62342F",
"6> 	c #633833",
"7> 	c #67413E",
"8> 	c #69423F",
"9> 	c #6B4744",
"0> 	c #795958",
"a> 	c #917B7B",
"b> 	c #A59B9E",
"c> 	c #9F9CA1",
"d> 	c #AFABAF",
"e> 	c #977171",
"f> 	c #9E6D6E",
"g> 	c #985B57",
"h> 	c #925951",
"i> 	c #946156",
"j> 	c #945E57",
"k> 	c #985D56",
"l> 	c #A0665C",
"m> 	c #955B4E",
"n> 	c #8A4F43",
"o> 	c #86493D",
"p> 	c #86483A",
"q> 	c #88493A",
"r> 	c #8D4E40",
"s> 	c #8C4E43",
"t> 	c #8F534C",
"u> 	c #9C5F59",
"v> 	c #975B55",
"w> 	c #9D605A",
"x> 	c #945953",
"y> 	c #8E5F4E",
"z> 	c #885646",
"A> 	c #864D40",
"B> 	c #83453A",
"C> 	c #814137",
"D> 	c #814439",
"E> 	c #82483D",
"F> 	c #7E453C",
"G> 	c #763A35",
"H> 	c #733834",
"I> 	c #703833",
"J> 	c #6B332E",
"K> 	c #753E3A",
"L> 	c #6D3833",
"M> 	c #5F2925",
"N> 	c #622E29",
"O> 	c #5E2E28",
"P> 	c #6B3B34",
"Q> 	c #643532",
"R> 	c #633B3A",
"S> 	c #7A6464",
"T> 	c #918787",
"U> 	c #8F8C8D",
"V> 	c #938686",
"W> 	c #7C6162",
"X> 	c #815553",
"Y> 	c #835452",
"Z> 	c #845753",
"`> 	c #896661",
" , 	c #8F645C",
"., 	c #905F57",
"+, 	c #915F58",
"@, 	c #8F5B54",
"#, 	c #834D46",
"$, 	c #844D46",
"%, 	c #895049",
"&, 	c #8B524A",
"*, 	c #92574F",
"=, 	c #884E45",
"-, 	c #8C5249",
";, 	c #8D534A",
">, 	c #8E5050",
",, 	c #88494A",
"', 	c #965A5A",
"), 	c #985D5D",
"!, 	c #955C5B",
"~, 	c #834B4A",
"{, 	c #7D4144",
"], 	c #83464B",
"^, 	c #8A4D52",
"/, 	c #894F53",
"(, 	c #8D5558",
"_, 	c #915C5E",
":, 	c #976465",
"<, 	c #803D39",
"[, 	c #864340",
"}, 	c #904F4B",
"|, 	c #93524E",
"1, 	c #8F4F4B",
"2, 	c #8D4E49",
"3, 	c #8C4E48",
"4, 	c #8D5048",
"5, 	c #894D44",
"6, 	c #8E534B",
"7, 	c #90554C",
"8, 	c #8E544C",
"9, 	c #8E514A",
"0, 	c #8C5049",
"a, 	c #864D46",
"b, 	c #814B43",
"c, 	c #814C44",
"d, 	c #7A4740",
"e, 	c #73433C",
"f, 	c #754540",
"g, 	c #71413D",
"h, 	c #693B37",
"i, 	c #613531",
"j, 	c #562D29",
"k, 	c #461D19",
"l, 	c #441B18",
"m, 	c #49221E",
"n, 	c #4B2420",
"o, 	c #4C2723",
"p, 	c #4E2824",
"q, 	c #512B26",
"r, 	c #4F2925",
"s, 	c #542D28",
"t, 	c #532B26",
"u, 	c #562F2B",
"v, 	c #5A3635",
"w, 	c #5D3937",
"x, 	c #5F3D3B",
"y, 	c #6A4D4C",
"z, 	c #816D6E",
"A, 	c #999093",
"B, 	c #9A989C",
"C, 	c #AAA5AA",
"D, 	c #8B6666",
"E, 	c #946363",
"F, 	c #915451",
"G, 	c #915850",
"H, 	c #936058",
"I, 	c #95605A",
"J, 	c #995E56",
"K, 	c #9E6357",
"L, 	c #8A4D40",
"M, 	c #884A3C",
"N, 	c #884A3B",
"O, 	c #8C4E3F",
"P, 	c #945546",
"Q, 	c #905245",
"R, 	c #9E5F56",
"S, 	c #975A51",
"T, 	c #9E6157",
"U, 	c #9A5D55",
"V, 	c #91584D",
"W, 	c #895949",
"X, 	c #875344",
"Y, 	c #844A3E",
"Z, 	c #7E4337",
"`, 	c #783F34",
" ' 	c #774135",
".' 	c #753F35",
"+' 	c #723B35",
"@' 	c #6E3932",
"#' 	c #68342E",
"$' 	c #65322C",
"%' 	c #67332E",
"&' 	c #612E2A",
"*' 	c #572520",
"=' 	c #572821",
"-' 	c #54281F",
";' 	c #5D3129",
">' 	c #60322B",
",' 	c #5C302D",
"'' 	c #573232",
")' 	c #6A5757",
"!' 	c #827A7A",
"~' 	c #888587",
"{' 	c #908484",
"]' 	c #7A605F",
"^' 	c #805551",
"/' 	c #825550",
"(' 	c #815652",
"_' 	c #866461",
":' 	c #8D635E",
"<' 	c #8F6059",
"[' 	c #8D5D57",
"}' 	c #94625C",
"|' 	c #8A5852",
"1' 	c #8D5853",
"2' 	c #8C554F",
"3' 	c #8C524C",
"4' 	c #905550",
"5' 	c #874C47",
"6' 	c #8C514B",
"7' 	c #925751",
"8' 	c #8E4F50",
"9' 	c #844547",
"0' 	c #975A5B",
"a' 	c #985C5D",
"b' 	c #844B4B",
"c' 	c #7D4143",
"d' 	c #824649",
"e' 	c #8C5053",
"f' 	c #8E5355",
"g' 	c #8B5254",
"h' 	c #8D5557",
"i' 	c #976062",
"j' 	c #803D38",
"k' 	c #874540",
"l' 	c #8D4C46",
"m' 	c #94534D",
"n' 	c #904F49",
"o' 	c #8C4C46",
"p' 	c #8B4C45",
"q' 	c #8C5048",
"r' 	c #8B4F46",
"s' 	c #894D45",
"t' 	c #8E534C",
"u' 	c #8E554D",
"v' 	c #8C534C",
"w' 	c #894D46",
"x' 	c #894E47",
"y' 	c #7E4740",
"z' 	c #76413A",
"A' 	c #7B4841",
"B' 	c #72423B",
"C' 	c #693C36",
"D' 	c #673C36",
"E' 	c #623934",
"F' 	c #5A332E",
"G' 	c #532D29",
"H' 	c #482520",
"I' 	c #391612",
"J' 	c #361511",
"K' 	c #3C1B17",
"L' 	c #3C1C18",
"M' 	c #42231E",
"N' 	c #42221E",
"O' 	c #40201C",
"P' 	c #472621",
"Q' 	c #44211C",
"R' 	c #482723",
"S' 	c #4C2C2B",
"T' 	c #502F2E",
"U' 	c #523432",
"V' 	c #5B4140",
"W' 	c #726061",
"X' 	c #8C8587",
"Y' 	c #929296",
"Z' 	c #A29EA1",
"`' 	c #7E5B5A",
" ) 	c #895959",
".) 	c #894D4B",
"+) 	c #94615B",
"@) 	c #995F56",
"#) 	c #9B5F52",
"$) 	c #915446",
"%) 	c #8A4C3E",
"&) 	c #8A4B3C",
"*) 	c #8B4C3D",
"=) 	c #915243",
"-) 	c #9A5B4C",
";) 	c #935547",
">) 	c #8F5145",
",) 	c #9F5F54",
"') 	c #98594E",
")) 	c #9C5F53",
"!) 	c #97594E",
"~) 	c #8B4E43",
"{) 	c #92584B",
"]) 	c #865244",
"^) 	c #855143",
"/) 	c #875144",
"() 	c #864F41",
"_) 	c #7B4337",
":) 	c #713A2E",
"<) 	c #6D392C",
"[) 	c #6B3A2E",
"}) 	c #6E3C34",
"|) 	c #6A3831",
"1) 	c #60302A",
"2) 	c #5F2F29",
"3) 	c #572722",
"4) 	c #542420",
"5) 	c #4E201A",
"6) 	c #4C221A",
"7) 	c #482117",
"8) 	c #512920",
"9) 	c #542922",
"0) 	c #532927",
"a) 	c #4C2A2A",
"b) 	c #5B4B4A",
"c) 	c #736F6E",
"d) 	c #817E81",
"e) 	c #8D8080",
"f) 	c #765F5C",
"g) 	c #7E5650",
"h) 	c #7F544E",
"i) 	c #7F5551",
"j) 	c #846160",
"k) 	c #8B625F",
"l) 	c #8E605B",
"m) 	c #8A5A56",
"n) 	c #976762",
"o) 	c #91605B",
"p) 	c #93625E",
"q) 	c #93615C",
"r) 	c #8C5853",
"s) 	c #8D5350",
"t) 	c #834745",
"u) 	c #864A48",
"v) 	c #8B4F4C",
"w) 	c #945855",
"x) 	c #995C5A",
"y) 	c #8E4E4F",
"z) 	c #814144",
"A) 	c #985A5C",
"B) 	c #995B5D",
"C) 	c #925657",
"D) 	c #884D4E",
"E) 	c #854B4C",
"F) 	c #804647",
"G) 	c #834748",
"H) 	c #8E5254",
"I) 	c #925658",
"J) 	c #894F4F",
"K) 	c #884E4F",
"L) 	c #965C5E",
"M) 	c #905451",
"N) 	c #8A4F4B",
"O) 	c #834644",
"P) 	c #894D4A",
"Q) 	c #894D49",
"R) 	c #864842",
"S) 	c #8C4D46",
"T) 	c #8F5047",
"U) 	c #8B4D43",
"V) 	c #8C4E44",
"W) 	c #8D5047",
"X) 	c #84463F",
"Y) 	c #7C413A",
"Z) 	c #662E27",
"`) 	c #6B362F",
" ! 	c #6C3B34",
".! 	c #62352E",
"+! 	c #5A3029",
"@! 	c #552E28",
"#! 	c #502D27",
"$! 	c #4B2A25",
"%! 	c #44241F",
"&! 	c #3B1C18",
"*! 	c #321410",
"=! 	c #2F120E",
"-! 	c #311512",
";! 	c #301511",
">! 	c #2F1511",
",! 	c #311713",
"'! 	c #341915",
")! 	c #361915",
"!! 	c #3A1C18",
"~! 	c #3D1F1B",
"{! 	c #41221F",
"]! 	c #472825",
"^! 	c #4C2E2C",
"/! 	c #4E3332",
"(! 	c #615052",
"_! 	c #857C81",
":! 	c #8C8B90",
"<! 	c #939195",
"[! 	c #745851",
"}! 	c #825954",
"|! 	c #8C594F",
"1! 	c #8C6053",
"2! 	c #8F6258",
"3! 	c #9C655F",
"4! 	c #9B615B",
"5! 	c #925750",
"6! 	c #9A5E56",
"7! 	c #9D6159",
"8! 	c #995D55",
"9! 	c #975B54",
"0! 	c #8B5048",
"a! 	c #925952",
"b! 	c #864D45",
"c! 	c #8F5750",
"d! 	c #8F5954",
"e! 	c #88544E",
"f! 	c #835049",
"g! 	c #824F47",
"h! 	c #7F4C44",
"i! 	c #7B4A42",
"j! 	c #77463D",
"k! 	c #64332A",
"l! 	c #5F3028",
"m! 	c #542821",
"n! 	c #4D211A",
"o! 	c #4B1F19",
"p! 	c #4B201A",
"q! 	c #482018",
"r! 	c #472118",
"s! 	c #4B241C",
"t! 	c #4B241D",
"u! 	c #4B2523",
"v! 	c #4B2D2C",
"w! 	c #584948",
"x! 	c #6B6767",
"y! 	c #787577",
"z! 	c #87797A",
"A! 	c #6F5454",
"B! 	c #764B45",
"C! 	c #7D4E47",
"D! 	c #7F4F4A",
"E! 	c #815656",
"F! 	c #825654",
"G! 	c #855652",
"H! 	c #925F5D",
"I! 	c #8E5B58",
"J! 	c #95625F",
"K! 	c #925F5C",
"L! 	c #8E5957",
"M! 	c #8C5854",
"N! 	c #8B5853",
"O! 	c #8B5651",
"P! 	c #834E48",
"Q! 	c #87504C",
"R! 	c #8E5452",
"S! 	c #935956",
"T! 	c #864B4A",
"U! 	c #8C5250",
"V! 	c #905856",
"W! 	c #915A58",
"X! 	c #905C58",
"Y! 	c #8A5754",
"Z! 	c #8D5955",
"`! 	c #915C59",
" ~ 	c #8F5754",
".~ 	c #8D5553",
"+~ 	c #87514C",
"@~ 	c #854F4A",
"#~ 	c #945D59",
"$~ 	c #8E5350",
"%~ 	c #894F4B",
"&~ 	c #854A49",
"*~ 	c #8B504D",
"=~ 	c #8C504E",
"-~ 	c #884D4B",
";~ 	c #8C4C43",
">~ 	c #8E4F45",
",~ 	c #8A4B41",
"'~ 	c #8A4B42",
")~ 	c #894C43",
"!~ 	c #834940",
"~~ 	c #7E413A",
"{~ 	c #793F38",
"]~ 	c #632E27",
"^~ 	c #66342D",
"/~ 	c #653730",
"(~ 	c #5B312A",
"_~ 	c #532C25",
":~ 	c #492621",
"<~ 	c #442420",
"[~ 	c #3E211D",
"}~ 	c #371C18",
"|~ 	c #270E0B",
"1~ 	c #240C0A",
"2~ 	c #260F0D",
"3~ 	c #250F0C",
"4~ 	c #230E0B",
"5~ 	c #240F0B",
"6~ 	c #26100C",
"7~ 	c #28110D",
"8~ 	c #2A120E",
"9~ 	c #2E1511",
"0~ 	c #311613",
"a~ 	c #361B18",
"b~ 	c #3C201E",
"c~ 	c #412625",
"d~ 	c #442C2B",
"e~ 	c #564748",
"f~ 	c #766F73",
"g~ 	c #7D7B81",
"h~ 	c #89888C",
"i~ 	c #6D534C",
"j~ 	c #7A544E",
"k~ 	c #7F4E44",
"l~ 	c #85564B",
"m~ 	c #875C4F",
"n~ 	c #8B5F55",
"o~ 	c #96615B",
"p~ 	c #965E58",
"q~ 	c #8C544D",
"r~ 	c #8A504A",
"s~ 	c #995F57",
"t~ 	c #9C615A",
"u~ 	c #995E58",
"v~ 	c #975C55",
"w~ 	c #945952",
"x~ 	c #8D534D",
"y~ 	c #894F48",
"z~ 	c #935A52",
"A~ 	c #935A54",
"B~ 	c #864E46",
"C~ 	c #89514C",
"D~ 	c #8E5754",
"E~ 	c #88534F",
"F~ 	c #804E49",
"G~ 	c #7D4943",
"H~ 	c #784740",
"I~ 	c #74443D",
"J~ 	c #6F4039",
"K~ 	c #663831",
"L~ 	c #5F3128",
"M~ 	c #592D25",
"N~ 	c #532921",
"O~ 	c #4D251E",
"P~ 	c #451D17",
"Q~ 	c #411A15",
"R~ 	c #401B15",
"S~ 	c #3E1A14",
"T~ 	c #3D1B14",
"U~ 	c #401F18",
"V~ 	c #401D18",
"W~ 	c #3F1F1D",
"X~ 	c #493030",
"Y~ 	c #574A48",
"Z~ 	c #635F5F",
"`~ 	c #706C6F",
" { 	c #7E6F71",
".{ 	c #674E4D",
"+{ 	c #6F4540",
"@{ 	c #784943",
"#{ 	c #7D4C47",
"${ 	c #7E514F",
"%{ 	c #825452",
"&{ 	c #83534F",
"*{ 	c #8F5C5A",
"={ 	c #8F5B58",
"-{ 	c #925E5A",
";{ 	c #8D5B56",
">{ 	c #8E5D55",
",{ 	c #8E5C56",
"'{ 	c #8B5751",
"){ 	c #87534C",
"!{ 	c #8E5551",
"~{ 	c #915853",
"{{ 	c #874D4B",
"]{ 	c #89524F",
"^{ 	c #905B57",
"/{ 	c #915E59",
"({ 	c #8C5954",
"_{ 	c #8F5A55",
":{ 	c #8D5752",
"<{ 	c #86524B",
"[{ 	c #85504A",
"}{ 	c #945E58",
"|{ 	c #894F4D",
"1{ 	c #884E4C",
"2{ 	c #8D5352",
"3{ 	c #874E4D",
"4{ 	c #8A4A40",
"5{ 	c #8C4A3F",
"6{ 	c #87473D",
"7{ 	c #86483C",
"8{ 	c #84463B",
"9{ 	c #80453B",
"0{ 	c #7C4238",
"a{ 	c #783B33",
"b{ 	c #783E37",
"c{ 	c #642F29",
"d{ 	c #61312A",
"e{ 	c #5E322B",
"f{ 	c #552E26",
"g{ 	c #4C2822",
"h{ 	c #3D1E19",
"i{ 	c #371A17",
"j{ 	c #321814",
"k{ 	c #2B1310",
"l{ 	c #230D0B",
"m{ 	c #1D0806",
"n{ 	c #1A0706",
"o{ 	c #1C0908",
"p{ 	c #1B0907",
"q{ 	c #1A0907",
"r{ 	c #1B0A07",
"s{ 	c #1C0A07",
"t{ 	c #1F0C09",
"u{ 	c #240E0B",
"v{ 	c #2C1512",
"w{ 	c #311816",
"x{ 	c #361D1C",
"y{ 	c #3B2524",
"z{ 	c #4C3D3F",
"A{ 	c #665F64",
"B{ 	c #6A686E",
"C{ 	c #7F7D82",
"D{ 	c #664F47",
"E{ 	c #704E46",
"F{ 	c #72463B",
"G{ 	c #7E5346",
"H{ 	c #80594B",
"I{ 	c #875D51",
"J{ 	c #8E5A53",
"K{ 	c #905A54",
"L{ 	c #8B554F",
"M{ 	c #88504B",
"N{ 	c #8E5650",
"O{ 	c #975F59",
"P{ 	c #98605B",
"Q{ 	c #925853",
"R{ 	c #935A53",
"S{ 	c #864C47",
"T{ 	c #854E48",
"U{ 	c #8A534D",
"V{ 	c #965E59",
"W{ 	c #87504A",
"X{ 	c #7D4844",
"Y{ 	c #8B5352",
"Z{ 	c #885351",
"`{ 	c #7F4D4A",
" ] 	c #75423E",
".] 	c #6F3D39",
"+] 	c #6B3B37",
"@] 	c #663833",
"#] 	c #5C3128",
"$] 	c #532C23",
"%] 	c #472119",
"&] 	c #45221B",
"*] 	c #3D1A14",
"=] 	c #381711",
"-] 	c #351510",
";] 	c #32130F",
">] 	c #321510",
",] 	c #351914",
"'] 	c #341712",
")] 	c #321715",
"!] 	c #493433",
"~] 	c #584B4A",
"{] 	c #5C5959",
"]] 	c #696368",
"^] 	c #746467",
"/] 	c #5E4545",
"(] 	c #683E3A",
"_] 	c #72433D",
":] 	c #7A4843",
"<] 	c #855552",
"[] 	c #804F4A",
"}] 	c #8B5854",
"|] 	c #915D59",
"1] 	c #97625D",
"2] 	c #935F5A",
"3] 	c #915C57",
"4] 	c #925E57",
"5] 	c #94645B",
"6] 	c #94635B",
"7] 	c #89574F",
"8] 	c #8E5B52",
"9] 	c #8B574F",
"0] 	c #8D5650",
"a] 	c #8E5750",
"b] 	c #8A514D",
"c] 	c #844D49",
"d] 	c #916059",
"e] 	c #8D5C55",
"f] 	c #895851",
"g] 	c #89564E",
"h] 	c #8A564F",
"i] 	c #8A564E",
"j] 	c #85534A",
"k] 	c #85524A",
"l] 	c #935F57",
"m] 	c #995D57",
"n] 	c #985D57",
"o] 	c #834943",
"p] 	c #8B4F49",
"q] 	c #854942",
"r] 	c #81463D",
"s] 	c #7D4238",
"t] 	c #7C4239",
"u] 	c #7C453C",
"v] 	c #75423A",
"w] 	c #77433F",
"x] 	c #6F3E3A",
"y] 	c #5A2D2A",
"z] 	c #572E2B",
"A] 	c #522D29",
"B] 	c #482824",
"C] 	c #412521",
"D] 	c #371E1C",
"E] 	c #2E1816",
"F] 	c #271413",
"G] 	c #21100F",
"H] 	c #1C0C0C",
"I] 	c #160808",
"J] 	c #120605",
"K] 	c #100404",
"L] 	c #0F0504",
"M] 	c #100504",
"N] 	c #130705",
"O] 	c #160806",
"P] 	c #1B0B09",
"Q] 	c #1F0D0B",
"R] 	c #25120F",
"S] 	c #2C1817",
"T] 	c #311E1D",
"U] 	c #3C2F31",
"V] 	c #534D52",
"W] 	c #605E64",
"X] 	c #615E62",
"Y] 	c #5E433F",
"Z] 	c #633F3A",
"`] 	c #73473F",
" ^ 	c #7A5045",
".^ 	c #7C5349",
"+^ 	c #85574F",
"@^ 	c #8E5951",
"#^ 	c #8E594F",
"$^ 	c #864F45",
"%^ 	c #8A5147",
"&^ 	c #935B50",
"*^ 	c #9D6458",
"=^ 	c #9F655A",
"-^ 	c #995F54",
";^ 	c #995D53",
">^ 	c #95584E",
",^ 	c #9C6156",
"'^ 	c #864C43",
")^ 	c #824A3F",
"!^ 	c #8A5148",
"~^ 	c #7E433D",
"{^ 	c #7F4540",
"]^ 	c #733C36",
"^^ 	c #67322C",
"/^ 	c #5F2E26",
"(^ 	c #592A24",
"_^ 	c #512721",
":^ 	c #3F1C15",
"<^ 	c #3B1B15",
"[^ 	c #391B15",
"}^ 	c #2C110C",
"|^ 	c #2B110C",
"1^ 	c #28110E",
"2^ 	c #260E0C",
"3^ 	c #250F0D",
"4^ 	c #200D09",
"5^ 	c #210C0A",
"6^ 	c #251110",
"7^ 	c #281817",
"8^ 	c #3E3636",
"9^ 	c #575355",
"0^ 	c #625B60",
"a^ 	c #63545A",
"b^ 	c #533C3F",
"c^ 	c #5C3635",
"d^ 	c #653A38",
"e^ 	c #693C38",
"f^ 	c #6F413D",
"g^ 	c #714440",
"h^ 	c #7C4E4A",
"i^ 	c #845652",
"j^ 	c #905F5B",
"k^ 	c #8E5C58",
"l^ 	c #8A5851",
"m^ 	c #8C5851",
"n^ 	c #8F5953",
"o^ 	c #8D5750",
"p^ 	c #905852",
"q^ 	c #975D58",
"r^ 	c #965B59",
"s^ 	c #874E4C",
"t^ 	c #8C5753",
"u^ 	c #8F5A56",
"v^ 	c #8A544F",
"w^ 	c #8B544F",
"x^ 	c #8C5550",
"y^ 	c #915A55",
"z^ 	c #925C56",
"A^ 	c #9A5E57",
"B^ 	c #834941",
"C^ 	c #884E46",
"D^ 	c #844942",
"E^ 	c #7B433C",
"F^ 	c #7A433B",
"G^ 	c #7B463E",
"H^ 	c #78443C",
"I^ 	c #77453E",
"J^ 	c #6E3F3C",
"K^ 	c #663937",
"L^ 	c #542B29",
"M^ 	c #4E2A28",
"N^ 	c #472725",
"O^ 	c #3F2422",
"P^ 	c #371F1D",
"Q^ 	c #2D1918",
"R^ 	c #241312",
"S^ 	c #1D0E0D",
"T^ 	c #180B0A",
"U^ 	c #130707",
"V^ 	c #0D0504",
"W^ 	c #0A0303",
"X^ 	c #070202",
"Y^ 	c #060202",
"Z^ 	c #090303",
"`^ 	c #0D0403",
" / 	c #110605",
"./ 	c #150806",
"+/ 	c #1B0C0A",
"@/ 	c #211110",
"#/ 	c #251616",
"$/ 	c #2F2527",
"%/ 	c #453F43",
"&/ 	c #525056",
"*/ 	c #534F54",
"=/ 	c #563C39",
"-/ 	c #593734",
";/ 	c #69413B",
">/ 	c #714A41",
",/ 	c #734C44",
"'/ 	c #7E514B",
")/ 	c #86534B",
"!/ 	c #875549",
"~/ 	c #845044",
"{/ 	c #925B50",
"]/ 	c #9B6357",
"^/ 	c #9E6458",
"// 	c #9A6053",
"(/ 	c #985D53",
"_/ 	c #9B5E53",
":/ 	c #9D6257",
"</ 	c #91574C",
"[/ 	c #83493E",
"}/ 	c #82493E",
"|/ 	c #885047",
"1/ 	c #7C433C",
"2/ 	c #703B34",
"3/ 	c #643029",
"4/ 	c #5D2B24",
"5/ 	c #582821",
"6/ 	c #51261F",
"7/ 	c #49221D",
"8/ 	c #341611",
"9/ 	c #311510",
"0/ 	c #2D1410",
"a/ 	c #1F0A06",
"b/ 	c #1F0A07",
"c/ 	c #1E0B0A",
"d/ 	c #1A0807",
"e/ 	c #170806",
"f/ 	c #190A08",
"g/ 	c #1D0F0F",
"h/ 	c #322D2D",
"i/ 	c #4D494B",
"j/ 	c #575156",
"k/ 	c #594B51",
"l/ 	c #4B363A",
"m/ 	c #523030",
"n/ 	c #5A3332",
"o/ 	c #613633",
"p/ 	c #693E39",
"q/ 	c #6C423F",
"r/ 	c #764B49",
"s/ 	c #7F5350",
"t/ 	c #855855",
"u/ 	c #875A57",
"v/ 	c #8C5D5A",
"w/ 	c #8B5C59",
"x/ 	c #885853",
"y/ 	c #895650",
"z/ 	c #8F5552",
"A/ 	c #985F5B",
"B/ 	c #854B4B",
"C/ 	c #864D4D",
"D/ 	c #8D5756",
"E/ 	c #8F5A58",
"F/ 	c #8B5755",
"G/ 	c #895451",
"H/ 	c #895350",
"I/ 	c #89534F",
"J/ 	c #8A5450",
"K/ 	c #8F5955",
"L/ 	c #935D58",
"M/ 	c #935D59",
"N/ 	c #955C53",
"O/ 	c #8C544A",
"P/ 	c #864D44",
"Q/ 	c #82493F",
"R/ 	c #804840",
"S/ 	c #7C463F",
"T/ 	c #7D4A44",
"U/ 	c #7E4D47",
"V/ 	c #794944",
"W/ 	c #70433E",
"X/ 	c #6E423D",
"Y/ 	c #734944",
"Z/ 	c #6D4541",
"`/ 	c #542F2E",
" ( 	c #4B2A29",
".( 	c #402422",
"+( 	c #392422",
"@( 	c #2B1918",
"#( 	c #211212",
"$( 	c #1A0D0D",
"%( 	c #130909",
"&( 	c #0D0505",
"*( 	c #050202",
"=( 	c #040101",
"-( 	c #020101",
";( 	c #030101",
">( 	c #080303",
",( 	c #0C0504",
"'( 	c #110706",
")( 	c #140908",
"!( 	c #170C0C",
"~( 	c #20181A",
"{( 	c #333033",
"]( 	c #414145",
"^( 	c #464347",
"/( 	c #503938",
"(( 	c #4E2F2F",
"_( 	c #5A3532",
":( 	c #65433D",
"<( 	c #724744",
"[( 	c #73433D",
"}( 	c #7A4B3F",
"|( 	c #865449",
"1( 	c #8C594C",
"2( 	c #915E51",
"3( 	c #976053",
"4( 	c #986054",
"5( 	c #9A6255",
"6( 	c #94594D",
"7( 	c #8E544A",
"8( 	c #844D41",
"9( 	c #814B41",
"0( 	c #834C45",
"a( 	c #65342D",
"b( 	c #582922",
"c( 	c #4F231C",
"d( 	c #48211A",
"e( 	c #411E19",
"f( 	c #2E1513",
"g( 	c #27120F",
"h( 	c #180705",
"i( 	c #0C0202",
"j( 	c #0F0302",
"k( 	c #120606",
"l( 	c #0B0303",
"m( 	c #040100",
"n( 	c #0E0504",
"o( 	c #150A09",
"p( 	c #180C0C",
"q( 	c #150B0B",
"r( 	c #282525",
"s( 	c #423F41",
"t( 	c #4A4549",
"u( 	c #4E4348",
"v( 	c #3F2E32",
"w( 	c #412527",
"x( 	c #462626",
"y( 	c #522F2D",
"z( 	c #5B3734",
"A( 	c #6A4645",
"B( 	c #6A4744",
"C( 	c #714D4B",
"D( 	c #795251",
"E( 	c #7F5957",
"F( 	c #7E5755",
"G( 	c #815957",
"H( 	c #845855",
"I( 	c #875552",
"J( 	c #8E5B59",
"K( 	c #8B5655",
"L( 	c #8E5656",
"M( 	c #91595A",
"N( 	c #9A6161",
"O( 	c #884E52",
"P( 	c #7B4446",
"Q( 	c #7A4345",
"R( 	c #8C5558",
"S( 	c #905B5E",
"T( 	c #915E60",
"U( 	c #885556",
"V( 	c #845051",
"W( 	c #855150",
"X( 	c #85514F",
"Y( 	c #834E4D",
"Z( 	c #834D4D",
"`( 	c #8F5C59",
" _ 	c #905A5A",
"._ 	c #795656",
"+_ 	c #886667",
"@_ 	c #8C6C6D",
"#_ 	c #947474",
"$_ 	c #937374",
"%_ 	c #8D6F72",
"&_ 	c #8A6F71",
"*_ 	c #866C6E",
"=_ 	c #7F6668",
"-_ 	c #755E5E",
";_ 	c #715A5B",
">_ 	c #6F5859",
",_ 	c #6D5759",
"'_ 	c #614E54",
")_ 	c #5A474C",
"!_ 	c #5F4F53",
"~_ 	c #504347",
"{_ 	c #413639",
"]_ 	c #392F31",
"^_ 	c #2F282A",
"/_ 	c #251F20",
"(_ 	c #1B1717",
"__ 	c #130F10",
":_ 	c #0C0A0A",
"<_ 	c #070505",
"[_ 	c #040303",
"}_ 	c #030202",
"|_ 	c #020102",
"1_ 	c #010101",
"2_ 	c #020202",
"3_ 	c #070506",
"4_ 	c #0B0708",
"5_ 	c #100C0C",
"6_ 	c #150F10",
"7_ 	c #191313",
"8_ 	c #221D1E",
"9_ 	c #313032",
"0_ 	c #3D3D40",
"a_ 	c #444447",
"b_ 	c #4A3F42",
"c_ 	c #493A3C",
"d_ 	c #4D3B3B",
"e_ 	c #5D4C4A",
"f_ 	c #594846",
"g_ 	c #695053",
"h_ 	c #5F4143",
"i_ 	c #7A5F5C",
"j_ 	c #816561",
"k_ 	c #917371",
"l_ 	c #8B6C68",
"m_ 	c #80605C",
"n_ 	c #866460",
"o_ 	c #8B6864",
"p_ 	c #8E6966",
"q_ 	c #8A6460",
"r_ 	c #936D6B",
"s_ 	c #997370",
"t_ 	c #745250",
"u_ 	c #7C5957",
"v_ 	c #765552",
"w_ 	c #664444",
"x_ 	c #634645",
"y_ 	c #553837",
"z_ 	c #4C3130",
"A_ 	c #452B2A",
"B_ 	c #3C2422",
"C_ 	c #321F1E",
"D_ 	c #221617",
"E_ 	c #1E1415",
"F_ 	c #1A1213",
"G_ 	c #171112",
"H_ 	c #140F0F",
"I_ 	c #0F0B0B",
"J_ 	c #0B0707",
"K_ 	c #080506",
"L_ 	c #090707",
"M_ 	c #0B0909",
"N_ 	c #100D0D",
"O_ 	c #191415",
"P_ 	c #221D1F",
"Q_ 	c #2D2B2D",
"R_ 	c #3B3A3D",
"S_ 	c #454446",
"T_ 	c #4D484C",
"U_ 	c #524B4F",
"V_ 	c #5E5357",
"W_ 	c #675B5F",
"X_ 	c #6E6063",
"Y_ 	c #75696B",
"Z_ 	c #837377",
"`_ 	c #85757A",
" : 	c #8E7E82",
".: 	c #8E7C82",
"+: 	c #938086",
"@: 	c #9A888D",
"#: 	c #9E8C92",
"$: 	c #A28E93",
"%: 	c #A68E92",
"&: 	c #A58C90",
"*: 	c #A2888D",
"=: 	c #A2878C",
"-: 	c #9F8489",
";: 	c #84646A",
">: 	c #8F6E74",
",: 	c #7F5D66",
"': 	c #82616C",
"): 	c #92757E",
"!: 	c #8F727B",
"~: 	c #8C6F78",
"{: 	c #92767E",
"]: 	c #9F868E",
"^: 	c #9B8288",
"/: 	c #91767C",
"(: 	c #8E7276",
"_: 	c #8B6F74",
":: 	c #8A6E73",
"<: 	c #896D71",
"[: 	c #876B6F",
"}: 	c #8A6D73",
"|: 	c #735C60",
"1: 	c #775E63",
"2: 	c #8B7176",
"3: 	c #91787C",
"4: 	c #9B8285",
"5: 	c #9B8286",
"6: 	c #947E83",
"7: 	c #8F7C7F",
"8: 	c #8B777B",
"9: 	c #837073",
"0: 	c #79676A",
"a: 	c #726265",
"b: 	c #6F5E62",
"c: 	c #6D5D60",
"d: 	c #64555C",
"e: 	c #5A4D53",
"f: 	c #5E5257",
"g: 	c #4F454A",
"h: 	c #3F383C",
"i: 	c #342E31",
"j: 	c #2A2528",
"k: 	c #201D1E",
"l: 	c #161414",
"m: 	c #0E0C0C",
"n: 	c #070606",
"o: 	c #030303",
"p: 	c #010001",
"q: 	c #010000",
"r: 	c #060505",
"s: 	c #0A0708",
"t: 	c #0F0B0C",
"u: 	c #1B1819",
"v: 	c #292829",
"w: 	c #323335",
"x: 	c #3C3C3F",
"y: 	c #413A3E",
"z: 	c #43393C",
"A: 	c #463B3C",
"B: 	c #564C4B",
"C: 	c #544949",
"D: 	c #645256",
"E: 	c #594649",
"F: 	c #776363",
"G: 	c #7D6967",
"H: 	c #907878",
"I: 	c #877070",
"J: 	c #7A6463",
"K: 	c #826B6A",
"L: 	c #897171",
"M: 	c #8C7171",
"N: 	c #886C6C",
"O: 	c #937576",
"P: 	c #987A7A",
"Q: 	c #6F5658",
"R: 	c #755C5F",
"S: 	c #7B6061",
"T: 	c #745B5C",
"U: 	c #634D50",
"V: 	c #695658",
"W: 	c #604D4E",
"X: 	c #513E3F",
"Y: 	c #493636",
"Z: 	c #412E2F",
"`: 	c #372626",
" < 	c #2D1F20",
".< 	c #1F1718",
"+< 	c #1A1416",
"@< 	c #171213",
"#< 	c #141011",
"$< 	c #0F0D0D",
"%< 	c #090708",
"&< 	c #050404",
"*< 	c #040304",
"=< 	c #0A0808",
"-< 	c #131011",
";< 	c #1D1A1C",
">< 	c #282528",
",< 	c #323235",
"'< 	c #3E3D3F",
")< 	c #474447",
"!< 	c #514D50",
"~< 	c #60575C",
"{< 	c #696165",
"]< 	c #71686C",
"^< 	c #7A7174",
"/< 	c #897E82",
"(< 	c #8C8086",
"_< 	c #968A90",
":< 	c #96888F",
"<< 	c #9A8D94",
"[< 	c #A3959C",
"}< 	c #A89AA3",
"|< 	c #AC9EA5",
"1< 	c #B0A0A4",
"2< 	c #AE9CA2",
"3< 	c #AC99A0",
"4< 	c #AD999F",
"5< 	c #A8949A",
"6< 	c #87727A",
"7< 	c #907981",
"8< 	c #836D76",
"9< 	c #8B737F",
"0< 	c #9E8992",
"a< 	c #96828B",
"b< 	c #917E87",
"c< 	c #97858E",
"d< 	c #A8969F",
"e< 	c #A4929A",
"f< 	c #99868D",
"g< 	c #948187",
"h< 	c #927E84",
"i< 	c #907C82",
"j< 	c #8E7B81",
"k< 	c #88757C",
"l< 	c #8B777E",
"m< 	c #978A96",
"n< 	c #978B97",
"o< 	c #9C8F9C",
"p< 	c #A194A0",
"q< 	c #AA9DAA",
"r< 	c #ACA0AB",
"s< 	c #A99DA6",
"t< 	c #A1959D",
"u< 	c #988E94",
"v< 	c #948A90",
"w< 	c #8E848A",
"x< 	c #82787E",
"y< 	c #857A81",
"z< 	c #7D7379",
"A< 	c #726A73",
"B< 	c #665E67",
"C< 	c #534C54",
"D< 	c #484349",
"E< 	c #413D42",
"F< 	c #302E32",
"G< 	c #232124",
"H< 	c #1B1B1C",
"I< 	c #121212",
"J< 	c #090909",
"K< 	c #040404",
"L< 	c #000000",
"M< 	c #060506",
"N< 	c #0B0A0A",
"O< 	c #120F10",
"P< 	c #181617",
"Q< 	c #212021",
"R< 	c #242627",
"S< 	c #323537",
"T< 	c #363539",
"U< 	c #464346",
"V< 	c #4D4A4B",
"W< 	c #5A5958",
"X< 	c #5A5959",
"Y< 	c #6D666A",
"Z< 	c #766C72",
"`< 	c #776F74",
" [ 	c #7F777C",
".[ 	c #8C8388",
"+[ 	c #8D8288",
"@[ 	c #8C8187",
"#[ 	c #A69BA2",
"$[ 	c #A2969D",
"%[ 	c #A6979F",
"&[ 	c #96878E",
"*[ 	c #93848C",
"=[ 	c #A29299",
"-[ 	c #A19098",
";[ 	c #8C7E85",
">[ 	c #85767D",
",[ 	c #8E858D",
"'[ 	c #8C8189",
")[ 	c #786D74",
"![ 	c #645A5F",
"~[ 	c #564D51",
"{[ 	c #4A4144",
"][ 	c #3E3639",
"^[ 	c #322B2E",
"/[ 	c #262125",
"([ 	c #211D20",
"_[ 	c #191719",
":[ 	c #121012",
"<[ 	c #0D0C0D",
"[[ 	c #070707",
"}[ 	c #100E0F",
"|[ 	c #181517",
"1[ 	c #1F1E21",
"2[ 	c #292A2C",
"3[ 	c #333335",
"4[ 	c #3E3E40",
"5[ 	c #4C4B4E",
"6[ 	c #5C5A5E",
"7[ 	c #616064",
"8[ 	c #706E73",
"9[ 	c #787A7D",
"0[ 	c #918F95",
"a[ 	c #99969D",
"b[ 	c #A7A2AA",
"c[ 	c #A9A4AD",
"d[ 	c #ADA8B1",
"e[ 	c #B3ADB6",
"f[ 	c #BDB6C0",
"g[ 	c #C2BDC5",
"h[ 	c #C2BFC5",
"i[ 	c #C1BEC4",
"j[ 	c #C4C0C7",
"k[ 	c #C5BFC7",
"l[ 	c #BEB8BF",
"m[ 	c #B8AFB7",
"n[ 	c #B3AAB2",
"o[ 	c #B5AAB5",
"p[ 	c #B8AEB9",
"q[ 	c #C3BAC5",
"r[ 	c #BBB5BF",
"s[ 	c #B9B5BE",
"t[ 	c #BCB9C1",
"u[ 	c #BAB6BF",
"v[ 	c #B7B3BB",
"w[ 	c #B6B2B9",
"x[ 	c #B4AFB6",
"y[ 	c #AEA8AF",
"z[ 	c #ACA6AE",
"A[ 	c #AEA9B1",
"B[ 	c #A49FA7",
"C[ 	c #9F99A0",
"D[ 	c #AA9A9D",
"E[ 	c #B8A8AB",
"F[ 	c #C3B2B5",
"G[ 	c #C8B7B9",
"H[ 	c #C7B7B9",
"I[ 	c #C1B0B3",
"J[ 	c #BCACAF",
"K[ 	c #B6A6AB",
"L[ 	c #B1A2A7",
"M[ 	c #AFA3A6",
"N[ 	c #ADA1A4",
"O[ 	c #A09698",
"P[ 	c #948A8D",
"Q[ 	c #867D80",
"R[ 	c #7C7575",
"S[ 	c #6D6365",
"T[ 	c #5D5559",
"U[ 	c #49474B",
"V[ 	c #393A3E",
"W[ 	c #2F2F32",
"X[ 	c #222122",
"Y[ 	c #181616",
"Z[ 	c #131111",
"`[ 	c #1B1918",
" } 	c #242222",
".} 	c #2F2C2D",
"+} 	c #393637",
"@} 	c #484344",
"#} 	c #4F4949",
"$} 	c #5E5656",
"%} 	c #645A5A",
"&} 	c #7A6C6D",
"*} 	c #827174",
"=} 	c #8B797B",
"-} 	c #958384",
";} 	c #9E8A8C",
">} 	c #A38F90",
",} 	c #AB9697",
"'} 	c #B9A4A5",
")} 	c #C3AFB1",
"!} 	c #BCABAB",
"~} 	c #BAABAB",
"{} 	c #C7B6B6",
"]} 	c #CEBCBD",
"^} 	c #BFAFB2",
"/} 	c #B8ADB3",
"(} 	c #939199",
"_} 	c #96959E",
":} 	c #9F9A9F",
"<} 	c #999295",
"[} 	c #888083",
"}} 	c #7A7070",
"|} 	c #6D6362",
"1} 	c #5D5554",
"2} 	c #4D4645",
"3} 	c #413B3B",
"4} 	c #342F30",
"5} 	c #282425",
"6} 	c #0C0B0B",
"7} 	c #050505",
"8} 	c #131112",
"9} 	c #1C191A",
"0} 	c #292527",
"a} 	c #312D2D",
"b} 	c #363131",
"c} 	c #463F40",
"d} 	c #584F50",
"e} 	c #635959",
"f} 	c #766B6A",
"g} 	c #7C706F",
"h} 	c #8C7F7F",
"i} 	c #948687",
"j} 	c #A49495",
"k} 	c #9F8F91",
"l} 	c #A79898",
"m} 	c #AA9A9B",
"n} 	c #AD9D9F",
"o} 	c #BDAAAB",
"p} 	c #CBB8B7",
"q} 	c #CCBCBB",
"r} 	c #CEC0C0",
"s} 	c #D8CCCC",
"t} 	c #ADA8AE",
"u} 	c #AEABB3",
"v} 	c #D2CBCD",
"w} 	c #CFC3C5",
"x} 	c #D1BABD",
"y} 	c #CCB5B7",
"z} 	c #BDACAC",
"A} 	c #C0AFB1",
"B} 	c #C0ABAF",
"C} 	c #C3B1B5",
"D} 	c #C8BCBC",
"E} 	c #CBC2C0",
"F} 	c #CEC3C1",
"G} 	c #C8BCB9",
"H} 	c #CDBFBD",
"I} 	c #CABAB8",
"J} 	c #AA9A98",
"K} 	c #B4A2A0",
"L} 	c #C9B7B5",
"M} 	c #D5C2C1",
"N} 	c #DAC6C5",
"O} 	c #D4C2C0",
"P} 	c #C9B6B5",
"Q} 	c #C4B2B3",
"R} 	c #C0AEB0",
"S} 	c #BCACAE",
"T} 	c #BBADAE",
"U} 	c #BAADAF",
"V} 	c #ADA2A2",
"W} 	c #998F90",
"X} 	c #888181",
"Y} 	c #7E7774",
"Z} 	c #5F5758",
"`} 	c #484649",
" | 	c #333639",
".| 	c #2C2D2F",
"+| 	c #201E1F",
"@| 	c #141111",
"#| 	c #131110",
"$| 	c #1D1B1A",
"%| 	c #252221",
"&| 	c #322F2F",
"*| 	c #413C3C",
"=| 	c #4A4343",
"-| 	c #584F4F",
";| 	c #615454",
">| 	c #786868",
",| 	c #8E7978",
"'| 	c #998281",
")| 	c #A08888",
"!| 	c #A8908F",
"~| 	c #B49B9A",
"{| 	c #C3AAA9",
"]| 	c #CDB5B4",
"^| 	c #C4B2AE",
"/| 	c #C0B2AE",
"(| 	c #DBC7C5",
"_| 	c #E6D2D0",
":| 	c #CCBCBE",
"<| 	c #C3B9BF",
"[| 	c #989BA4",
"}| 	c #9FA4AD",
"|| 	c #A6A3A7",
"1| 	c #9D989A",
"2| 	c #8F8889",
"3| 	c #827876",
"4| 	c #756C69",
"5| 	c #645C59",
"6| 	c #514A48",
"7| 	c #443E3D",
"8| 	c #373132",
"9| 	c #292425",
"0| 	c #1F1D1D",
"a| 	c #141313",
"b| 	c #0A0909",
"c| 	c #040403",
"d| 	c #090808",
"e| 	c #171415",
"f| 	c #242020",
"g| 	c #2D2626",
"h| 	c #2E2625",
"i| 	c #3F3634",
"j| 	c #524544",
"k| 	c #61524F",
"l| 	c #766662",
"m| 	c #7A6763",
"n| 	c #87726F",
"o| 	c #8F7975",
"p| 	c #9F8984",
"q| 	c #967F7A",
"r| 	c #A18984",
"s| 	c #A28A85",
"t| 	c #A38985",
"u| 	c #B79B96",
"v| 	c #CEB0AA",
"w| 	c #CEB2AB",
"x| 	c #CFB7B1",
"y| 	c #D1BFB9",
"z| 	c #E4D5D2",
"A| 	c #A7A4A9",
"B| 	c #ABABB4",
"C| 	c #E1DBD9",
"D| 	c #DACDCA",
"E| 	c #D7B8B6",
"F| 	c #D3B4B0",
"G| 	c #BEA49E",
"H| 	c #C0A7A3",
"I| 	c #C1A1A2",
"J| 	c #C9AEAE",
"K| 	c #D0BFBB",
"L| 	c #D6CAC4",
"M| 	c #DECFC9",
"N| 	c #D5C5BE",
"O| 	c #DCC9C1",
"P| 	c #DBC7C0",
"Q| 	c #AF9891",
"R| 	c #A48383",
"S| 	c #AD8E8C",
"T| 	c #A07E7E",
"U| 	c #967474",
"V| 	c #856363",
"W| 	c #856263",
"X| 	c #866565",
"Y| 	c #866766",
"Z| 	c #795E5C",
"`| 	c #715857",
" 1 	c #6D5755",
".1 	c #574441",
"+1 	c #52413E",
"@1 	c #554744",
"#1 	c #4A3A39",
"$1 	c #493D3E",
"%1 	c #423D41",
"&1 	c #2D2E31",
"*1 	c #242426",
"=1 	c #151313",
"-1 	c #080505",
";1 	c #050303",
">1 	c #090605",
",1 	c #100A0A",
"'1 	c #1A1414",
")1 	c #21191A",
"!1 	c #312727",
"~1 	c #362A2A",
"{1 	c #2C1A1A",
"]1 	c #321C1D",
"^1 	c #371D1D",
"/1 	c #3E2222",
"(1 	c #432525",
"_1 	c #472727",
":1 	c #573533",
"<1 	c #633F3D",
"[1 	c #664241",
"}1 	c #5C3D3B",
"|1 	c #664847",
"11 	c #765554",
"21 	c #7C5B59",
"31 	c #9D8487",
"41 	c #A39196",
"51 	c #A09DA7",
"61 	c #A5A1AB",
"71 	c #8D7E84",
"81 	c #847477",
"91 	c #7D6E6E",
"01 	c #6E5C5B",
"a1 	c #655452",
"b1 	c #5A4D4B",
"c1 	c #493E3D",
"d1 	c #382E2D",
"e1 	c #292021",
"f1 	c #1C1415",
"g1 	c #110C0C",
"h1 	c #0C0909",
"i1 	c #0A0707",
"j1 	c #0B0505",
"k1 	c #110808",
"l1 	c #1B0F0F",
"m1 	c #261817",
"n1 	c #352423",
"o1 	c #331E1B",
"p1 	c #412A27",
"q1 	c #503330",
"r1 	c #5E403D",
"s1 	c #72534E",
"t1 	c #71504C",
"u1 	c #6A4642",
"v1 	c #724D47",
"w1 	c #805954",
"x1 	c #845B56",
"y1 	c #825751",
"z1 	c #805751",
"A1 	c #86625C",
"B1 	c #896B65",
"C1 	c #937A78",
"D1 	c #A99DA4",
"E1 	c #B8B2BB",
"F1 	c #B4A7A7",
"G1 	c #937B79",
"H1 	c #805553",
"I1 	c #845754",
"J1 	c #744C47",
"K1 	c #6F4743",
"L1 	c #714043",
"M1 	c #734246",
"N1 	c #794C4E",
"O1 	c #8D6263",
"P1 	c #A37778",
"Q1 	c #956666",
"R1 	c #855452",
"S1 	c #875554",
"T1 	c #844D4C",
"U1 	c #976B6B",
"V1 	c #9A7171",
"W1 	c #926666",
"X1 	c #8D5F5F",
"Y1 	c #865656",
"Z1 	c #875656",
"`1 	c #855857",
" 2 	c #865A57",
".2 	c #835A55",
"+2 	c #7C5550",
"@2 	c #74504C",
"#2 	c #6D4C48",
"$2 	c #5E413B",
"%2 	c #583D39",
"&2 	c #533E3B",
"*2 	c #463030",
"=2 	c #413233",
"-2 	c #3D3639",
";2 	c #2B2A2D",
">2 	c #120F0F",
",2 	c #060303",
"'2 	c #090404",
")2 	c #0F0909",
"!2 	c #160D0E",
"~2 	c #241818",
"{2 	c #281A1A",
"]2 	c #271111",
"^2 	c #2E1415",
"/2 	c #331414",
"(2 	c #3C1A1A",
"_2 	c #441F1E",
":2 	c #492121",
"<2 	c #532A27",
"[2 	c #5E3230",
"}2 	c #643835",
"|2 	c #683B38",
"12 	c #693B39",
"22 	c #6F413F",
"32 	c #784949",
"42 	c #7B4F4D",
"52 	c #8E7073",
"62 	c #9B8588",
"72 	c #9F99A1",
"82 	c #AAA3AB",
"92 	c #836C72",
"02 	c #786164",
"a2 	c #6E5858",
"b2 	c #604948",
"c2 	c #574240",
"d2 	c #4C3B39",
"e2 	c #3D2F2E",
"f2 	c #2E2121",
"g2 	c #221717",
"h2 	c #160D0D",
"i2 	c #0C0606",
"j2 	c #070404",
"k2 	c #040202",
"l2 	c #0F0505",
"m2 	c #1B0D0D",
"n2 	c #261514",
"o2 	c #311C1C",
"p2 	c #321817",
"q2 	c #422422",
"r2 	c #4C2B28",
"s2 	c #593432",
"t2 	c #6A433F",
"u2 	c #6D433F",
"v2 	c #6C3C39",
"w2 	c #764440",
"x2 	c #824E4A",
"y2 	c #86504B",
"z2 	c #89524C",
"A2 	c #85514A",
"B2 	c #8B5B55",
"C2 	c #8D6E6B",
"D2 	c #B0A1A6",
"E2 	c #BBB4BB",
"F2 	c #B9A1A2",
"G2 	c #8A6868",
"H2 	c #854C4A",
"I2 	c #834F49",
"J2 	c #804B47",
"K2 	c #844748",
"L2 	c #87484B",
"M2 	c #874D4E",
"N2 	c #8E5858",
"O2 	c #965C5C",
"P2 	c #8B4E4B",
"Q2 	c #8B4E4C",
"R2 	c #8B4B48",
"S2 	c #844141",
"T2 	c #7F3D3D",
"U2 	c #823F3F",
"V2 	c #834040",
"W2 	c #884646",
"X2 	c #894949",
"Y2 	c #884946",
"Z2 	c #874C44",
"`2 	c #824B44",
" 3 	c #7A4840",
".3 	c #70413A",
"+3 	c #683F38",
"@3 	c #603B34",
"#3 	c #513231",
"$3 	c #442627",
"%3 	c #392527",
"&3 	c #382F31",
"*3 	c #282628",
"=3 	c #1E1C1D",
"-3 	c #0E0404",
";3 	c #170808",
">3 	c #1B0808",
",3 	c #220A0A",
"'3 	c #2C0F0F",
")3 	c #31100F",
"!3 	c #3B1514",
"~3 	c #461D1C",
"{3 	c #4D201F",
"]3 	c #5A2B28",
"^3 	c #653330",
"/3 	c #693430",
"(3 	c #6D3632",
"_3 	c #773E3C",
":3 	c #783D3C",
"<3 	c #7C4040",
"[3 	c #7E4343",
"}3 	c #7D5355",
"|3 	c #937476",
"13 	c #9E949B",
"23 	c #B0A5AC",
"33 	c #765358",
"43 	c #6A4448",
"53 	c #5B3636",
"63 	c #4F2B29",
"73 	c #452422",
"83 	c #3A1E1D",
"93 	c #2E1716",
"03 	c #220F0F",
"a3 	c #1A0A09",
"b3 	c #110505",
"c3 	c #080202",
"d3 	c #020000",
"e3 	c #070101",
"f3 	c #0E0303",
"g3 	c #1B0C0C",
"h3 	c #251211",
"i3 	c #2E1514",
"j3 	c #331513",
"k3 	c #44211E",
"l3 	c #4B2320",
"m3 	c #552723",
"n3 	c #602D2A",
"o3 	c #6A3230",
"p3 	c #6F3230",
"q3 	c #7A3C39",
"r3 	c #82403D",
"s3 	c #813E3B",
"t3 	c #8A4642",
"u3 	c #945048",
"v3 	c #925650",
"w3 	c #8A5F5D",
"x3 	c #B8A5A8",
"y3 	c #BFB5BC",
"z3 	c #BF9C9E",
"A3 	c #814E50",
"B3 	c #8B4646",
"C3 	c #88423F",
"D3 	c #95554F",
"E3 	c #94544F",
"F3 	c #9A5152",
"G3 	c #9C5255",
"H3 	c #995253",
"I3 	c #924D4D",
"J3 	c #914C4A",
"K3 	c #995451",
"L3 	c #934C48",
"M3 	c #924B46",
"N3 	c #934C46",
"O3 	c #89433F",
"P3 	c #7B3532",
"Q3 	c #7D3735",
"R3 	c #823B39",
"S3 	c #904946",
"T3 	c #914C49",
"U3 	c #92504B",
"V3 	c #91514C",
"W3 	c #874D48",
"X3 	c #7E4943",
"Y3 	c #71403A",
"Z3 	c #623B36",
"`3 	c #4D2B2A",
" 4 	c #432424",
".4 	c #382626",
"+4 	c #332B2C",
"@4 	c #272627",
"#4 	c #1B1A1A",
"$4 	c #040201",
"%4 	c #050101",
"&4 	c #0A0302",
"*4 	c #160605",
"=4 	c #1E0908",
"-4 	c #250B09",
";4 	c #2E100E",
">4 	c #361311",
",4 	c #3E1715",
"'4 	c #491F1C",
")4 	c #522420",
"!4 	c #5B2B26",
"~4 	c #66322D",
"{4 	c #6D3832",
"]4 	c #783F39",
"^4 	c #7B3D38",
"/4 	c #7A3B39",
"(4 	c #773D3A",
"_4 	c #643B3A",
":4 	c #785D5E",
"<4 	c #A6A0A3",
"[4 	c #A9A1A4",
"}4 	c #6E4A4D",
"|4 	c #643C3D",
"14 	c #5A3333",
"24 	c #552F2C",
"34 	c #492724",
"44 	c #391C1A",
"54 	c #2B1312",
"64 	c #220F0D",
"74 	c #1B0A08",
"84 	c #1C0A08",
"94 	c #291210",
"04 	c #361916",
"a4 	c #42201C",
"b4 	c #48211D",
"c4 	c #50221E",
"d4 	c #592521",
"e4 	c #662D2A",
"f4 	c #70332F",
"g4 	c #823F3B",
"h4 	c #7F3934",
"i4 	c #843E37",
"j4 	c #8F4B40",
"k4 	c #904C43",
"l4 	c #834E47",
"m4 	c #7D534E",
"n4 	c #AC9E9F",
"o4 	c #AFABB0",
"p4 	c #C8A3A4",
"q4 	c #8A5858",
"r4 	c #995351",
"s4 	c #904A44",
"t4 	c #915147",
"u4 	c #894940",
"v4 	c #924A46",
"w4 	c #944C49",
"x4 	c #8D4A45",
"y4 	c #85453F",
"z4 	c #874841",
"A4 	c #905249",
"B4 	c #83443A",
"C4 	c #894A3F",
"D4 	c #88493D",
"E4 	c #84403B",
"F4 	c #793430",
"G4 	c #813C37",
"H4 	c #833E39",
"I4 	c #8E4945",
"J4 	c #8F4B47",
"K4 	c #8D4C47",
"L4 	c #8E4F4B",
"M4 	c #8D504D",
"N4 	c #7D4845",
"O4 	c #6F3F3C",
"P4 	c #643935",
"Q4 	c #5D3733",
"R4 	c #4B2929",
"S4 	c #422424",
"T4 	c #342322",
"U4 	c #302929",
"V4 	c #242425",
"W4 	c #191818",
"X4 	c #0D0A0A",
"Y4 	c #060201",
"Z4 	c #090202",
"`4 	c #110403",
" 5 	c #180605",
".5 	c #1F0907",
"+5 	c #280E0B",
"@5 	c #2F100D",
"#5 	c #371510",
"$5 	c #411B17",
"%5 	c #4A211C",
"&5 	c #532821",
"*5 	c #68362F",
"=5 	c #773D36",
"-5 	c #773D38",
";5 	c #78413C",
">5 	c #593231",
",5 	c #816A69",
"'5 	c #A4A2A4",
")5 	c #A39FA1",
"!5 	c #6C494B",
"~5 	c #613B3A",
"{5 	c #583331",
"]5 	c #522E2A",
"^5 	c #472622",
"/5 	c #381D19",
"(5 	c #2B1512",
"_5 	c #200E0C",
":5 	c #180806",
"<5 	c #0E0403",
"[5 	c #070201",
"}5 	c #030100",
"|5 	c #060101",
"15 	c #130706",
"25 	c #1A0908",
"35 	c #26110E",
"45 	c #331815",
"55 	c #3E1F1A",
"65 	c #44201A",
"75 	c #4F241F",
"85 	c #572621",
"95 	c #632D28",
"05 	c #6C322D",
"a5 	c #7A3C36",
"b5 	c #7E3E38",
"c5 	c #7F3B35",
"d5 	c #823F36",
"e5 	c #89483B",
"f5 	c #8B4A3E",
"g5 	c #84483E",
"h5 	c #7D4942",
"i5 	c #79504B",
"j5 	c #AB9FA0",
"k5 	c #ADADB1",
"l5 	c #BB9A9A",
"m5 	c #825252",
"n5 	c #975350",
"o5 	c #924F48",
"p5 	c #8E5045",
"q5 	c #87493E",
"r5 	c #944C47",
"s5 	c #8E4A43",
"t5 	c #87453E",
"u5 	c #88463F",
"v5 	c #915047",
"w5 	c #834237",
"x5 	c #89493C",
"y5 	c #894A3C",
"z5 	c #77372E",
"A5 	c #75342C",
"B5 	c #8A483F",
"C5 	c #86443C",
"D5 	c #8A4941",
"E5 	c #884741",
"F5 	c #7F403C",
"G5 	c #844747",
"H5 	c #824B4C",
"I5 	c #7A4848",
"J5 	c #6D4040",
"K5 	c #5F3535",
"L5 	c #522D2D",
"M5 	c #492928",
"N5 	c #412424",
"O5 	c #2C1E1D",
"P5 	c #2A2726",
"Q5 	c #222424",
"R5 	c #171717",
"S5 	c #100E0D",
"T5 	c #0C0302",
"U5 	c #110503",
"V5 	c #1A0805",
"W5 	c #210C08",
"X5 	c #260C08",
"Y5 	c #2E120C",
"Z5 	c #37160F",
"`5 	c #411E16",
" 6 	c #4D261D",
".6 	c #572E24",
"+6 	c #62352A",
"@6 	c #6C3A30",
"#6 	c #733E34",
"$6 	c #77433A",
"%6 	c #7D4C43",
"&6 	c #43231C",
"*6 	c #968683",
"=6 	c #A0A7A8",
"-6 	c #9A9D9E",
";6 	c #6A4C4A",
">6 	c #5B3A35",
",6 	c #56342F",
"'6 	c #4D2D27",
")6 	c #43261F",
"!6 	c #381F1A",
"~6 	c #2D1914",
"{6 	c #1F0F0B",
"]6 	c #120503",
"^6 	c #0B0302",
"/6 	c #050201",
"(6 	c #090302",
"_6 	c #1A0B09",
":6 	c #24110E",
"<6 	c #2F1813",
"[6 	c #381C17",
"}6 	c #3F1E17",
"|6 	c #4F2821",
"16 	c #572B24",
"26 	c #5E2E26",
"36 	c #643127",
"46 	c #6D372D",
"56 	c #773E33",
"66 	c #7E4136",
"76 	c #7D4134",
"86 	c #7B4130",
"96 	c #7E4333",
"06 	c #783F35",
"a6 	c #703E36",
"b6 	c #734C49",
"c6 	c #A8A1A1",
"d6 	c #ACB2B5",
"e6 	c #957C7B",
"f6 	c #6A3E3C",
"g6 	c #8F514C",
"h6 	c #975950",
"i6 	c #874F3F",
"j6 	c #844B3B",
"k6 	c #8D4C40",
"l6 	c #944D45",
"m6 	c #954B44",
"n6 	c #8F443E",
"o6 	c #8E443C",
"p6 	c #964C43",
"q6 	c #853F33",
"r6 	c #8B4537",
"s6 	c #8F4C3C",
"t6 	c #7F3E36",
"u6 	c #814037",
"v6 	c #834138",
"w6 	c #824038",
"x6 	c #804138",
"y6 	c #854742",
"z6 	c #8A4D4A",
"A6 	c #844A49",
"B6 	c #7A4442",
"C6 	c #72413E",
"D6 	c #653936",
"E6 	c #572F2C",
"F6 	c #4D2926",
"G6 	c #432323",
"H6 	c #3D2121",
"I6 	c #2B1D1C",
"J6 	c #292525",
"K6 	c #202223",
"L6 	c #181718",
"M6 	c #0E0B0B",
"N6 	c #020100",
"O6 	c #130503",
"P6 	c #220B08",
"Q6 	c #2A0F0B",
"R6 	c #3A1912",
"S6 	c #452018",
"T6 	c #5A2F25",
"U6 	c #613128",
"V6 	c #6A372D",
"W6 	c #703D34",
"X6 	c #714038",
"Y6 	c #6E4E4B",
"Z6 	c #A69493",
"`6 	c #9B9EA2",
" 7 	c #9FA1A5",
".7 	c #684B49",
"+7 	c #5C3B36",
"@7 	c #573631",
"#7 	c #51312B",
"$7 	c #452822",
"%7 	c #2B1713",
"&7 	c #1C0C09",
"*7 	c #120604",
"=7 	c #0B0402",
"-7 	c #150706",
";7 	c #1F0D0A",
">7 	c #2A130F",
",7 	c #351A15",
"'7 	c #43231D",
")7 	c #4B251F",
"!7 	c #542A23",
"~7 	c #5E2F28",
"{7 	c #67352D",
"]7 	c #713C33",
"^7 	c #7B4339",
"/7 	c #814639",
"(7 	c #824838",
"_7 	c #84493A",
":7 	c #7F433A",
"<7 	c #753F39",
"[7 	c #683D3D",
"}7 	c #B2A5AB",
"|7 	c #AFB0B7",
"17 	c #AA8E90",
"27 	c #764849",
"37 	c #8C4D4A",
"47 	c #8C4C45",
"57 	c #884E3F",
"67 	c #864D3C",
"77 	c #8E4C40",
"87 	c #954B43",
"97 	c #974944",
"07 	c #934440",
"a7 	c #8E3F39",
"b7 	c #944740",
"c7 	c #8D4237",
"d7 	c #8E4439",
"e7 	c #924A3C",
"f7 	c #803E36",
"g7 	c #84423A",
"h7 	c #823F38",
"i7 	c #834038",
"j7 	c #803F38",
"k7 	c #864742",
"l7 	c #8A4D48",
"m7 	c #844A46",
"n7 	c #7A443F",
"o7 	c #71403C",
"p7 	c #633732",
"q7 	c #552D29",
"r7 	c #4C2824",
"s7 	c #412122",
"t7 	c #3C1F20",
"u7 	c #2A1C1C",
"v7 	c #1F2022",
"w7 	c #030201",
"x7 	c #080201",
"y7 	c #0D0302",
"z7 	c #140503",
"A7 	c #1C0705",
"B7 	c #250C09",
"C7 	c #2D100C",
"D7 	c #542A22",
"E7 	c #5C2D24",
"F7 	c #633229",
"G7 	c #6B3931",
"H7 	c #795856",
"I7 	c #A18E8E",
"J7 	c #989A9D",
"K7 	c #9E9EA3",
"L7 	c #684A49",
"M7 	c #5D3B37",
"N7 	c #583631",
"O7 	c #452922",
"P7 	c #371F1A",
"Q7 	c #291512",
"R7 	c #0C0403",
"S7 	c #0C0303",
"T7 	c #130605",
"U7 	c #1D0B08",
"V7 	c #27110E",
"W7 	c #331814",
"X7 	c #42211C",
"Y7 	c #49241F",
"Z7 	c #532A23",
"`7 	c #5D2F29",
" 8 	c #67362E",
".8 	c #723C34",
"+8 	c #81473E",
"@8 	c #82493D",
"#8 	c #884B3E",
"$8 	c #84453F",
"%8 	c #7C423F",
"&8 	c #6D3E3F",
"*8 	c #B4A4AC",
"=8 	c #B3B1BA",
"-8 	c #B39498",
";8 	c #794A4B",
">8 	c #8D4C4B",
",8 	c #8C4A45",
"'8 	c #8A4F41",
")8 	c #884E3E",
"!8 	c #8F4C41",
"~8 	c #964C44",
"{8 	c #974A44",
"]8 	c #934640",
"^8 	c #8D413A",
"/8 	c #92473F",
"(8 	c #8D453A",
"_8 	c #8E4639",
":8 	c #914B3D",
"<8 	c #7D3733",
"[8 	c #88423E",
"}8 	c #88413D",
"|8 	c #86403C",
"18 	c #8C4542",
"28 	c #8B4441",
"38 	c #84423B",
"48 	c #824339",
"58 	c #85493F",
"68 	c #83493F",
"78 	c #754037",
"88 	c #67382F",
"98 	c #562B22",
"08 	c #441F22",
"a8 	c #3A1B1D",
"b8 	c #2C1B1D",
"c8 	c #2D2629",
"d8 	c #201F21",
"e8 	c #151214",
"f8 	c #050203",
"g8 	c #090201",
"h8 	c #140302",
"i8 	c #200806",
"j8 	c #280C09",
"k8 	c #31110D",
"l8 	c #3A1612",
"m8 	c #431B16",
"n8 	c #4E221C",
"o8 	c #5B2C24",
"p8 	c #5C2C23",
"q8 	c #67342F",
"r8 	c #703E39",
"s8 	c #916E6F",
"t8 	c #82696D",
"u8 	c #928D94",
"v8 	c #99939A",
"w8 	c #6C4A4B",
"x8 	c #623C3B",
"y8 	c #5B3633",
"z8 	c #502C28",
"A8 	c #452621",
"B8 	c #371D19",
"C8 	c #1D0B09",
"D8 	c #150907",
"E8 	c #28110F",
"F8 	c #341614",
"G8 	c #3E1B19",
"H8 	c #4D2622",
"I8 	c #62332E",
"J8 	c #693530",
"K8 	c #713A33",
"L8 	c #7F453E",
"M8 	c #8B4D45",
"N8 	c #8B4D42",
"O8 	c #99504E",
"P8 	c #954F52",
"Q8 	c #8A4F55",
"R8 	c #B79BA8",
"S8 	c #C5B7C7",
"T8 	c #CAA2AA",
"U8 	c #7C484C",
"V8 	c #924C4E",
"W8 	c #974F4E",
"X8 	c #955248",
"Y8 	c #904E42",
"Z8 	c #944C43",
"`8 	c #985047",
" 9 	c #945047",
".9 	c #8B4B42",
"+9 	c #86483D",
"@9 	c #8B5042",
"#9 	c #864C3B",
"$9 	c #89503F",
"%9 	c #7B332E",
"&9 	c #803933",
"*9 	c #853D37",
"=9 	c #87403A",
"-9 	c #8A433D",
";9 	c #823E39",
">9 	c #82423E",
",9 	c #834541",
"'9 	c #7D423E",
")9 	c #6F3834",
"!9 	c #63312C",
"~9 	c #572A26",
"{9 	c #4E2522",
"]9 	c #442222",
"^9 	c #381B1C",
"/9 	c #2C1D1F",
"(9 	c #2A2426",
"_9 	c #1F1D20",
":9 	c #171315",
"<9 	c #0B0202",
"[9 	c #120402",
"}9 	c #190704",
"|9 	c #210A06",
"19 	c #2A0F09",
"29 	c #33140E",
"39 	c #3D1A13",
"49 	c #52281F",
"59 	c #562C24",
"69 	c #64322E",
"79 	c #703E3B",
"89 	c #836565",
"99 	c #806D6D",
"09 	c #8C898C",
"a9 	c #969093",
"b9 	c #6E4D4B",
"c9 	c #633C3A",
"d9 	c #593230",
"e9 	c #4F2C29",
"f9 	c #452823",
"g9 	c #381F1B",
"h9 	c #160907",
"i9 	c #1D0C0A",
"j9 	c #281210",
"k9 	c #331816",
"l9 	c #3E1D1A",
"m9 	c #45201D",
"n9 	c #572E29",
"o9 	c #653733",
"p9 	c #6E3D38",
"q9 	c #76423C",
"r9 	c #7A423D",
"s9 	c #7D433D",
"t9 	c #81453F",
"u9 	c #8C4C47",
"v9 	c #8C4B4C",
"w9 	c #885154",
"x9 	c #BDA3AA",
"y9 	c #B8AEB6",
"z9 	c #BA9396",
"A9 	c #865353",
"B9 	c #915151",
"C9 	c #94514E",
"D9 	c #8D4B3F",
"E9 	c #8E4A3D",
"F9 	c #8E493E",
"G9 	c #8C493E",
"H9 	c #8A483D",
"I9 	c #8B493D",
"J9 	c #8D4D41",
"K9 	c #8B4C3F",
"L9 	c #8A4B3E",
"M9 	c #7A322C",
"N9 	c #7D342E",
"O9 	c #843B35",
"P9 	c #88403A",
"Q9 	c #89423C",
"R9 	c #853F39",
"S9 	c #813D39",
"T9 	c #82423F",
"U9 	c #824341",
"V9 	c #7A3E3D",
"W9 	c #6D3533",
"X9 	c #612F2C",
"Y9 	c #582A27",
"Z9 	c #452221",
"`9 	c #371B1B",
" 0 	c #2A2326",
".0 	c #0E0302",
"+0 	c #1B0804",
"@0 	c #240C07",
"#0 	c #2D110B",
"$0 	c #381710",
"%0 	c #421E16",
"&0 	c #4B251D",
"*0 	c #502A22",
"=0 	c #5F302C",
"-0 	c #6D3B3B",
";0 	c #795C5D",
">0 	c #7A6969",
",0 	c #888788",
"'0 	c #938D8D",
")0 	c #623C39",
"!0 	c #583130",
"~0 	c #502D2A",
"{0 	c #452824",
"]0 	c #39201C",
"^0 	c #2D1714",
"/0 	c #210F0D",
"(0 	c #170A08",
"_0 	c #080302",
":0 	c #1D0B0A",
"<0 	c #271210",
"[0 	c #3D1D1A",
"}0 	c #421E1B",
"|0 	c #552E2A",
"10 	c #643834",
"20 	c #6F3F3B",
"30 	c #78423D",
"40 	c #783E39",
"50 	c #7C423D",
"60 	c #834844",
"70 	c #894A46",
"80 	c #8D4948",
"90 	c #894A4A",
"00 	c #875254",
"a0 	c #BEA7AA",
"b0 	c #B3AAAF",
"c0 	c #B28B8B",
"d0 	c #8A5756",
"e0 	c #915352",
"f0 	c #92524D",
"g0 	c #8E4B41",
"h0 	c #8C4A3E",
"i0 	c #8C493B",
"j0 	c #8A4739",
"k0 	c #89463A",
"l0 	c #8A473B",
"m0 	c #8B483C",
"n0 	c #8C4B3F",
"o0 	c #7E3832",
"p0 	c #7F3933",
"q0 	c #87423B",
"r0 	c #87413A",
"s0 	c #87423C",
"t0 	c #84413B",
"u0 	c #7F403B",
"v0 	c #793D39",
"w0 	c #713835",
"x0 	c #6A3431",
"y0 	c #64322F",
"z0 	c #5B2E2B",
"A0 	c #502725",
"B0 	c #462522",
"C0 	c #2C2020",
"D0 	c #2C2629",
"E0 	c #161314",
"F0 	c #0D0A09",
"G0 	c #110504",
"H0 	c #190906",
"I0 	c #200C08",
"J0 	c #28100B",
"K0 	c #331711",
"L0 	c #3F1F18",
"M0 	c #49271F",
"N0 	c #4E2A22",
"O0 	c #60302E",
"P0 	c #673636",
"Q0 	c #583D3C",
"R0 	c #4B3E3E",
"S0 	c #8C8C8C",
"T0 	c #8D8888",
"U0 	c #6C4E4A",
"V0 	c #5F3938",
"W0 	c #583031",
"X0 	c #4F2D2C",
"Y0 	c #442725",
"Z0 	c #38201D",
"`0 	c #2D1715",
" a 	c #140705",
".a 	c #190907",
"+a 	c #240F0D",
"@a 	c #2F1613",
"#a 	c #3B1D19",
"$a 	c #43221D",
"%a 	c #4C2721",
"&a 	c #582F28",
"*a 	c #673A33",
"=a 	c #714039",
"-a 	c #7A463E",
";a 	c #814941",
">a 	c #854B44",
",a 	c #855554",
"'a 	c #B6A4A4",
")a 	c #B2B0B0",
"!a 	c #A88380",
"~a 	c #895953",
"{a 	c #8F564F",
"]a 	c #8C4E47",
"^a 	c #8C4C42",
"/a 	c #8C4C3F",
"(a 	c #8B4B3B",
"_a 	c #8C4B3C",
":a 	c #8D4B3D",
"<a 	c #8B483B",
"[a 	c #894639",
"}a 	c #7F3D2F",
"|a 	c #803E30",
"1a 	c #8A483A",
"2a 	c #7A3730",
"3a 	c #7E3B33",
"4a 	c #85423A",
"5a 	c #844239",
"6a 	c #834039",
"7a 	c #83423B",
"8a 	c #804038",
"9a 	c #7A3E36",
"0a 	c #763C35",
"aa 	c #713A34",
"ba 	c #6C3933",
"ca 	c #65352F",
"da 	c #5C302B",
"ea 	c #512A25",
"fa 	c #381D1A",
"ga 	c #2C201F",
"ha 	c #272123",
"ia 	c #1E1C1E",
"ja 	c #151314",
"ka 	c #0E0B0A",
"la 	c #120504",
"ma 	c #190705",
"na 	c #220C09",
"oa 	c #2C110E",
"pa 	c #361814",
"qa 	c #402019",
"ra 	c #49251C",
"sa 	c #592B27",
"ta 	c #5C2E2C",
"ua 	c #4D3433",
"va 	c #746768",
"wa 	c #828183",
"xa 	c #8D8789",
"ya 	c #654746",
"za 	c #593535",
"Aa 	c #532D2E",
"Ba 	c #4C2929",
"Ca 	c #422624",
"Da 	c #381F1E",
"Ea 	c #2D1716",
"Fa 	c #22100E",
"Ga 	c #170A07",
"Ha 	c #100605",
"Ia 	c #180907",
"Ja 	c #220F0C",
"Ka 	c #2D1612",
"La 	c #3A1E19",
"Ma 	c #44231E",
"Na 	c #502B24",
"Oa 	c #5B322B",
"Pa 	c #65382F",
"Qa 	c #6E3D34",
"Ra 	c #78443A",
"Sa 	c #7D463C",
"Ta 	c #7E473C",
"Ua 	c #824B41",
"Va 	c #895147",
"Wa 	c #874E47",
"Xa 	c #86524D",
"Ya 	c #7A504D",
"Za 	c #B2A5A5",
"`a 	c #B5B6B8",
" b 	c #A17C76",
".b 	c #87564D",
"+b 	c #90574E",
"@b 	c #8B4E44",
"#b 	c #8E4F42",
"$b 	c #8E4F40",
"%b 	c #8C4F3D",
"&b 	c #8D4F3E",
"*b 	c #8F4F3F",
"=b 	c #8F4E3F",
"-b 	c #8D4B3C",
";b 	c #8C4A3B",
">b 	c #8A4A3A",
",b 	c #894939",
"'b 	c #8D4C3D",
")b 	c #7D3D34",
"!b 	c #83433A",
"~b 	c #814138",
"{b 	c #7C3F35",
"]b 	c #763C33",
"^b 	c #733B31",
"/b 	c #723C33",
"(b 	c #6F3D35",
"_b 	c #653830",
":b 	c #5D322B",
"<b 	c #512C25",
"[b 	c #472523",
"}b 	c #391E1C",
"|b 	c #2D201E",
"1b 	c #221D1D",
"2b 	c #1C1B1C",
"3b 	c #151413",
"4b 	c #0E0C0B",
"5b 	c #130504",
"6b 	c #1B0807",
"7b 	c #2E120F",
"8b 	c #381913",
"9b 	c #442016",
"0b 	c #522621",
"ab 	c #532623",
"bb 	c #432C2A",
"cb 	c #7B777B",
"db 	c #8C858A",
"eb 	c #5E4142",
"fb 	c #533031",
"gb 	c #4F292B",
"hb 	c #492828",
"ib 	c #402423",
"jb 	c #371F1E",
"kb 	c #2E1817",
"lb 	c #231110",
"mb 	c #1A0D09",
"nb 	c #100705",
"ob 	c #170906",
"pb 	c #210F0B",
"qb 	c #2C1711",
"rb 	c #391F18",
"sb 	c #44251E",
"tb 	c #542F27",
"ub 	c #5E342C",
"vb 	c #63362D",
"wb 	c #6B3B30",
"xb 	c #774238",
"yb 	c #7D463A",
"zb 	c #7B4538",
"Ab 	c #7E483B",
"Bb 	c #8D5648",
"Cb 	c #8C564C",
"Db 	c #85554F",
"Eb 	c #714C47",
"Fb 	c #AFA6A7",
"Gb 	c #B8BABF",
"Hb 	c #9B766D",
"Ib 	c #865348",
"Jb 	c #8A4E43",
"Kb 	c #8F5142",
"Lb 	c #8F5241",
"Mb 	c #8D513F",
"Nb 	c #8F5240",
"Ob 	c #915241",
"Pb 	c #915140",
"Qb 	c #8F4E3E",
"Rb 	c #935342",
"Sb 	c #90503F",
"Tb 	c #904F3F",
"Ub 	c #84403C",
"Vb 	c #884440",
"Wb 	c #8A4843",
"Xb 	c #8D4945",
"Yb 	c #894743",
"Zb 	c #874840",
"`b 	c #81453B",
" c 	c #794037",
".c 	c #703D35",
"+c 	c #65362E",
"@c 	c #5C302A",
"#c 	c #512A24",
"$c 	c #3D201E",
"%c 	c #302220",
"&c 	c #1B1414",
"*c 	c #1B191A",
"=c 	c #171515",
"-c 	c #160504",
";c 	c #2A100D",
">c 	c #361813",
",c 	c #3F1E16",
"'c 	c #4D2420",
")c 	c #522825",
"!c 	c #4D3738",
"~c 	c #726768",
"{c 	c #7D7980",
"]c 	c #7F777D",
"^c 	c #5E413F",
"/c 	c #583332",
"(c 	c #532D2C",
"_c 	c #4A2927",
":c 	c #412422",
"<c 	c #2F1917",
"[c 	c #24110F",
"}c 	c #1A0C09",
"|c 	c #190B08",
"1c 	c #2F1814",
"2c 	c #482620",
"3c 	c #4E2721",
"4c 	c #5A2E28",
"5c 	c #6E3E36",
"6c 	c #7F473E",
"7c 	c #854B40",
"8c 	c #864F42",
"9c 	c #8F564A",
"0c 	c #905A50",
"ac 	c #855E5B",
"bc 	c #B6ABAE",
"cc 	c #B4B3BA",
"dc 	c #A17770",
"ec 	c #904F46",
"fc 	c #935145",
"gc 	c #925244",
"hc 	c #905242",
"ic 	c #905041",
"jc 	c #914F42",
"kc 	c #934F43",
"lc 	c #955145",
"mc 	c #945145",
"nc 	c #8C483C",
"oc 	c #8F4B3F",
"pc 	c #894747",
"qc 	c #8B4949",
"rc 	c #8E4D4C",
"sc 	c #8B4948",
"tc 	c #874746",
"uc 	c #884A47",
"vc 	c #814742",
"wc 	c #78413B",
"xc 	c #743F3A",
"yc 	c #713F3A",
"zc 	c #683A35",
"Ac 	c #5E332F",
"Bc 	c #532C29",
"Cc 	c #462424",
"Dc 	c #3E2120",
"Ec 	c #302020",
"Fc 	c #221A1B",
"Gc 	c #201C1E",
"Hc 	c #191617",
"Ic 	c #0F0C0B",
"Jc 	c #120403",
"Kc 	c #1B0806",
"Lc 	c #250E0C",
"Mc 	c #2E1410",
"Nc 	c #341912",
"Oc 	c #462322",
"Pc 	c #584849",
"Qc 	c #746B6D",
"Rc 	c #767379",
"Sc 	c #797177",
"Tc 	c #5B403D",
"Uc 	c #573431",
"Vc 	c #512C2B",
"Wc 	c #4A2926",
"Xc 	c #412622",
"Yc 	c #38201C",
"Zc 	c #2E1815",
"`c 	c #24120F",
" d 	c #1A0C0A",
".d 	c #180A08",
"+d 	c #23110F",
"@d 	c #2F1916",
"#d 	c #3C211E",
"$d 	c #492926",
"%d 	c #5C322E",
"&d 	c #6C3E39",
"*d 	c #7B4640",
"=d 	c #814842",
"-d 	c #834C44",
";d 	c #855047",
">d 	c #8A534C",
",d 	c #88554E",
"'d 	c #855754",
")d 	c #8B6564",
"!d 	c #BCADB4",
"~d 	c #B9B2BC",
"{d 	c #936A64",
"]d 	c #7C4640",
"^d 	c #925752",
"/d 	c #93544D",
"(d 	c #90534B",
"_d 	c #8D5349",
":d 	c #8B5046",
"<d 	c #8D4F47",
"[d 	c #91514A",
"}d 	c #94544D",
"|d 	c #8D4E48",
"1d 	c #8F514B",
"2d 	c #985953",
"3d 	c #8D4E52",
"4d 	c #905155",
"5d 	c #8F5054",
"6d 	c #935458",
"7d 	c #87494C",
"8d 	c #84474A",
"9d 	c #884D4F",
"0d 	c #814949",
"ad 	c #774242",
"bd 	c #744141",
"cd 	c #724242",
"dd 	c #6B3F3F",
"ed 	c #603636",
"fd 	c #542F2F",
"gd 	c #49282A",
"hd 	c #3E2123",
"id 	c #2F1C1E",
"jd 	c #2C2224",
"kd 	c #272124",
"ld 	c #1C181A",
"md 	c #0F0403",
"nd 	c #170706",
"od 	c #200D0A",
"pd 	c #25110D",
"qd 	c #27130F",
"rd 	c #341B19",
"sd 	c #371C1C",
"td 	c #63585A",
"ud 	c #787375",
"vd 	c #6E6D73",
"wd 	c #726B70",
"xd 	c #583F3B",
"yd 	c #563632",
"zd 	c #4E2B28",
"Ad 	c #492925",
"Bd 	c #412722",
"Cd 	c #36201B",
"Dd 	c #2C1713",
"Ed 	c #23110E",
"Fd 	c #180A0A",
"Gd 	c #100606",
"Hd 	c #070302",
"Id 	c #0E0505",
"Jd 	c #160908",
"Kd 	c #221110",
"Ld 	c #2F1918",
"Md 	c #3E2424",
"Nd 	c #502C2B",
"Od 	c #613937",
"Pd 	c #693C3A",
"Qd 	c #714240",
"Rd 	c #764340",
"Sd 	c #7D4644",
"Td 	c #824D4A",
"Ud 	c #83504E",
"Vd 	c #824F4D",
"Wd 	c #7B4B4A",
"Xd 	c #7F5455",
"Yd 	c #926E70",
"Zd 	c #C4B0BB",
"`d 	c #BFB1BF",
" e 	c #764D4C",
".e 	c #65302E",
"+e 	c #8D5658",
"@e 	c #8D5354",
"#e 	c #915858",
"$e 	c #895452",
"%e 	c #844F4D",
"&e 	c #864E4D",
"*e 	c #8E5554",
"=e 	c #915857",
"-e 	c #8B5151",
";e 	c #955D5D",
">e 	c #A56B6B",
",e 	c #7B484D",
"'e 	c #87565B",
")e 	c #835156",
"!e 	c #815054",
"~e 	c #815055",
"{e 	c #744448",
"]e 	c #744548",
"^e 	c #714446",
"/e 	c #6C3F42",
"(e 	c #6A4143",
"_e 	c #6D4648",
":e 	c #684346",
"<e 	c #583739",
"[e 	c #4C2E30",
"}e 	c #43282B",
"|e 	c #331C1E",
"1e 	c #2F1F20",
"2e 	c #30272A",
"3e 	c #252124",
"4e 	c #1C1A1B",
"5e 	c #0D090B",
"6e 	c #170B0A",
"7e 	c #201210",
"8e 	c #271917",
"9e 	c #2F1C1C",
"0e 	c #382526",
"ae 	c #564F51",
"be 	c #686769",
"ce 	c #737378",
"de 	c #7B767C",
"ee 	c #53423E",
"fe 	c #49312E",
"ge 	c #482D2B",
"he 	c #432B29",
"ie 	c #3A2522",
"je 	c #31201C",
"ke 	c #2B1B18",
"le 	c #221412",
"me 	c #100707",
"ne 	c #070303",
"oe 	c #0E0707",
"pe 	c #160C0C",
"qe 	c #211414",
"re 	c #2F1F1F",
"se 	c #3B2728",
"te 	c #473030",
"ue 	c #462B2A",
"ve 	c #57383A",
"we 	c #654445",
"xe 	c #6E4B4B",
"ye 	c #734D4E",
"ze 	c #7C5455",
"Ae 	c #815B5C",
"Be 	c #845D5F",
"Ce 	c #896263",
"De 	c #896667",
"Ee 	c #846566",
"Fe 	c #866B6E",
"Ge 	c #C4B3BD",
"He 	c #D0C5D1",
"Ie 	c #B5989B",
"Je 	c #9D7C7D",
"Ke 	c #8D6869",
"Le 	c #90696C",
"Me 	c #906A6D",
"Ne 	c #8A6669",
"Oe 	c #846365",
"Pe 	c #856365",
"Qe 	c #845E60",
"Re 	c #835B5E",
"Se 	c #8D6568",
"Te 	c #886164",
"Ue 	c #835C5E",
"Ve 	c #754E50",
"We 	c #9B7375",
"Xe 	c #89686B",
"Ye 	c #927073",
"Ze 	c #8D6B6E",
"`e 	c #906F72",
" f 	c #836467",
".f 	c #806265",
"+f 	c #7E6064",
"@f 	c #795C61",
"#f 	c #765B5F",
"$f 	c #755B5E",
"%f 	c #6F5558",
"&f 	c #5E484A",
"*f 	c #513C3F",
"=f 	c #463437",
"-f 	c #372828",
";f 	c #302525",
">f 	c #30292B",
",f 	c #252225",
"'f 	c #1D1B1D",
")f 	c #0D0B0C",
"!f 	c #010100",
"~f 	c #171011",
"{f 	c #201718",
"]f 	c #292020",
"^f 	c #34282A",
"/f 	c #3F3234",
"(f 	c #545152",
"_f 	c #626365",
":f 	c #707074",
"<f 	c #767378",
"[f 	c #595051",
"}f 	c #514244",
"|f 	c #4F3C3F",
"1f 	c #493839",
"2f 	c #3F3232",
"3f 	c #362B2B",
"4f 	c #2F2323",
"5f 	c #251B1B",
"6f 	c #1A1112",
"7f 	c #110B0B",
"8f 	c #090505",
"9f 	c #181111",
"0f 	c #231A1B",
"af 	c #312526",
"bf 	c #3E3131",
"cf 	c #4B3C3C",
"df 	c #504040",
"ef 	c #5F4D4E",
"ff 	c #6F5A5A",
"gf 	c #776161",
"hf 	c #7F6768",
"if 	c #897071",
"jf 	c #8F7779",
"kf 	c #927A7E",
"lf 	c #977E81",
"mf 	c #9B8485",
"nf 	c #978485",
"of 	c #98898B",
"pf 	c #C4B9C1",
"qf 	c #D4CDD8",
"rf 	c #C0AEB1",
"sf 	c #B19E9F",
"tf 	c #A08B8D",
"uf 	c #A68F93",
"vf 	c #A59093",
"wf 	c #9E8B8F",
"xf 	c #968689",
"yf 	c #958386",
"zf 	c #937F82",
"Af 	c #937E82",
"Bf 	c #9A8488",
"Cf 	c #967F84",
"Df 	c #8E787C",
"Ef 	c #836F72",
"Ff 	c #9F8589",
"Gf 	c #B0A3A4",
"Hf 	c #B2A6A6",
"If 	c #AC9FA1",
"Jf 	c #AEA2A3",
"Kf 	c #B7ABAC",
"Lf 	c #A59A9D",
"Mf 	c #A0969C",
"Nf 	c #9C9299",
"Of 	c #968C92",
"Pf 	c #8E868B",
"Qf 	c #827A7F",
"Rf 	c #706A6E",
"Sf 	c #615B5F",
"Tf 	c #514D4F",
"Uf 	c #454040",
"Vf 	c #353331",
"Wf 	c #2C2C2C",
"Xf 	c #222426",
"Yf 	c #1C1D1F",
"Zf 	c #101011",
"`f 	c #030203",
" g 	c #050405",
".g 	c #0A090A",
"+g 	c #1C1A1C",
"@g 	c #252224",
"#g 	c #322E30",
"$g 	c #443D3F",
"%g 	c #504A4D",
"&g 	c #5B5C5E",
"*g 	c #606567",
"=g 	c #6D6E72",
"-g 	c #706F74",
";g 	c #6C6E73",
">g 	c #676369",
",g 	c #625A61",
"'g 	c #595259",
")g 	c #504C50",
"!g 	c #454246",
"~g 	c #393538",
"{g 	c #2D292B",
"]g 	c #211D1E",
"^g 	c #151213",
"/g 	c #100F0F",
"(g 	c #1E1C1C",
"_g 	c #2A2828",
":g 	c #373434",
"<g 	c #484445",
"[g 	c #585555",
"}g 	c #6B6868",
"|g 	c #797676",
"1g 	c #888485",
"2g 	c #9D9A9B",
"3g 	c #ABA7A7",
"4g 	c #B3AFB2",
"5g 	c #B7B3BA",
"6g 	c #BAB7BC",
"7g 	c #C2BFC0",
"8g 	c #C4C2C3",
"9g 	c #C8C8C9",
"0g 	c #C3C8CC",
"ag 	c #DADFE5",
"bg 	c #D0D4D7",
"cg 	c #D7DADC",
"dg 	c #CDCED1",
"eg 	c #D8D7DC",
"fg 	c #D6D7DC",
"gg 	c #CED1D5",
"hg 	c #C3C9CE",
"ig 	c #BAC0C5",
"jg 	c #BABDC2",
"kg 	c #BEC0C5",
"lg 	c #B8BBC0",
"mg 	c #AEB1B7",
"ng 	c #ADAFB4",
"og 	c #ADB0B5",
"pg 	c #B1ADAE",
"qg 	c #AFABAC",
"rg 	c #B2AFB1",
"sg 	c #B6B2B4",
"tg 	c #B5B2B2",
"ug 	c #AFADAE",
"vg 	c #ADAAAD",
"wg 	c #A5A2A6",
"xg 	c #A3A0A4",
"yg 	c #A09DA1",
"zg 	c #919194",
"Ag 	c #868689",
"Bg 	c #6F6F72",
"Cg 	c #636366",
"Dg 	c #59585B",
"Eg 	c #494749",
"Fg 	c #3E3D3E",
"Gg 	c #333435",
"Hg 	c #1C1C1E",
"Ig 	c #121113",
"Jg 	c #000001",
"Kg 	c #080808",
"Lg 	c #0F0E10",
"Mg 	c #171617",
"Ng 	c #232122",
"Og 	c #302D2F",
"Pg 	c #413C3F",
"Qg 	c #504C4F",
"Rg 	c #525256",
"Sg 	c #5C5E61",
"Tg 	c #6C6B70",
"Ug 	c #706F75",
"Vg 	c #6D6D71",
"Wg 	c #6B696F",
"Xg 	c #666168",
"Yg 	c #615D62",
"Zg 	c #565357",
"`g 	c #4C484C",
" h 	c #413E41",
".h 	c #322F31",
"+h 	c #222022",
"@h 	c #0E0D0E",
"#h 	c #080708",
"$h 	c #030304",
"%h 	c #050606",
"&h 	c #0D0D0D",
"*h 	c #181717",
"=h 	c #222121",
"-h 	c #323131",
";h 	c #474645",
">h 	c #565150",
",h 	c #676163",
"'h 	c #7C767A",
")h 	c #8B858A",
"!h 	c #969094",
"~h 	c #A39EA3",
"{h 	c #B8B6B9",
"]h 	c #BEBBC0",
"^h 	c #C6C0C7",
"/h 	c #D1CAD0",
"(h 	c #CCC6CB",
"_h 	c #CDC8CB",
":h 	c #D8D4D9",
"<h 	c #D1CDD4",
"[h 	c #DBDAE0",
"}h 	c #E0DCE2",
"|h 	c #E6E3E8",
"1h 	c #E3DDE2",
"2h 	c #DFD7DC",
"3h 	c #DED6DA",
"4h 	c #D8D0D3",
"5h 	c #D3CCCE",
"6h 	c #D4CDD1",
"7h 	c #D4CDD3",
"8h 	c #D0C9D0",
"9h 	c #CBC6CC",
"0h 	c #C0BDC4",
"ah 	c #C1C0C6",
"bh 	c #B9BAC0",
"ch 	c #BABCC3",
"dh 	c #ADA9AA",
"eh 	c #B7B4B6",
"fh 	c #B5B2B3",
"gh 	c #AFAEAF",
"hh 	c #A7A3A7",
"ih 	c #A5A1A6",
"jh 	c #A19EA1",
"kh 	c #939194",
"lh 	c #89898B",
"mh 	c #757476",
"nh 	c #68686A",
"oh 	c #605D60",
"ph 	c #4A4749",
"qh 	c #403E40",
"rh 	c #353436",
"sh 	c #2A2A2C",
"th 	c #121213",
"uh 	c #0B090A",
"vh 	c #070607",
"wh 	c #060606",
"xh 	c #040405",
"yh 	c #0B0A0B",
"zh 	c #111011",
"Ah 	c #1B191B",
"Bh 	c #282527",
"Ch 	c #373336",
"Dh 	c #464244",
"Eh 	c #49484A",
"Fh 	c #565558",
"Gh 	c #646267",
"Hh 	c #6A676D",
"Ih 	c #656468",
"Jh 	c #666367",
"Kh 	c #625D62",
"Lh 	c #5D595E",
"Mh 	c #534F53",
"Nh 	c #4A4649",
"Oh 	c #403C3F",
"Ph 	c #312E30",
"Qh 	c #222021",
"Rh 	c #0F0E0F",
"Sh 	c #0F0E0E",
"Th 	c #1A1919",
"Uh 	c #333232",
"Vh 	c #494746",
"Wh 	c #56504E",
"Xh 	c #665F61",
"Yh 	c #7C7478",
"Zh 	c #8A8288",
"`h 	c #958D92",
" i 	c #A39DA1",
".i 	c #AFA9AE",
"+i 	c #B6B3B6",
"@i 	c #BBB7BB",
"#i 	c #C5BDC3",
"$i 	c #D2C8CE",
"%i 	c #CBC1C7",
"&i 	c #C8C1C4",
"*i 	c #D5CDD2",
"=i 	c #CFC7CD",
"-i 	c #D5CFD5",
";i 	c #DCD4DA",
">i 	c #E1DAE0",
",i 	c #E1D7DC",
"'i 	c #D8CDD2",
")i 	c #D9CDCF",
"!i 	c #D4C8C9",
"~i 	c #D0C4C5",
"{i 	c #D3C7CA",
"]i 	c #D2C7CD",
"^i 	c #CEC3CA",
"/i 	c #C9C0C6",
"(i 	c #BFB8BF",
"_i 	c #C4BFC5",
":i 	c #BDBABF",
"<i 	c #BFBFC5",
"[i 	c #9C7F83",
"}i 	c #A5898B",
"|i 	c #A88E91",
"1i 	c #B69DA0",
"2i 	c #BDA5A7",
"3i 	c #AF989B",
"4i 	c #A38B8E",
"5i 	c #AC9297",
"6i 	c #AA9296",
"7i 	c #9B8589",
"8i 	c #958184",
"9i 	c #938184",
"0i 	c #948587",
"ai 	c #86787A",
"bi 	c #76686C",
"ci 	c #46393C",
"di 	c #42373A",
"ei 	c #2F2629",
"fi 	c #251D1F",
"gi 	c #100C0D",
"hi 	c #0B0809",
"ii 	c #060405",
"ji 	c #080606",
"ki 	c #0A0505",
"li 	c #120B0B",
"mi 	c #221918",
"ni 	c #291E1E",
"oi 	c #413535",
"pi 	c #554747",
"qi 	c #574849",
"ri 	c #594A4A",
"si 	c #433331",
"ti 	c #453633",
"ui 	c #4B3C3A",
"vi 	c #473736",
"wi 	c #423332",
"xi 	c #3B2E2D",
"yi 	c #322625",
"zi 	c #2A201F",
"Ai 	c #251E1E",
"Bi 	c #120E0E",
"Ci 	c #100D0E",
"Di 	c #1B1516",
"Ei 	c #1C1616",
"Fi 	c #2A2322",
"Gi 	c #332928",
"Hi 	c #382726",
"Ii 	c #3B2625",
"Ji 	c #4F3736",
"Ki 	c #583E3D",
"Li 	c #654C49",
"Mi 	c #775C59",
"Ni 	c #826865",
"Oi 	c #866C68",
"Pi 	c #8A6E69",
"Qi 	c #9B7C76",
"Ri 	c #B2908C",
"Si 	c #AA8983",
"Ti 	c #886762",
"Ui 	c #8B6963",
"Vi 	c #9B7A73",
"Wi 	c #9E7D78",
"Xi 	c #94716E",
"Yi 	c #8D6966",
"Zi 	c #9F7874",
"`i 	c #89615C",
" j 	c #996D67",
".j 	c #9D7169",
"+j 	c #986B63",
"@j 	c #8C6058",
"#j 	c #825852",
"$j 	c #89625D",
"%j 	c #9C7873",
"&j 	c #A3817E",
"*j 	c #B79994",
"=j 	c #C0A3A0",
"-j 	c #D0B6B4",
";j 	c #835C5F",
">j 	c #805C5E",
",j 	c #886567",
"'j 	c #8E6D6F",
")j 	c #957576",
"!j 	c #8A6A6C",
"~j 	c #846366",
"{j 	c #89676B",
"]j 	c #88676C",
"^j 	c #806165",
"/j 	c #775C60",
"(j 	c #715A5C",
"_j 	c #6F5B5E",
":j 	c #6C595B",
"<j 	c #614E52",
"[j 	c #412F32",
"}j 	c #2F2224",
"|j 	c #23181A",
"1j 	c #1A1012",
"2j 	c #110A0B",
"3j 	c #0B0607",
"4j 	c #070405",
"5j 	c #0B0404",
"6j 	c #170D0C",
"7j 	c #2A1D1D",
"8j 	c #392A2A",
"9j 	c #3B2C2B",
"0j 	c #392522",
"aj 	c #3A2623",
"bj 	c #392624",
"cj 	c #352320",
"dj 	c #33211F",
"ej 	c #2E1D1B",
"fj 	c #251715",
"gj 	c #1D1211",
"hj 	c #18100F",
"ij 	c #100A09",
"jj 	c #040302",
"kj 	c #0B0808",
"lj 	c #150E0F",
"mj 	c #1B1212",
"nj 	c #261C1B",
"oj 	c #302322",
"pj 	c #382221",
"qj 	c #412725",
"rj 	c #51332F",
"sj 	c #64423C",
"tj 	c #6E4B47",
"uj 	c #724F4A",
"vj 	c #77544C",
"wj 	c #7F5851",
"xj 	c #896059",
"yj 	c #966D65",
"zj 	c #9E7269",
"Aj 	c #92645A",
"Bj 	c #8B5E55",
"Cj 	c #92655C",
"Dj 	c #895E56",
"Ej 	c #966863",
"Fj 	c #91635D",
"Gj 	c #94655E",
"Hj 	c #8B5952",
"Ij 	c #925F56",
"Jj 	c #925E55",
"Kj 	c #935D54",
"Lj 	c #925C52",
"Mj 	c #8C5C53",
"Nj 	c #966860",
"Oj 	c #AD857D",
"Pj 	c #B68F88",
"Qj 	c #BA9791",
"Rj 	c #723D3F",
"Sj 	c #642E30",
"Tj 	c #713F3F",
"Uj 	c #714041",
"Vj 	c #784A4A",
"Wj 	c #6E4040",
"Xj 	c #703F42",
"Yj 	c #6F3F43",
"Zj 	c #6F4145",
"`j 	c #6C4246",
" k 	c #623C3F",
".k 	c #583538",
"+k 	c #533638",
"@k 	c #583F41",
"#k 	c #52393D",
"$k 	c #3E282B",
"%k 	c #200C0F",
"&k 	c #1A0A0C",
"*k 	c #110506",
"=k 	c #0B0304",
"-k 	c #070203",
";k 	c #070304",
">k 	c #080404",
",k 	c #1A0A08",
"'k 	c #241210",
")k 	c #240F0C",
"!k 	c #311A15",
"~k 	c #311A16",
"{k 	c #2B140F",
"]k 	c #28110C",
"^k 	c #27110D",
"/k 	c #1C0907",
"(k 	c #150604",
"_k 	c #0D0303",
":k 	c #110809",
"<k 	c #1B1010",
"[k 	c #231615",
"}k 	c #2F1F1D",
"|k 	c #371E1D",
"1k 	c #442623",
"2k 	c #51302A",
"3k 	c #552F28",
"4k 	c #623A32",
"5k 	c #683F36",
"6k 	c #673A31",
"7k 	c #6E4035",
"8k 	c #78493D",
"9k 	c #7E4B3F",
"0k 	c #855144",
"ak 	c #966053",
"bk 	c #966154",
"ck 	c #8B5649",
"dk 	c #8B5548",
"ek 	c #7A4336",
"fk 	c #966059",
"gk 	c #925C54",
"hk 	c #8D554B",
"ik 	c #8B5349",
"jk 	c #8A4F45",
"kk 	c #8F5247",
"lk 	c #93574B",
"mk 	c #91574B",
"nk 	c #8D574A",
"ok 	c #925C50",
"pk 	c #935F54",
"qk 	c #A6766A",
"rk 	c #AF8076",
"sk 	c #AB8076",
"tk 	c #6F2826",
"uk 	c #732D2A",
"vk 	c #833F3D",
"wk 	c #8A4846",
"xk 	c #854541",
"yk 	c #864744",
"zk 	c #844643",
"Ak 	c #773C39",
"Bk 	c #6E3634",
"Ck 	c #6E3937",
"Dk 	c #6B3B38",
"Ek 	c #633734",
"Fk 	c #562F2C",
"Gk 	c #472623",
"Hk 	c #422120",
"Ik 	c #2C1414",
"Jk 	c #271212",
"Kk 	c #1A0A0A",
"Lk 	c #0A0404",
"Mk 	c #080101",
"Nk 	c #0F0202",
"Ok 	c #1F0A08",
"Pk 	c #260E0B",
"Qk 	c #270C0A",
"Rk 	c #2C100C",
"Sk 	c #290D09",
"Tk 	c #270B07",
"Uk 	c #290C08",
"Vk 	c #270B08",
"Wk 	c #240A07",
"Xk 	c #1F0806",
"Yk 	c #170504",
"Zk 	c #100302",
"`k 	c #090101",
" l 	c #110707",
".l 	c #241410",
"+l 	c #2E1A15",
"@l 	c #381B17",
"#l 	c #542B24",
"$l 	c #592C25",
"%l 	c #5C2A22",
"&l 	c #622D24",
"*l 	c #743B32",
"=l 	c #82453C",
"-l 	c #8E4F44",
";l 	c #98584A",
">l 	c #9A594A",
",l 	c #975445",
"'l 	c #955344",
")l 	c #945243",
"!l 	c #7F3D2E",
"~l 	c #7D3C2D",
"{l 	c #7F3B33",
"]l 	c #87443D",
"^l 	c #89453E",
"/l 	c #924E48",
"(l 	c #8C4841",
"_l 	c #84413A",
":l 	c #8B493F",
"<l 	c #8E4D41",
"[l 	c #8F4E42",
"}l 	c #945448",
"|l 	c #945549",
"1l 	c #905349",
"2l 	c #90544B",
"3l 	c #9D635B",
"4l 	c #712C28",
"5l 	c #732E2A",
"6l 	c #85423E",
"7l 	c #894843",
"8l 	c #874842",
"9l 	c #884944",
"0l 	c #874A46",
"al 	c #7F4642",
"bl 	c #77413E",
"cl 	c #713F3B",
"dl 	c #6A3B37",
"el 	c #623834",
"fl 	c #55302B",
"gl 	c #43221E",
"hl 	c #422220",
"il 	c #381C1B",
"jl 	c #2E1717",
"kl 	c #261312",
"ll 	c #1B0C0B",
"ml 	c #110606",
"nl 	c #0C0404",
"ol 	c #0E0606",
"pl 	c #0D0808",
"ql 	c #030000",
"rl 	c #150605",
"sl 	c #1C0A09",
"tl 	c #220C0B",
"ul 	c #230C0A",
"vl 	c #290F0B",
"wl 	c #2A0F0C",
"xl 	c #270D0A",
"yl 	c #240B09",
"zl 	c #1E0806",
"Al 	c #160404",
"Bl 	c #24140F",
"Cl 	c #2E1A14",
"Dl 	c #391D19",
"El 	c #45231E",
"Fl 	c #522923",
"Gl 	c #5A2D26",
"Hl 	c #64322B",
"Il 	c #6C372F",
"Jl 	c #783E36",
"Kl 	c #83473E",
"Ll 	c #8D4F44",
"Ml 	c #965548",
"Nl 	c #945244",
"Ol 	c #935144",
"Pl 	c #925043",
"Ql 	c #904E43",
"Rl 	c #87443E",
"Sl 	c #88453E",
"Tl 	c #894741",
"Ul 	c #884742",
"Vl 	c #874641",
"Wl 	c #905147",
"Xl 	c #905248",
"Yl 	c #8E524A",
"Zl 	c #8D514B",
"`l 	c #74302A",
" m 	c #73302A",
".m 	c #88453F",
"+m 	c #874741",
"@m 	c #894B44",
"#m 	c #884B45",
"$m 	c #884F49",
"%m 	c #874F49",
"&m 	c #814C46",
"*m 	c #764540",
"=m 	c #673B36",
"-m 	c #613A34",
";m 	c #53302A",
">m 	c #3E1E1A",
",m 	c #412220",
"'m 	c #381E1C",
")m 	c #301A18",
"!m 	c #251312",
"~m 	c #1A0C0B",
"{m 	c #120D0D",
"]m 	c #12100F",
"^m 	c #121111",
"/m 	c #0D0A0B",
"(m 	c #0A0202",
"_m 	c #120505",
":m 	c #1A0909",
"<m 	c #200A0A",
"[m 	c #28100E",
"}m 	c #270F0C",
"|m 	c #2B120F",
"1m 	c #2A110F",
"2m 	c #270E0C",
"3m 	c #230C09",
"4m 	c #1D0807",
"5m 	c #150403",
"6m 	c #0D0202",
"7m 	c #110807",
"8m 	c #1B0D0A",
"9m 	c #25140F",
"0m 	c #3B1F1A",
"am 	c #4A2824",
"bm 	c #4F2822",
"cm 	c #5A2F29",
"dm 	c #6B3933",
"em 	c #754039",
"fm 	c #7B413A",
"gm 	c #854741",
"hm 	c #8D4D44",
"im 	c #8F5046",
"jm 	c #925147",
"km 	c #914F44",
"lm 	c #925045",
"mm 	c #9F5D53",
"nm 	c #98564B",
"om 	c #85433D",
"pm 	c #86433E",
"qm 	c #86453F",
"rm 	c #864642",
"sm 	c #854642",
"tm 	c #8C4C4A",
"um 	c #8A4B48",
"vm 	c #8E504B",
"wm 	c #8D524D",
"xm 	c #8F5450",
"ym 	c #7F3C3C",
"zm 	c #7B3A39",
"Am 	c #8F4F4E",
"Bm 	c #915250",
"Cm 	c #925552",
"Dm 	c #905653",
"Em 	c #8A5350",
"Fm 	c #84504D",
"Gm 	c #7A4A47",
"Hm 	c #734744",
"Im 	c #734A48",
"Jm 	c #694541",
"Km 	c #563633",
"Lm 	c #4C2F2C",
"Mm 	c #452928",
"Nm 	c #3A2121",
"Om 	c #2F1B1B",
"Pm 	c #241413",
"Qm 	c #1C0F0F",
"Rm 	c #120909",
"Sm 	c #0B0504",
"Tm 	c #090403",
"Um 	c #0D0605",
"Vm 	c #130B0B",
"Wm 	c #150F0F",
"Xm 	c #171414",
"Ym 	c #191819",
"Zm 	c #171516",
"`m 	c #110E0F",
" n 	c #140706",
".n 	c #200E0D",
"+n 	c #271410",
"@n 	c #291411",
"#n 	c #28130F",
"$n 	c #1F0B08",
"%n 	c #1A0806",
"&n 	c #130403",
"*n 	c #0B0201",
"=n 	c #080403",
"-n 	c #1B0B08",
";n 	c #26120D",
">n 	c #2F1912",
",n 	c #351713",
"'n 	c #3E1D18",
")n 	c #4C261F",
"!n 	c #5B3029",
"~n 	c #65332C",
"{n 	c #703932",
"]n 	c #7F433D",
"^n 	c #8C4C41",
"/n 	c #955349",
"(n 	c #965448",
"_n 	c #9B584D",
":n 	c #924F44",
"<n 	c #89473B",
"[n 	c #813F32",
"}n 	c #824236",
"|n 	c #8A4C42",
"1n 	c #874B44",
"2n 	c #7A3F38",
"3n 	c #8A524B",
"4n 	c #8B5249",
"5n 	c #8D524A",
"6n 	c #8D524B",
"7n 	c #894E49",
"8n 	c #874B48",
"9n 	c #8C4E4D",
"0n 	c #854142",
"an 	c #824040",
"bn 	c #905050",
"cn 	c #925352",
"dn 	c #935554",
"en 	c #925655",
"fn 	c #8C5352",
"gn 	c #7B4A49",
"hn 	c #734746",
"in 	c #734A49",
"jn 	c #674341",
"kn 	c #563634",
"ln 	c #4C302F",
"mn 	c #452929",
"nn 	c #3A2122",
"on 	c #301C1C",
"pn 	c #241414",
"qn 	c #1B0E0F",
"rn 	c #120808",
"sn 	c #100706",
"tn 	c #140909",
"un 	c #160C0D",
"vn 	c #1B1718",
"wn 	c #1D191B",
"xn 	c #161214",
"yn 	c #170908",
"zn 	c #1C0C0B",
"An 	c #22100D",
"Bn 	c #24110D",
"Cn 	c #200C09",
"Dn 	c #1D0A07",
"En 	c #170605",
"Fn 	c #1C0B07",
"Gn 	c #26120C",
"Hn 	c #301812",
"In 	c #381915",
"Jn 	c #5A2E26",
"Kn 	c #65332B",
"Ln 	c #703931",
"Mn 	c #7E4039",
"Nn 	c #8B4940",
"On 	c #8F4D41",
"Pn 	c #955247",
"Qn 	c #955245",
"Rn 	c #9A564A",
"Sn 	c #8D4A3E",
"Tn 	c #884539",
"Un 	c #864435",
"Vn 	c #874738",
"Wn 	c #8D4E41",
"Xn 	c #8E5044",
"Yn 	c #7D4339",
"Zn 	c #874F47",
"`n 	c #8D544C",
" o 	c #8E554B",
".o 	c #91564D",
"+o 	c #91554E",
"@o 	c #8F534D",
"#o 	c #8D4F4B",
"$o 	c #90514F",
"%o 	c #8E474C",
"&o 	c #8D494C",
"*o 	c #925154",
"=o 	c #935254",
"-o 	c #945556",
";o 	c #935557",
">o 	c #8D5355",
",o 	c #875354",
"'o 	c #7D4D4E",
")o 	c #734647",
"!o 	c #714948",
"~o 	c #63403E",
"{o 	c #553535",
"]o 	c #4F3232",
"^o 	c #46292B",
"/o 	c #3A2123",
"(o 	c #321D1F",
"_o 	c #271617",
":o 	c #110708",
"<o 	c #0C0505",
"[o 	c #130908",
"}o 	c #160A0A",
"|o 	c #190E0E",
"1o 	c #201A1B",
"2o 	c #221D20",
"3o 	c #211C1F",
"4o 	c #1D1719",
"5o 	c #140807",
"6o 	c #190B09",
"7o 	c #1D0D0A",
"8o 	c #1F0E0A",
"9o 	c #1F0D08",
"0o 	c #1E0B07",
"ao 	c #090809",
"bo 	c #26100B",
"co 	c #321812",
"do 	c #3D1C19",
"eo 	c #47231D",
"fo 	c #492118",
"go 	c #56281F",
"ho 	c #67332A",
"io 	c #733930",
"jo 	c #7A3B32",
"ko 	c #843F36",
"lo 	c #924F41",
"mo 	c #955142",
"no 	c #945042",
"oo 	c #914C3E",
"po 	c #955041",
"qo 	c #854133",
"ro 	c #884436",
"so 	c #904E3A",
"to 	c #924F3D",
"uo 	c #965544",
"vo 	c #975748",
"wo 	c #874A3C",
"xo 	c #864B3E",
"yo 	c #8C5247",
"zo 	c #93594D",
"Ao 	c #975D50",
"Bo 	c #985D51",
"Co 	c #9A5B52",
"Do 	c #9B5C54",
"Eo 	c #975751",
"Fo 	c #985753",
"Go 	c #8F484D",
"Ho 	c #904C4F",
"Io 	c #914F52",
"Jo 	c #945457",
"Ko 	c #915456",
"Lo 	c #8B5153",
"Mo 	c #8D5859",
"No 	c #764948",
"Oo 	c #724847",
"Po 	c #684342",
"Qo 	c #5B3A38",
"Ro 	c #503332",
"So 	c #442729",
"To 	c #392123",
"Uo 	c #301C1D",
"Vo 	c #251516",
"Wo 	c #1A0D0E",
"Xo 	c #0F0706",
"Yo 	c #160B0A",
"Zo 	c #1D1213",
"`o 	c #21191B",
" p 	c #252022",
".p 	c #272326",
"+p 	c #241F22",
"@p 	c #1E171A",
"#p 	c #110604",
"$p 	c #140704",
"%p 	c #190805",
"&p 	c #160503",
"*p 	c #090304",
"=p 	c #100505",
"-p 	c #301712",
";p 	c #3F1E1C",
">p 	c #441F1A",
",p 	c #522820",
"'p 	c #613228",
")p 	c #663327",
"!p 	c #6E352A",
"~p 	c #7D3F35",
"{p 	c #89463C",
"]p 	c #8D493C",
"^p 	c #8D4939",
"/p 	c #8E4939",
"(p 	c #884433",
"_p 	c #8B4534",
":p 	c #8E4838",
"<p 	c #894534",
"[p 	c #833F2D",
"}p 	c #8B4532",
"|p 	c #904A39",
"1p 	c #8F4C3B",
"2p 	c #985B4B",
"3p 	c #965A4C",
"4p 	c #965B4D",
"5p 	c #975C4F",
"6p 	c #8F5348",
"7p 	c #93554B",
"8p 	c #9C5D54",
"9p 	c #97594F",
"0p 	c #904B4F",
"ap 	c #924F52",
"bp 	c #935456",
"cp 	c #95585A",
"dp 	c #935758",
"ep 	c #8C5455",
"fp 	c #8E5A5A",
"gp 	c #875655",
"hp 	c #784A48",
"ip 	c #704745",
"jp 	c #5C3A38",
"kp 	c #503331",
"lp 	c #422727",
"mp 	c #371F21",
"np 	c #2E1B1B",
"op 	c #221314",
"pp 	c #180C0D",
"qp 	c #0E0607",
"rp 	c #060302",
"sp 	c #0A0504",
"tp 	c #100807",
"up 	c #180C0B",
"vp 	c #211515",
"wp 	c #251C1E",
"xp 	c #292326",
"yp 	c #2B272A",
"zp 	c #292427",
"Ap 	c #100503",
"Bp 	c #140604",
"Cp 	c #160604",
"Dp 	c #27120E",
"Ep 	c #45211B",
"Fp 	c #532A21",
"Gp 	c #623329",
"Hp 	c #673428",
"Ip 	c #6F362A",
"Jp 	c #7D3F34",
"Kp 	c #88473B",
"Lp 	c #8D4A3C",
"Mp 	c #8C4939",
"Np 	c #884332",
"Op 	c #8F4A39",
"Pp 	c #8B4636",
"Qp 	c #874332",
"Rp 	c #914B3C",
"Sp 	c #8E4B3B",
"Tp 	c #8F4D3E",
"Up 	c #995B4C",
"Vp 	c #975C4D",
"Wp 	c #965C4E",
"Xp 	c #975C50",
"Yp 	c #945A4E",
"Zp 	c #8D5248",
"`p 	c #91554B",
" q 	c #995C53",
".q 	c #95584F",
"+q 	c #965757",
"@q 	c #965958",
"#q 	c #965B5A",
"$q 	c #985F5D",
"%q 	c #9A6562",
"&q 	c #94625D",
"*q 	c #865A54",
"=q 	c #7B514B",
"-q 	c #6D4641",
";q 	c #67433F",
">q 	c #5F3E3A",
",q 	c #543734",
"'q 	c #432A29",
")q 	c #352020",
"!q 	c #291818",
"~q 	c #1E1111",
"{q 	c #180D0D",
"]q 	c #070403",
"^q 	c #0C0605",
"/q 	c #140A0A",
"(q 	c #1C0F0E",
"_q 	c #231412",
":q 	c #261A1A",
"<q 	c #282022",
"[q 	c #2A2629",
"}q 	c #2E2B2E",
"|q 	c #2E2A2B",
"1q 	c #322B2B",
"2q 	c #160707",
"3q 	c #120404",
"4q 	c #1C0D0B",
"5q 	c #261410",
"6q 	c #2F1A15",
"7q 	c #3E211C",
"8q 	c #4C2921",
"9q 	c #542B22",
"0q 	c #5F3227",
"aq 	c #6C3A2E",
"bq 	c #733D30",
"cq 	c #763D2F",
"dq 	c #814536",
"eq 	c #8A4C3C",
"fq 	c #8E4D3F",
"gq 	c #8F4D3F",
"hq 	c #965345",
"iq 	c #8E4B3D",
"jq 	c #9D584F",
"kq 	c #975249",
"lq 	c #99594E",
"mq 	c #995C50",
"nq 	c #8F5447",
"oq 	c #965C4F",
"pq 	c #8C544C",
"qq 	c #89524A",
"rq 	c #8D564E",
"sq 	c #8C564D",
"tq 	c #8E574F",
"uq 	c #8B544C",
"vq 	c #8D534F",
"wq 	c #915A56",
"xq 	c #97645E",
"yq 	c #996761",
"zq 	c #8B5D56",
"Aq 	c #81564F",
"Bq 	c #784F49",
"Cq 	c #765049",
"Dq 	c #6A4841",
"Eq 	c #5C3C37",
"Fq 	c #4E332E",
"Gq 	c #412927",
"Hq 	c #331E1D",
"Iq 	c #271716",
"Jq 	c #1D100F",
"Kq 	c #150A0A",
"Lq 	c #1D0F0E",
"Mq 	c #2F2628",
"Nq 	c #322D2F",
"Oq 	c #353134",
"Pq 	c #353131",
"Qq 	c #352D2C",
"Rq 	c #190708",
"Sq 	c #150606",
"Tq 	c #0F0303",
"Uq 	c #120706",
"Vq 	c #2E1A13",
"Wq 	c #48251D",
"Xq 	c #4F281D",
"Yq 	c #5A2E22",
"Zq 	c #6A392D",
"`q 	c #744032",
" r 	c #784132",
".r 	c #85473A",
"+r 	c #89493E",
"@r 	c #914E43",
"#r 	c #975449",
"$r 	c #975448",
"%r 	c #95524A",
"&r 	c #914E46",
"*r 	c #94544C",
"=r 	c #8D5046",
"-r 	c #91574F",
";r 	c #88514B",
">r 	c #814A44",
",r 	c #905952",
"'r 	c #8F5853",
")r 	c #95635C",
"!r 	c #986760",
"~r 	c #91625B",
"{r 	c #8A5D56",
"]r 	c #7F544C",
"^r 	c #774E47",
"/r 	c #79524C",
"(r 	c #6B4842",
"_r 	c #5A3B35",
":r 	c #4C302B",
"<r 	c #402726",
"[r 	c #311D1B",
"}r 	c #271615",
"|r 	c #0E0706",
"1r 	c #100708",
"2r 	c #20100F",
"3r 	c #2E1F1F",
"4r 	c #352B2C",
"5r 	c #383235",
"6r 	c #3B383A",
"7r 	c #3C3737",
"8r 	c #38302F",
"9r 	c #1D090A",
"0r 	c #190809",
"ar 	c #140606",
"br 	c #0D0404",
"cr 	c #24140E",
"dr 	c #2D1A13",
"er 	c #361A14",
"fr 	c #46241B",
"gr 	c #4E261C",
"hr 	c #582C21",
"ir 	c #68392C",
"jr 	c #794233",
"kr 	c #7E4434",
"lr 	c #844639",
"mr 	c #88483D",
"nr 	c #8A483E",
"or 	c #945146",
"pr 	c #98554B",
"qr 	c #934F45",
"rr 	c #925048",
"sr 	c #8E4C45",
"tr 	c #915148",
"ur 	c #92524A",
"vr 	c #8C5148",
"wr 	c #90554E",
"xr 	c #915851",
"yr 	c #7E4641",
"zr 	c #915953",
"Ar 	c #8D5550",
"Br 	c #975C59",
"Cr 	c #945B58",
"Dr 	c #925D58",
"Er 	c #95605C",
"Fr 	c #925F5B",
"Gr 	c #885653",
"Hr 	c #7D4D49",
"Ir 	c #794B49",
"Jr 	c #784E4C",
"Kr 	c #6C4643",
"Lr 	c #553130",
"Mr 	c #452624",
"Nr 	c #3C2020",
"Or 	c #2F1717",
"Pr 	c #291716",
"Qr 	c #201111",
"Rr 	c #120707",
"Sr 	c #1A0C0C",
"Tr 	c #2C1716",
"Ur 	c #2E1E1D",
"Vr 	c #332829",
"Wr 	c #3C3537",
"Xr 	c #444141",
"Yr 	c #403B3A",
"Zr 	c #372E2B",
"`r 	c #291110",
" s 	c #1E0909",
".s 	c #1B0908",
"+s 	c #080605",
"@s 	c #1D0E0B",
"#s 	c #271611",
"$s 	c #301D16",
"%s 	c #45221C",
"&s 	c #562D25",
"*s 	c #61332A",
"=s 	c #653329",
"-s 	c #6D362B",
";s 	c #7C4136",
">s 	c #884A3E",
",s 	c #8D4B40",
"'s 	c #8F493D",
")s 	c #914A3F",
"!s 	c #964F44",
"~s 	c #A0574C",
"{s 	c #A55C52",
"]s 	c #92493E",
"^s 	c #9A5347",
"/s 	c #955246",
"(s 	c #935046",
"_s 	c #9D5B4F",
":s 	c #945147",
"<s 	c #8B4A3F",
"[s 	c #8E4D43",
"}s 	c #904F45",
"|s 	c #925248",
"1s 	c #94554A",
"2s 	c #84453A",
"3s 	c #905247",
"4s 	c #8B4C41",
"5s 	c #975B5A",
"6s 	c #9E6261",
"7s 	c #9B6160",
"8s 	c #945D5B",
"9s 	c #96605F",
"0s 	c #8B5857",
"as 	c #825150",
"bs 	c #7D4E4E",
"cs 	c #784D4D",
"ds 	c #6A4342",
"es 	c #512D2D",
"fs 	c #452525",
"gs 	c #3C2021",
"hs 	c #2E1618",
"is 	c #261414",
"js 	c #1C0D0E",
"ks 	c #130808",
"ls 	c #0B0405",
"ms 	c #241212",
"ns 	c #332222",
"os 	c #382D2E",
"ps 	c #3F3A3B",
"qs 	c #4A4747",
"rs 	c #4B4745",
"ss 	c #433A37",
"ts 	c #2D1412",
"us 	c #260F0E",
"vs 	c #200D0B",
"ws 	c #251410",
"xs 	c #2C1813",
"ys 	c #472521",
"zs 	c #572F29",
"As 	c #633730",
"Bs 	c #6C3C35",
"Cs 	c #723D36",
"Ds 	c #7C433B",
"Es 	c #864941",
"Fs 	c #924F42",
"Gs 	c #965246",
"Hs 	c #985246",
"Is 	c #9B5548",
"Js 	c #A45C51",
"Ks 	c #954E42",
"Ls 	c #9E584B",
"Ms 	c #965549",
"Ns 	c #945347",
"Os 	c #8F4D42",
"Ps 	c #935246",
"Qs 	c #925145",
"Rs 	c #945547",
"Ss 	c #965749",
"Ts 	c #955648",
"Us 	c #905144",
"Vs 	c #8F4F42",
"Ws 	c #965A5B",
"Xs 	c #A56868",
"Ys 	c #9C6162",
"Zs 	c #975D5D",
"`s 	c #976161",
" t 	c #935E5E",
".t 	c #8D5959",
"+t 	c #865455",
"@t 	c #7F5051",
"#t 	c #784C4D",
"$t 	c #684041",
"%t 	c #4E2B2B",
"&t 	c #452626",
"*t 	c #3C2122",
"=t 	c #241213",
"-t 	c #190B0C",
";t 	c #120708",
">t 	c #0F0606",
",t 	c #251212",
"'t 	c #2F1B1A",
")t 	c #3C3132",
"!t 	c #443F41",
"~t 	c #514F4F",
"{t 	c #55504E",
"]t 	c #4E4441",
"^t 	c #321614",
"/t 	c #2D1512",
"(t 	c #200E0B",
"_t 	c #130604",
":t 	c #130807",
"<t 	c #23130F",
"[t 	c #281511",
"}t 	c #3A1F1D",
"|t 	c #57322D",
"1t 	c #643A36",
"2t 	c #70413C",
"3t 	c #75423D",
"4t 	c #7C4540",
"5t 	c #834944",
"6t 	c #8B4E45",
"7t 	c #945246",
"8t 	c #9A564B",
"9t 	c #995448",
"0t 	c #975245",
"at 	c #A25C4F",
"bt 	c #965144",
"ct 	c #9F5B4D",
"dt 	c #97584B",
"et 	c #99564B",
"ft 	c #965447",
"gt 	c #915143",
"ht 	c #935445",
"it 	c #9B5C4D",
"jt 	c #9E5F50",
"kt 	c #8F5141",
"lt 	c #8F4F40",
"mt 	c #8B5F61",
"nt 	c #926567",
"ot 	c #92686A",
"pt 	c #8D6566",
"qt 	c #8D6868",
"rt 	c #916C6C",
"st 	c #866365",
"tt 	c #806063",
"ut 	c #7C5E60",
"vt 	c #735558",
"wt 	c #664B4E",
"xt 	c #5A4244",
"yt 	c #493436",
"zt 	c #412D2F",
"At 	c #392628",
"Bt 	c #2F2022",
"Ct 	c #1B0F10",
"Dt 	c #12090A",
"Et 	c #0F0908",
"Ft 	c #191110",
"Gt 	c #211817",
"Ht 	c #271B1B",
"It 	c #2E2120",
"Jt 	c #372D2E",
"Kt 	c #433E40",
"Lt 	c #515053",
"Mt 	c #5D5E5F",
"Nt 	c #5F5D5C",
"Ot 	c #544E4B",
"Pt 	c #332322",
"Qt 	c #2C1E1C",
"Rt 	c #241918",
"St 	c #1F1615",
"Tt 	c #0C0706",
"Ut 	c #050302",
"Vt 	c #0F0808",
"Wt 	c #170E0D",
"Xt 	c #211716",
"Yt 	c #322928",
"Zt 	c #443738",
"`t 	c #604E4F",
" u 	c #665152",
".u 	c #675050",
"+u 	c #735B5B",
"@u 	c #74595A",
"#u 	c #795D5E",
"$u 	c #7F605F",
"%u 	c #805D58",
"&u 	c #7F5B56",
"*u 	c #7E5853",
"=u 	c #724C46",
"-u 	c #69433D",
";u 	c #845E59",
">u 	c #744E48",
",u 	c #663F38",
"'u 	c #623B33",
")u 	c #7A524C",
"!u 	c #784D48",
"~u 	c #8B5F5B",
"{u 	c #8D615D",
"]u 	c #865753",
"^u 	c #83544F",
"/u 	c #82554D",
"(u 	c #81554A",
"_u 	c #82554B",
":u 	c #82574E",
"<u 	c #6C4139",
"[u 	c #73473E",
"}u 	c #5A2E24",
"|u 	c #8F6A6C",
"1u 	c #906C6D",
"2u 	c #947475",
"3u 	c #8F6F70",
"4u 	c #8D7070",
"5u 	c #917474",
"6u 	c #836B6D",
"7u 	c #7C6567",
"8u 	c #745F60",
"9u 	c #6A5758",
"0u 	c #5D4C4D",
"au 	c #4F3F41",
"bu 	c #453839",
"cu 	c #3C2E2E",
"du 	c #211819",
"eu 	c #171010",
"fu 	c #0D0809",
"gu 	c #100C0B",
"hu 	c #231A1A",
"iu 	c #2B2121",
"ju 	c #342828",
"ku 	c #3C3334",
"lu 	c #484548",
"mu 	c #58585C",
"nu 	c #656668",
"ou 	c #676665",
"pu 	c #5F5A57",
"qu 	c #4E4344",
"ru 	c #43393B",
"su 	c #3C3232",
"tu 	c #352C2C",
"uu 	c #2D2726",
"vu 	c #231D1C",
"wu 	c #161111",
"xu 	c #100B0B",
"yu 	c #191212",
"zu 	c #332D2C",
"Au 	c #453A3C",
"Bu 	c #564B4D",
"Cu 	c #635859",
"Du 	c #6B5F60",
"Eu 	c #6C5E5F",
"Fu 	c #766768",
"Gu 	c #7A6A6C",
"Hu 	c #817172",
"Iu 	c #887575",
"Ju 	c #8D7574",
"Ku 	c #907776",
"Lu 	c #927978",
"Mu 	c #8C7473",
"Nu 	c #8B7474",
"Ou 	c #8D7372",
"Pu 	c #826868",
"Qu 	c #7F6665",
"Ru 	c #896F6F",
"Su 	c #886A69",
"Tu 	c #886969",
"Uu 	c #876464",
"Vu 	c #856060",
"Wu 	c #7F5859",
"Xu 	c #7D5655",
"Yu 	c #7C5853",
"Zu 	c #7D5953",
"`u 	c #7E5A54",
" v 	c #7E5B56",
".v 	c #7F5E5A",
"+v 	c #7C5A56",
"@v 	c #61403D",
"#v 	c #947778",
"$v 	c #8E7474",
"%v 	c #988081",
"&v 	c #927A7A",
"*v 	c #8E7877",
"=v 	c #927E7D",
"-v 	c #907E7E",
";v 	c #877778",
">v 	c #7C6E70",
",v 	c #76696A",
"'v 	c #706365",
")v 	c #625758",
"!v 	c #554A4C",
"~v 	c #4A4142",
"{v 	c #3E3535",
"]v 	c #332A2B",
"^v 	c #272021",
"/v 	c #1B1616",
"(v 	c #181314",
"_v 	c #211B1C",
":v 	c #2F2727",
"<v 	c #3B3130",
"[v 	c #423A3B",
"}v 	c #4D4A4E",
"|v 	c #5F6065",
"1v 	c #6D7072",
"2v 	c #706F6F",
"3v 	c #6C6866",
"4v 	c #6C6466",
"5v 	c #5F575A",
"6v 	c #504A4B",
"7v 	c #494444",
"8v 	c #403B3B",
"9v 	c #302C2C",
"0v 	c #242021",
"av 	c #100E0E",
"bv 	c #080707",
"cv 	c #191515",
"dv 	c #343130",
"ev 	c #443E41",
"fv 	c #544F51",
"gv 	c #666263",
"hv 	c #726D6E",
"iv 	c #7A7375",
"jv 	c #847D7F",
"kv 	c #948A8B",
"lv 	c #9C8C8E",
"mv 	c #A49496",
"nv 	c #AA999B",
"ov 	c #A9989B",
"pv 	c #AE9DA0",
"qv 	c #99888A",
"rv 	c #938386",
"sv 	c #9B898B",
"tv 	c #B09A9C",
"uv 	c #988285",
"vv 	c #9C8487",
"wv 	c #82686D",
"xv 	c #775C62",
"yv 	c #75585E",
"zv 	c #73575B",
"Av 	c #785D5C",
"Bv 	c #7A5F5E",
"Cv 	c #795F5F",
"Dv 	c #947977",
"Ev 	c #886E6D",
"Fv 	c #6B5252",
"Gv 	c #CFCBD4",
"Hv 	c #CFCAD3",
"Iv 	c #D0CAD1",
"Jv 	c #BCB5BB",
"Kv 	c #B4ADB2",
"Lv 	c #B9B4BA",
"Mv 	c #B7B3B9",
"Nv 	c #AEABAF",
"Ov 	c #9F9CA0",
"Pv 	c #8B888D",
"Qv 	c #7D7B7F",
"Rv 	c #716F72",
"Sv 	c #5F5D60",
"Tv 	c #4F504F",
"Uv 	c #414040",
"Vv 	c #312D2F",
"Wv 	c #161616",
"Xv 	c #0A0B0A",
"Yv 	c #121112",
"Zv 	c #1B1A1B",
"`v 	c #272626",
" w 	c #343233",
".w 	c #434042",
"+w 	c #524F51",
"@w 	c #5F5D5F",
"#w 	c #6C6B6D",
"$w 	c #747577",
"%w 	c #78787B",
"&w 	c #7B7C7E",
"*w 	c #7D7C7D",
"=w 	c #7C797B",
"-w 	c #737071",
";w 	c #696667",
">w 	c #5B5959",
",w 	c #4E4D4B",
"'w 	c #3F3D3C",
")w 	c #313131",
"!w 	c #242324",
"~w 	c #1A191A",
"{w 	c #0A0A0A",
"]w 	c #070708",
"^w 	c #0F0F10",
"/w 	c #262425",
"(w 	c #343133",
"_w 	c #444042",
":w 	c #5A5457",
"<w 	c #6B6367",
"[w 	c #7F7679",
"}w 	c #8F8588",
"|w 	c #9C9296",
"1w 	c #ADA1A5",
"2w 	c #BBAFB4",
"3w 	c #CABCC2",
"4w 	c #D3C3CC",
"5w 	c #D8C8D4",
"6w 	c #DDD0DA",
"7w 	c #DDD0D6",
"8w 	c #DACCD1",
"9w 	c #DBC8D1",
"0w 	c #DFD6DF",
"aw 	c #C1C1CA",
"bw 	c #A8B0B6",
"cw 	c #C8CAD3",
"dw 	c #D2C5CF",
"ew 	c #C7BBC1",
"fw 	c #BEBBBF",
"gw 	c #B9B8BD",
"hw 	c #B5B1B9",
"iw 	c #B4ACB6",
"jw 	c #BAB0BA",
"kw 	c #C3B8C2",
"lw 	c #C4B9C3",
"mw 	c #BEB3BB",
"nw 	c #BDB4BA",
"ow 	c #BCB2B9",
"pw 	c #C3B8BE",
"qw 	c #D5D0D9",
"rw 	c #D6CFD8",
"sw 	c #DAD2D8",
"tw 	c #D7D0D5",
"uw 	c #C7BDC2",
"vw 	c #BFB6BA",
"ww 	c #C2BBBF",
"xw 	c #BEB8BC",
"yw 	c #B5AFB4",
"zw 	c #A6A1A4",
"Aw 	c #918C90",
"Bw 	c #848083",
"Cw 	c #777577",
"Dw 	c #646163",
"Ew 	c #535353",
"Fw 	c #434142",
"Gw 	c #171616",
"Hw 	c #151414",
"Iw 	c #2C2A2B",
"Jw 	c #4A4648",
"Kw 	c #595557",
"Lw 	c #686467",
"Mw 	c #767375",
"Nw 	c #7E7B7E",
"Ow 	c #838183",
"Pw 	c #878588",
"Qw 	c #898587",
"Rw 	c #888385",
"Sw 	c #7E797B",
"Tw 	c #747071",
"Uw 	c #686565",
"Vw 	c #585554",
"Ww 	c #494645",
"Xw 	c #3A3939",
"Yw 	c #2D2C2D",
"Zw 	c #111010",
"`w 	c #0E0E0F",
" x 	c #262325",
".x 	c #343032",
"+x 	c #585053",
"@x 	c #6A6063",
"#x 	c #807577",
"$x 	c #928588",
"%x 	c #9F9194",
"&x 	c #AC9CA0",
"*x 	c #B6A7AB",
"=x 	c #C4B3B7",
"-x 	c #CEBCC4",
";x 	c #D6C3CE",
">x 	c #DECDD6",
",x 	c #E1D3D7",
"'x 	c #DBCACE",
")x 	c #DAC4CC",
"!x 	c #DED3DD",
"~x 	c #BCBBC4",
"{x 	c #B0B8BE",
"]x 	c #CBCDD6",
"^x 	c #D6C6D0",
"/x 	c #C9BAC0",
"(x 	c #C6C1C5",
"_x 	c #C6C3C8",
":x 	c #BDB7BF",
"<x 	c #B8AEB8",
"[x 	c #C1B5BF",
"}x 	c #CFC2CB",
"|x 	c #D2C5CD",
"1x 	c #CABDC4",
"2x 	c #CDC1C6",
"3x 	c #C5B9BE",
"4x 	c #D0C4C8",
"5x 	c #DACFD3",
"6x 	c #DDCFD4",
"7x 	c #E8DADD",
"8x 	c #E2D2D4",
"9x 	c #DACACB",
"0x 	c #D6C6C7",
"ax 	c #D4C4C5",
"bx 	c #C9BABC",
"cx 	c #C0B1B4",
"dx 	c #B3A5A8",
"ex 	c #9E9294",
"fx 	c #93888A",
"gx 	c #857D7F",
"hx 	c #6F6768",
"ix 	c #5C5A59",
"jx 	c #272324",
"kx 	c #080607",
"lx 	c #191516",
"mx 	c #1F1B1C",
"nx 	c #332E2F",
"ox 	c #3F393A",
"px 	c #554D50",
"qx 	c #645B5E",
"rx 	c #746A6E",
"sx 	c #83787C",
"tx 	c #8B8185",
"ux 	c #958C8F",
"vx 	c #9A9194",
"wx 	c #9A9092",
"xx 	c #978B8E",
"yx 	c #8A7F81",
"zx 	c #817576",
"Ax 	c #625959",
"Bx 	c #534C4A",
"Cx 	c #393536",
"Dx 	c #2B2828",
"Ex 	c #191616",
"Fx 	c #1A1718",
"Gx 	c #272223",
"Hx 	c #373031",
"Ix 	c #443B3D",
"Jx 	c #504344",
"Kx 	c #635455",
"Lx 	c #837171",
"Mx 	c #988383",
"Nx 	c #9F8889",
"Ox 	c #9D8284",
"Px 	c #A68B8D",
"Qx 	c #B5999D",
"Rx 	c #C3A5AC",
"Sx 	c #D5BABF",
"Tx 	c #E4CCCD",
"Ux 	c #D9BCBE",
"Vx 	c #CBAEB2",
"Wx 	c #CDBCC3",
"Xx 	c #9F9AA2",
"Yx 	c #BFC4CA",
"Zx 	c #CFCBD2",
"`x 	c #D3BCC5",
" y 	c #C4ADB2",
".y 	c #CFC2C5",
"+y 	c #DCD1D6",
"@y 	c #C6B8C0",
"#y 	c #B7A5AE",
"$y 	c #C9B5BB",
"%y 	c #E2CED2",
"&y 	c #E8D4D7",
"*y 	c #DDCACC",
"=y 	c #EAD7D8",
"-y 	c #D2BFBF",
";y 	c #E4D1D0",
">y 	c #9C7C7A",
",y 	c #997976",
"'y 	c #9A7975",
")y 	c #91716C",
"!y 	c #8F6E69",
"~y 	c #906E6A",
"{y 	c #8E6C68",
"]y 	c #846561",
"^y 	c #755957",
"/y 	c #674D4B",
"(y 	c #5F4746",
"_y 	c #55413F",
":y 	c #463533",
"<y 	c #382D2B",
"[y 	c #2C2121",
"}y 	c #231919",
"|y 	c #0E0A0B",
"1y 	c #0D0708",
"2y 	c #120A0B",
"3y 	c #211617",
"4y 	c #2A1C1D",
"5y 	c #38282A",
"6y 	c #443134",
"7y 	c #523C3F",
"8y 	c #5B4447",
"9y 	c #5F474B",
"0y 	c #664E51",
"ay 	c #685154",
"by 	c #6B4F53",
"cy 	c #64494D",
"dy 	c #4F3C3D",
"ey 	c #503C3D",
"fy 	c #483434",
"gy 	c #3F2C2C",
"hy 	c #312424",
"iy 	c #231B1B",
"jy 	c #211718",
"ky 	c #181010",
"ly 	c #030102",
"my 	c #0B0606",
"ny 	c #1F1414",
"oy 	c #281A19",
"py 	c #33201F",
"qy 	c #412928",
"ry 	c #573B39",
"sy 	c #634442",
"ty 	c #684644",
"uy 	c #6E4845",
"vy 	c #724845",
"wy 	c #754947",
"xy 	c #7C504F",
"yy 	c #885B5B",
"zy 	c #906664",
"Ay 	c #926D6A",
"By 	c #896362",
"Cy 	c #8F6465",
"Dy 	c #A08588",
"Ey 	c #AA9B9E",
"Fy 	c #C7BEBF",
"Gy 	c #B9A5A9",
"Hy 	c #88656B",
"Iy 	c #785659",
"Jy 	c #8D6C6D",
"Ky 	c #907173",
"Ly 	c #8C676D",
"My 	c #855D62",
"Ny 	c #896465",
"Oy 	c #977271",
"Py 	c #9C7774",
"Qy 	c #98726E",
"Ry 	c #9F7A75",
"Sy 	c #916C66",
"Ty 	c #94716B",
"Uy 	c #875850",
"Vy 	c #835349",
"Wy 	c #7E4C41",
"Xy 	c #825145",
"Yy 	c #7B4B3D",
"Zy 	c #79483C",
"`y 	c #7A493E",
" z 	c #714239",
".z 	c #60342C",
"+z 	c #552D26",
"@z 	c #4D2922",
"#z 	c #44251F",
"$z 	c #381D18",
"%z 	c #2A1814",
"&z 	c #22110F",
"*z 	c #1C0E0F",
"=z 	c #090606",
"-z 	c #020001",
";z 	c #1A090A",
">z 	c #240E0F",
",z 	c #2F1517",
"'z 	c #3A1C1F",
")z 	c #472529",
"!z 	c #4E2B2E",
"~z 	c #522C2E",
"{z 	c #562F32",
"]z 	c #583033",
"^z 	c #592F33",
"/z 	c #5C3036",
"(z 	c #582E34",
"_z 	c #3E1519",
":z 	c #421D1F",
"<z 	c #412021",
"[z 	c #3A1C1D",
"}z 	c #200F0F",
"|z 	c #170909",
"1z 	c #1D0907",
"2z 	c #341410",
"3z 	c #45201A",
"4z 	c #4F241E",
"5z 	c #54251E",
"6z 	c #5F2A23",
"7z 	c #652C24",
"8z 	c #652820",
"9z 	c #6A2B24",
"0z 	c #76382F",
"az 	c #7A3F35",
"bz 	c #763F35",
"cz 	c #6D3731",
"dz 	c #7B4442",
"ez 	c #957678",
"fz 	c #AC9C9F",
"gz 	c #C8BBBB",
"hz 	c #B09799",
"iz 	c #713E42",
"jz 	c #632B2D",
"kz 	c #794444",
"lz 	c #774243",
"mz 	c #7B4246",
"nz 	c #783E40",
"oz 	c #77403B",
"pz 	c #7F4940",
"qz 	c #854E45",
"rz 	c #855044",
"sz 	c #7D483B",
"tz 	c #794335",
"uz 	c #844D43",
"vz 	c #895248",
"wz 	c #864E42",
"xz 	c #874E42",
"yz 	c #532A24",
"zz 	c #4D2924",
"Az 	c #2E1914",
"Bz 	c #261310",
"Cz 	c #130404",
"Dz 	c #1E0A0A",
"Ez 	c #260E0E",
"Fz 	c #341617",
"Gz 	c #3F1C1E",
"Hz 	c #472121",
"Iz 	c #532929",
"Jz 	c #5C2F30",
"Kz 	c #592B2A",
"Lz 	c #5C2C2B",
"Mz 	c #5F2D2E",
"Nz 	c #5A262B",
"Oz 	c #59272B",
"Pz 	c #59282B",
"Qz 	c #522527",
"Rz 	c #481F20",
"Sz 	c #401B1C",
"Tz 	c #381A19",
"Uz 	c #29100F",
"Vz 	c #2A1414",
"Wz 	c #210F0E",
"Xz 	c #140808",
"Yz 	c #0A0201",
"Zz 	c #110302",
"`z 	c #2A0E0A",
" A 	c #34130F",
".A 	c #3B130E",
"+A 	c #481B15",
"@A 	c #56241D",
"#A 	c #662E26",
"$A 	c #672921",
"%A 	c #6B281E",
"&A 	c #732D24",
"*A 	c #7B352D",
"=A 	c #803F34",
"-A 	c #82443C",
";A 	c #7E403A",
">A 	c #804545",
",A 	c #A7898E",
"'A 	c #AFA2A8",
")A 	c #C1B4B2",
"!A 	c #957C79",
"~A 	c #8E5354",
"{A 	c #8F4E4D",
"]A 	c #854643",
"^A 	c #864845",
"/A 	c #864445",
"(A 	c #884746",
"_A 	c #894A45",
":A 	c #965850",
"<A 	c #8C4F45",
"[A 	c #894D42",
"}A 	c #8B4F43",
"|A 	c #86493C",
"1A 	c #86504A",
"2A 	c #8A534B",
"3A 	c #885049",
"4A 	c #814841",
"5A 	c #7B433D",
"6A 	c #713B36",
"7A 	c #64312D",
"8A 	c #572925",
"9A 	c #502723",
"0A 	c #46221F",
"aA 	c #3A1B18",
"bA 	c #2D1913",
"cA 	c #25130F",
"dA 	c #190B0A",
"eA 	c #1C0808",
"fA 	c #240C0C",
"gA 	c #2F1212",
"hA 	c #391717",
"iA 	c #421D1C",
"jA 	c #4B2121",
"kA 	c #512524",
"lA 	c #512422",
"mA 	c #542523",
"nA 	c #562525",
"oA 	c #612F30",
"pA 	c #5D2C2D",
"qA 	c #603131",
"rA 	c #562A29",
"sA 	c #532B27",
"tA 	c #4A2522",
"uA 	c #3E1D1B",
"vA 	c #341715",
"wA 	c #1F0E0C",
"xA 	c #180A09",
"yA 	c #0B0403",
"zA 	c #100403",
"AA 	c #321311",
"BA 	c #3E1A17",
"CA 	c #4B211F",
"DA 	c #562623",
"EA 	c #602B27",
"FA 	c #622824",
"GA 	c #672925",
"HA 	c #72322E",
"IA 	c #7D3B36",
"JA 	c #7E3F39",
"KA 	c #854845",
"LA 	c #884B4C",
"MA 	c #80464D",
"NA 	c #AD97A0",
"OA 	c #B7B4BD",
"PA 	c #B9B4B0",
"QA 	c #9D8984",
"RA 	c #8D5554",
"SA 	c #8E4D4B",
"TA 	c #80433C",
"UA 	c #7D423A",
"VA 	c #7F413C",
"WA 	c #834542",
"XA 	c #854746",
"YA 	c #864847",
"ZA 	c #864946",
"`A 	c #824541",
" B 	c #82463F",
".B 	c #7B3E35",
"+B 	c #915B58",
"@B 	c #844D45",
"#B 	c #814A43",
"$B 	c #7E4541",
"%B 	c #703937",
"&B 	c #63302D",
"*B 	c #562825",
"=B 	c #4E2623",
"-B 	c #421E1D",
";B 	c #381917",
">B 	c #2D1912",
",B 	c #180B09",
"'B 	c #2C100F",
")B 	c #361513",
"!B 	c #3F1A18",
"~B 	c #461E1C",
"{B 	c #4B1F1D",
"]B 	c #4E201D",
"^B 	c #50211E",
"/B 	c #532220",
"(B 	c #673534",
"_B 	c #61302F",
":B 	c #683836",
"<B 	c #5B2F2B",
"[B 	c #5B322D",
"}B 	c #522B26",
"|B 	c #44211D",
"1B 	c #3D1D19",
"2B 	c #321613",
"3B 	c #29110E",
"4B 	c #24100E",
"5B 	c #1E0D0B",
"6B 	c #180706",
"7B 	c #240E0C",
"8B 	c #2E1311",
"9B 	c #3D1C1A",
"0B 	c #4B2321",
"aB 	c #532624",
"bB 	c #5C2A27",
"cB 	c #602826",
"dB 	c #652A27",
"eB 	c #723332",
"fB 	c #7D3C3A",
"gB 	c #7C3D3A",
"hB 	c #864A49",
"iB 	c #8C4F52",
"jB 	c #824953",
"kB 	c #B39FAB",
"lB 	c #BABBC6",
"mB 	c #B5B3AF",
"nB 	c #A18E89",
"oB 	c #8E4E4B",
"pB 	c #7F413A",
"qB 	c #793F34",
"rB 	c #7C4038",
"sB 	c #814441",
"tB 	c #844647",
"uB 	c #824546",
"vB 	c #7E4141",
"wB 	c #7E4040",
"xB 	c #824642",
"yB 	c #7D413D",
"zB 	c #763933",
"AB 	c #89514E",
"BB 	c #864F47",
"CB 	c #7F4942",
"DB 	c #7A433F",
"EB 	c #76403C",
"FB 	c #6E3A37",
"GB 	c #61312F",
"HB 	c #542826",
"IB 	c #4B2421",
"JB 	c #411E1D",
"KB 	c #371918",
"LB 	c #24130F",
"MB 	c #1A0D0C",
"NB 	c #0F0807",
"OB 	c #140605",
"PB 	c #240C0B",
"QB 	c #351414",
"RB 	c #3D1918",
"SB 	c #451D1C",
"TB 	c #4C2120",
"UB 	c #522624",
"VB 	c #552724",
"WB 	c #562726",
"XB 	c #6A3938",
"YB 	c #734341",
"ZB 	c #71423F",
"`B 	c #5C322C",
" C 	c #4F2823",
".C 	c #47211E",
"+C 	c #401C1A",
"@C 	c #371816",
"#C 	c #2F1413",
"$C 	c #27100E",
"%C 	c #210E0C",
"&C 	c #160A09",
"*C 	c #0F0605",
"=C 	c #160705",
"-C 	c #220E0C",
";C 	c #431E1C",
">C 	c #5F312E",
",C 	c #64312E",
"'C 	c #69322F",
")C 	c #723835",
"!C 	c #783938",
"~C 	c #763736",
"{C 	c #864748",
"]C 	c #894B4F",
"^C 	c #986068",
"/C 	c #DAC4CF",
"(C 	c #B6B8C0",
"_C 	c #ADABA8",
":C 	c #9F8C89",
"<C 	c #895254",
"[C 	c #904E4E",
"}C 	c #834B42",
"|C 	c #854B47",
"1C 	c #874B4B",
"2C 	c #874A4C",
"3C 	c #874A4B",
"4C 	c #87494A",
"5C 	c #854947",
"6C 	c #8B534D",
"7C 	c #8A514A",
"8C 	c #76403A",
"9C 	c #6E3A35",
"0C 	c #60302C",
"aC 	c #512522",
"bC 	c #411E1B",
"cC 	c #190C0B",
"dC 	c #070504",
"eC 	c #1D0A0A",
"fC 	c #250E0D",
"gC 	c #2E1213",
"hC 	c #381617",
"iC 	c #3F1A1A",
"jC 	c #451D1D",
"kC 	c #4C2121",
"lC 	c #562928",
"mC 	c #592927",
"nC 	c #5B2A28",
"oC 	c #754442",
"pC 	c #71403E",
"qC 	c #784844",
"rC 	c #72433F",
"sC 	c #653A35",
"tC 	c #582F29",
"uC 	c #532A28",
"vC 	c #4A2222",
"wC 	c #421F1F",
"xC 	c #3A1B1A",
"yC 	c #2F1514",
"zC 	c #281211",
"AC 	c #0E0605",
"BC 	c #210F0C",
"CC 	c #2D1613",
"DC 	c #361A17",
"EC 	c #3F1D1A",
"FC 	c #4B2522",
"GC 	c #5A2D29",
"HC 	c #61312C",
"IC 	c #6A3530",
"JC 	c #753B37",
"KC 	c #7B3E3B",
"LC 	c #7C3D3B",
"MC 	c #874747",
"NC 	c #894A4C",
"OC 	c #92565C",
"PC 	c #C7B0B8",
"QC 	c #ABACB0",
"RC 	c #AFACAC",
"SC 	c #A28C8D",
"TC 	c #894E53",
"UC 	c #924D50",
"VC 	c #8B4C48",
"WC 	c #894F47",
"XC 	c #844B47",
"YC 	c #884B4B",
"ZC 	c #884A4B",
"`C 	c #864747",
" D 	c #864746",
".D 	c #884B48",
"+D 	c #844642",
"@D 	c #874E48",
"#D 	c #8F5650",
"$D 	c #8A5048",
"%D 	c #864E43",
"&D 	c #884F46",
"*D 	c #764039",
"=D 	c #6D3932",
"-D 	c #4F231E",
";D 	c #47201B",
">D 	c #401D19",
",D 	c #381A17",
"'D 	c #2E1915",
")D 	c #0D0606",
"!D 	c #130505",
"~D 	c #1F0C0C",
"{D 	c #270F10",
"]D 	c #311515",
"^D 	c #3A191A",
"/D 	c #401B1D",
"(D 	c #451D1E",
"_D 	c #4D2223",
":D 	c #592B2C",
"<D 	c #5C2C2C",
"[D 	c #5E2D2C",
"}D 	c #7F4C4B",
"|D 	c #6E3C3A",
"1D 	c #7E4C49",
"2D 	c #7B4A46",
"3D 	c #6F413C",
"4D 	c #61362F",
"5D 	c #5F3232",
"6D 	c #55282A",
"7D 	c #4D2527",
"8D 	c #442122",
"9D 	c #381A1A",
"0D 	c #301717",
"aD 	c #2B1616",
"bD 	c #251313",
"cD 	c #130907",
"dD 	c #200F0C",
"eD 	c #2C1613",
"fD 	c #351A17",
"gD 	c #45211C",
"hD 	c #5F302B",
"iD 	c #6A3731",
"jD 	c #773E39",
"kD 	c #7E423D",
"lD 	c #80423E",
"mD 	c #894748",
"nD 	c #8C4C51",
"oD 	c #B39A9D",
"pD 	c #A09FA0",
"qD 	c #B2ACAF",
"rD 	c #A48C91",
"sD 	c #894A51",
"tD 	c #934C51",
"uD 	c #8E4F4D",
"vD 	c #8E544E",
"wD 	c #894C4B",
"xD 	c #89494A",
"yD 	c #854544",
"zD 	c #854442",
"AD 	c #8C4D49",
"BD 	c #874843",
"CD 	c #874D3F",
"DD 	c #8E5347",
"ED 	c #955749",
"FD 	c #905244",
"GD 	c #894A3E",
"HD 	c #88493E",
"ID 	c #84463A",
"JD 	c #763B2F",
"KD 	c #652F23",
"LD 	c #5B281D",
"MD 	c #53231B",
"ND 	c #4A2018",
"OD 	c #431E17",
"PD 	c #391913",
"QD 	c #301716",
"RD 	c #251010",
"SD 	c #180A0B",
"TD 	c #060304",
"UD 	c #180909",
"VD 	c #1F0C0D",
"WD 	c #271011",
"XD 	c #321617",
"YD 	c #401F20",
"ZD 	c #4B2628",
"`D 	c #542C2E",
" E 	c #603437",
".E 	c #6F4043",
"+E 	c #703B3F",
"@E 	c #733B3C",
"#E 	c #703939",
"$E 	c #875050",
"%E 	c #885252",
"&E 	c #754341",
"*E 	c #6E3D3C",
"=E 	c #653837",
"-E 	c #6B4141",
";E 	c #562E2F",
">E 	c #4C2828",
",E 	c #422222",
"'E 	c #3B201F",
")E 	c #361E1E",
"!E 	c #2D1919",
"~E 	c #231312",
"{E 	c #1B0F0E",
"]E 	c #2C130D",
"^E 	c #3A1B14",
"/E 	c #4A261F",
"(E 	c #572E25",
"_E 	c #603228",
":E 	c #68362C",
"<E 	c #6E372F",
"[E 	c #713530",
"}E 	c #773833",
"|E 	c #813D3A",
"1E 	c #894141",
"2E 	c #934E52",
"3E 	c #8F6D6F",
"4E 	c #B5ACAB",
"5E 	c #BDB0B9",
"6E 	c #AF919C",
"7E 	c #8D4E54",
"8E 	c #954E4D",
"9E 	c #8F4F46",
"0E 	c #8A5149",
"aE 	c #8A4F46",
"bE 	c #8C4D43",
"cE 	c #89483E",
"dE 	c #814136",
"eE 	c #86473C",
"fE 	c #894B3E",
"gE 	c #88493C",
"hE 	c #814537",
"iE 	c #884E41",
"jE 	c #8D5245",
"kE 	c #925548",
"lE 	c #8F5144",
"mE 	c #88483E",
"nE 	c #773D32",
"oE 	c #683126",
"pE 	c #5C2820",
"qE 	c #53241B",
"rE 	c #492018",
"sE 	c #421D16",
"tE 	c #311917",
"uE 	c #18090A",
"vE 	c #281111",
"wE 	c #331718",
"xE 	c #3F1F20",
"yE 	c #4A2627",
"zE 	c #6C3D40",
"AE 	c #6F3F42",
"BE 	c #723D41",
"CE 	c #773E3F",
"DE 	c #743D3D",
"EE 	c #8E5555",
"FE 	c #8D5556",
"GE 	c #794544",
"HE 	c #764343",
"IE 	c #6C3D3C",
"JE 	c #6E4342",
"KE 	c #5E3535",
"LE 	c #553030",
"ME 	c #4A2929",
"NE 	c #432625",
"OE 	c #3E2423",
"PE 	c #351E1D",
"QE 	c #2A1917",
"RE 	c #211412",
"SE 	c #050506",
"TE 	c #150705",
"UE 	c #210E0A",
"VE 	c #29110C",
"WE 	c #371914",
"XE 	c #46231D",
"YE 	c #532B23",
"ZE 	c #5E3229",
"`E 	c #68372D",
" F 	c #6E3830",
".F 	c #723933",
"+F 	c #793C37",
"@F 	c #82403C",
"#F 	c #894344",
"$F 	c #89474A",
"%F 	c #9D7D7F",
"&F 	c #B2AAA9",
"*F 	c #B6AAB3",
"=F 	c #A28791",
"-F 	c #914D4B",
";F 	c #8D4E43",
">F 	c #8B5145",
",F 	c #874C43",
"'F 	c #894B40",
")F 	c #7C3E32",
"!F 	c #894C3F",
"~F 	c #874A3D",
"{F 	c #814638",
"]F 	c #8A5144",
"^F 	c #8D5145",
"/F 	c #8C4F44",
"(F 	c #894B41",
"_F 	c #87473E",
":F 	c #83463D",
"<F 	c #7A3F36",
"[F 	c #6D362D",
"}F 	c #5F2C23",
"|F 	c #52241C",
"1F 	c #4A2019",
"2F 	c #411D16",
"3F 	c #381813",
"4F 	c #331B19",
"5F 	c #271211",
"6F 	c #1A0B0C",
"7F 	c #130B0C",
"8F 	c #040203",
"9F 	c #190B0B",
"0F 	c #1E0C0C",
"aF 	c #291212",
"bF 	c #331918",
"cF 	c #3F1F1F",
"dF 	c #482525",
"eF 	c #522C2D",
"fF 	c #5D3334",
"gF 	c #613537",
"hF 	c #693A3D",
"iF 	c #724043",
"jF 	c #7C4445",
"kF 	c #7A4141",
"lF 	c #945B5C",
"mF 	c #925A5B",
"nF 	c #7D4547",
"oF 	c #7F4B4B",
"pF 	c #744442",
"qF 	c #6A3F3D",
"rF 	c #673F3C",
"sF 	c #5F3A38",
"tF 	c #543230",
"uF 	c #4C2D2C",
"vF 	c #462A29",
"wF 	c #3B2322",
"xF 	c #321E1C",
"yF 	c #271815",
"zF 	c #1F1110",
"AF 	c #180D0C",
"BF 	c #100A0B",
"CF 	c #0E0B0C",
"DF 	c #080809",
"EF 	c #260F0B",
"FF 	c #341813",
"GF 	c #41201B",
"HF 	c #4E2821",
"IF 	c #5C312A",
"JF 	c #67372F",
"KF 	c #6F3B34",
"LF 	c #773F39",
"MF 	c #7F433F",
"NF 	c #864643",
"OF 	c #8B4748",
"PF 	c #763539",
"QF 	c #B6979A",
"RF 	c #ABA3A4",
"SF 	c #A79EA5",
"TF 	c #867078",
"UF 	c #884D3E",
"VF 	c #87503F",
"WF 	c #81453C",
"XF 	c #824539",
"YF 	c #74372B",
"ZF 	c #804337",
"`F 	c #884D41",
" G 	c #864C3F",
".G 	c #82483B",
"+G 	c #874F48",
"@G 	c #874E46",
"#G 	c #864C46",
"$G 	c #874D47",
"%G 	c #854B45",
"&G 	c #7F4641",
"*G 	c #7A403B",
"=G 	c #6A3630",
"-G 	c #5E2E29",
";G 	c #50241F",
">G 	c #451E18",
",G 	c #3E1C18",
"'G 	c #361815",
")G 	c #321B15",
"!G 	c #26130F",
"~G 	c #120C0B",
"{G 	c #020203",
"]G 	c #301816",
"^G 	c #3C201F",
"/G 	c #472726",
"(G 	c #4F2C2B",
"_G 	c #563130",
":G 	c #5D3635",
"<G 	c #643939",
"[G 	c #693C3C",
"}G 	c #6E3B39",
"|G 	c #703D3A",
"1G 	c #895552",
"2G 	c #85514E",
"3G 	c #83524F",
"4G 	c #835250",
"5G 	c #744745",
"6G 	c #754D49",
"7G 	c #623E3B",
"8G 	c #5F3E3B",
"9G 	c #583A37",
"0G 	c #4C302E",
"aG 	c #422827",
"bG 	c #351E1C",
"cG 	c #26110F",
"dG 	c #281615",
"eG 	c #0C0C0D",
"fG 	c #190908",
"gG 	c #1F0908",
"hG 	c #2A100E",
"iG 	c #381816",
"jG 	c #3F1B18",
"kG 	c #5E2F2C",
"lG 	c #65312C",
"mG 	c #6E362D",
"nG 	c #763C32",
"oG 	c #7E423A",
"pG 	c #7D3F3A",
"qG 	c #8E5453",
"rG 	c #745A5D",
"sG 	c #A19C9E",
"tG 	c #B1B0B1",
"uG 	c #B7A6A7",
"vG 	c #855451",
"wG 	c #8D534C",
"xG 	c #8D5547",
"yG 	c #8D5647",
"zG 	c #8C5147",
"AG 	c #8D5049",
"BG 	c #8E504A",
"CG 	c #8B4D48",
"DG 	c #8A4C48",
"EG 	c #8B4D47",
"FG 	c #8B4E48",
"GG 	c #8C4E49",
"HG 	c #884F48",
"IG 	c #884E48",
"JG 	c #864B46",
"KG 	c #804742",
"LG 	c #7A423C",
"MG 	c #6B3831",
"NG 	c #5F2F2A",
"OG 	c #522721",
"PG 	c #461F1A",
"QG 	c #3F1C19",
"RG 	c #371916",
"SG 	c #311B14",
"TG 	c #26120E",
"UG 	c #180C0A",
"VG 	c #1D0C0C",
"WG 	c #261211",
"XG 	c #2F1715",
"YG 	c #452625",
"ZG 	c #552F2E",
"`G 	c #5C3534",
" H 	c #623838",
".H 	c #673A3A",
"+H 	c #6C3A38",
"@H 	c #86524F",
"#H 	c #885551",
"$H 	c #885554",
"%H 	c #7D4E4C",
"&H 	c #7E5450",
"*H 	c #714A46",
"=H 	c #6A4442",
"-H 	c #684542",
";H 	c #61413E",
">H 	c #543634",
",H 	c #4A2E2C",
"'H 	c #3D2321",
")H 	c #2D1514",
"!H 	c #301A19",
"~H 	c #251413",
"{H 	c #221919",
"]H 	c #111112",
"^H 	c #0B0B0B",
"/H 	c #160706",
"(H 	c #1D0908",
"_H 	c #280E0D",
":H 	c #3B1715",
"<H 	c #4E2422",
"[H 	c #5A2B29",
"}H 	c #6B3329",
"|H 	c #733A2F",
"1H 	c #793E35",
"2H 	c #7C3F39",
"3H 	c #8D5453",
"4H 	c #7A6165",
"5H 	c #A09A9D",
"6H 	c #B0AFAF",
"7H 	c #BEADAE",
"8H 	c #81514E",
"9H 	c #8D5548",
"0H 	c #8E5148",
"aH 	c #90514A",
"bH 	c #8D4F4A",
"cH 	c #8D4D49",
"dH 	c #8C4D48",
"eH 	c #8F504B",
"fH 	c #8F534B",
"gH 	c #8C5149",
"hH 	c #854A44",
"iH 	c #834942",
"jH 	c #7A423B",
"kH 	c #703A33",
"lH 	c #66342E",
"mH 	c #5A2D27",
"nH 	c #4D251F",
"oH 	c #431F1B",
"pH 	c #25110C",
"qH 	c #170A09",
"rH 	c #180B0B",
"sH 	c #381B1A",
"tH 	c #432221",
"uH 	c #4B2727",
"vH 	c #512B2C",
"wH 	c #5A3232",
"xH 	c #5F3435",
"yH 	c #633535",
"zH 	c #6D3836",
"AH 	c #733C3A",
"BH 	c #8A5351",
"CH 	c #905A58",
"DH 	c #8A5D5A",
"EH 	c #835755",
"FH 	c #7A504E",
"GH 	c #754E4D",
"HH 	c #5D3B3A",
"IH 	c #553534",
"JH 	c #3F2322",
"KH 	c #341C1B",
"LH 	c #2C1919",
"MH 	c #291F1E",
"NH 	c #181719",
"OH 	c #101010",
"PH 	c #140505",
"QH 	c #200B0A",
"RH 	c #2A100F",
"SH 	c #321411",
"TH 	c #3A1614",
"UH 	c #4A201D",
"VH 	c #572824",
"WH 	c #602B25",
"XH 	c #6B3126",
"YH 	c #73382C",
"ZH 	c #73362D",
"`H 	c #82453F",
" I 	c #804746",
".I 	c #AC9299",
"+I 	c #A1979C",
"@I 	c #A6A2A2",
"#I 	c #C5B2B3",
"$I 	c #6F403F",
"%I 	c #8A504C",
"&I 	c #8E5349",
"*I 	c #90554B",
"=I 	c #914F4A",
"-I 	c #924E4A",
";I 	c #924F49",
">I 	c #904E48",
",I 	c #8F4C46",
"'I 	c #914E48",
")I 	c #97524D",
"!I 	c #8D5045",
"~I 	c #92584D",
"{I 	c #754035",
"]I 	c #7A443A",
"^I 	c #734137",
"/I 	c #6C3D34",
"(I 	c #63372F",
"_I 	c #542E27",
":I 	c #47251F",
"<I 	c #2C1510",
"[I 	c #261210",
"}I 	c #100809",
"|I 	c #150909",
"1I 	c #1E0F0F",
"2I 	c #2D1A1A",
"3I 	c #392323",
"4I 	c #44292A",
"5I 	c #523336",
"6I 	c #5F3D40",
"7I 	c #664245",
"8I 	c #6D474B",
"9I 	c #754C51",
"0I 	c #6D4145",
"aI 	c #673335",
"bI 	c #6E393A",
"cI 	c #8B5556",
"dI 	c #8A5556",
"eI 	c #875152",
"fI 	c #895556",
"gI 	c #704244",
"hI 	c #794C4F",
"iI 	c #7E5255",
"jI 	c #7D5256",
"kI 	c #754D50",
"lI 	c #6A4548",
"mI 	c #613E40",
"nI 	c #5A393B",
"oI 	c #523536",
"pI 	c #4A3031",
"qI 	c #2F1E1D",
"rI 	c #302727",
"sI 	c #282324",
"tI 	c #260F0C",
"uI 	c #301310",
"vI 	c #3B1915",
"wI 	c #471F1B",
"xI 	c #532722",
"yI 	c #602D28",
"zI 	c #6B332C",
"AI 	c #703732",
"BI 	c #7C4240",
"CI 	c #783C41",
"DI 	c #906F77",
"EI 	c #988790",
"FI 	c #B3A8AB",
"GI 	c #AD969A",
"HI 	c #724147",
"II 	c #9E676B",
"JI 	c #965F5E",
"KI 	c #935958",
"LI 	c #89484A",
"MI 	c #8C4948",
"NI 	c #92524B",
"OI 	c #92544A",
"PI 	c #915248",
"QI 	c #925148",
"RI 	c #945148",
"SI 	c #914B44",
"TI 	c #8B5045",
"UI 	c #91594D",
"VI 	c #7F4A3F",
"WI 	c #703E32",
"XI 	c #764237",
"YI 	c #79443A",
"ZI 	c #754339",
"`I 	c #6E3F36",
" J 	c #643A31",
".J 	c #573129",
"+J 	c #492721",
"@J 	c #40221D",
"#J 	c #271311",
"$J 	c #1A0C0D",
"%J 	c #100808",
"&J 	c #0A0304",
"*J 	c #1D0F10",
"=J 	c #2D1B1C",
"-J 	c #3B2526",
";J 	c #462D2E",
">J 	c #55383A",
",J 	c #644346",
"'J 	c #6C494D",
")J 	c #734F54",
"!J 	c #7E575D",
"~J 	c #764E53",
"{J 	c #663638",
"]J 	c #6D3B3E",
"^J 	c #8C595A",
"/J 	c #8B575A",
"(J 	c #865255",
"_J 	c #8A5659",
":J 	c #693C3F",
"<J 	c #764A4F",
"[J 	c #7F5157",
"}J 	c #7F555A",
"|J 	c #784F54",
"1J 	c #6F494D",
"2J 	c #684348",
"3J 	c #603E42",
"4J 	c #593A3E",
"5J 	c #523739",
"6J 	c #422C2C",
"7J 	c #342423",
"8J 	c #372F2E",
"9J 	c #312C2C",
"0J 	c #303032",
"aJ 	c #252426",
"bJ 	c #170705",
"cJ 	c #230D0A",
"dJ 	c #2D120F",
"eJ 	c #391915",
"fJ 	c #421D19",
"gJ 	c #50251F",
"hJ 	c #5E2D28",
"iJ 	c #69332E",
"jJ 	c #703935",
"kJ 	c #6E3935",
"lJ 	c #794040",
"mJ 	c #753B41",
"nJ 	c #88616B",
"oJ 	c #97848D",
"pJ 	c #B8ABAF",
"qJ 	c #73424A",
"rJ 	c #9E686F",
"sJ 	c #945E60",
"tJ 	c #8F5759",
"uJ 	c #85464B",
"vJ 	c #884848",
"wJ 	c #8F524B",
"xJ 	c #91554A",
"yJ 	c #905348",
"zJ 	c #925249",
"AJ 	c #945249",
"BJ 	c #8F4942",
"CJ 	c #87544C",
"DJ 	c #89564D",
"EJ 	c #78493F",
"FJ 	c #7F5148",
"GJ 	c #764B42",
"HJ 	c #6F4239",
"IJ 	c #6F423A",
"JJ 	c #6C4239",
"KJ 	c #623B32",
"LJ 	c #57332B",
"MJ 	c #4E2E26",
"NJ 	c #442721",
"OJ 	c #381F19",
"PJ 	c #2F1D1B",
"QJ 	c #0B0506",
"RJ 	c #0C0809",
"SJ 	c #0E0506",
"TJ 	c #190D0E",
"UJ 	c #241516",
"VJ 	c #342224",
"WJ 	c #412C2E",
"XJ 	c #50383B",
"YJ 	c #61474B",
"ZJ 	c #705458",
"`J 	c #7D6066",
" K 	c #95787E",
".K 	c #A38388",
"+K 	c #71494D",
"@K 	c #774D50",
"#K 	c #95696E",
"$K 	c #916569",
"%K 	c #84585C",
"&K 	c #8F6467",
"*K 	c #865E63",
"=K 	c #845E65",
"-K 	c #704B52",
";K 	c #714C53",
">K 	c #7A575D",
",K 	c #78585E",
"'K 	c #6F5056",
")K 	c #63464B",
"!K 	c #573D41",
"~K 	c #4F383B",
"{K 	c #443334",
"]K 	c #373130",
"^K 	c #353539",
"/K 	c #2A292C",
"(K 	c #080304",
"_K 	c #050102",
":K 	c #301612",
"<K 	c #371915",
"[K 	c #3D1A15",
"}K 	c #4C2421",
"|K 	c #5D302F",
"1K 	c #633634",
"2K 	c #6F4240",
"3K 	c #764646",
"4K 	c #7B494D",
"5K 	c #93717A",
"6K 	c #A6949B",
"7K 	c #C9BEC3",
"8K 	c #A18E95",
"9K 	c #6D434D",
"0K 	c #5A2833",
"aK 	c #5D3036",
"bK 	c #5C2E34",
"cK 	c #774249",
"dK 	c #794942",
"eK 	c #7B4B41",
"fK 	c #845249",
"gK 	c #855249",
"hK 	c #955B55",
"iK 	c #8E514D",
"jK 	c #7F5E62",
"kK 	c #86686C",
"lK 	c #A58D92",
"mK 	c #A18C90",
"nK 	c #A69397",
"oK 	c #9E8D90",
"pK 	c #958286",
"qK 	c #917D7F",
"rK 	c #897477",
"sK 	c #7D696B",
"tK 	c #736264",
"uK 	c #625354",
"vK 	c #534446",
"wK 	c #473B3C",
"xK 	c #393231",
"yK 	c #20191B",
"zK 	c #0E0E0E",
"AK 	c #09090A",
"BK 	c #1D1919",
"CK 	c #2B2526",
"DK 	c #3A3232",
"EK 	c #463E3F",
"FK 	c #564D4E",
"GK 	c #665C5F",
"HK 	c #74696C",
"IK 	c #81767A",
"JK 	c #908489",
"KK 	c #9F9297",
"LK 	c #9E9191",
"MK 	c #A59495",
"NK 	c #A9979A",
"OK 	c #AEA0A1",
"PK 	c #AD9E9F",
"QK 	c #AEA3A6",
"RK 	c #A5999F",
"SK 	c #9D9298",
"TK 	c #9D9399",
"UK 	c #9B9095",
"VK 	c #94898E",
"WK 	c #8C8186",
"XK 	c #81767C",
"YK 	c #756B6F",
"ZK 	c #6C6164",
"`K 	c #645D5E",
" L 	c #575353",
".L 	c #484647",
"+L 	c #474649",
"@L 	c #434347",
"#L 	c #38383D",
"$L 	c #282729",
"%L 	c #120F11",
"&L 	c #1D1819",
"*L 	c #272122",
"=L 	c #3A3334",
"-L 	c #4A4043",
";L 	c #54494C",
">L 	c #5E5255",
",L 	c #6B5C5E",
"'L 	c #776767",
")L 	c #7D6F6C",
"!L 	c #81706C",
"~L 	c #856F6C",
"{L 	c #8B7371",
"]L 	c #A19194",
"^L 	c #A7A4A5",
"/L 	c #BBBEC1",
"(L 	c #BDBAC0",
"_L 	c #AFA0AA",
":L 	c #A799A3",
"<L 	c #A7A0A4",
"[L 	c #9D9798",
"}L 	c #A59598",
"|L 	c #A99A9C",
"1L 	c #A89598",
"2L 	c #A89296",
"3L 	c #A3888E",
"4L 	c #9A7C81",
"5L 	c #8B676E",
"6L 	c #7A6670",
"7L 	c #86757E",
"8L 	c #B5A6AE",
"9L 	c #B5A9B0",
"0L 	c #B9AEB5",
"aL 	c #B2A8AF",
"bL 	c #A99DA3",
"cL 	c #A4969C",
"dL 	c #988A90",
"eL 	c #8B7E83",
"fL 	c #83767B",
"gL 	c #6E6367",
"hL 	c #5D5357",
"iL 	c #50484B",
"jL 	c #3E3C3C",
"kL 	c #343030",
"lL 	c #242022",
"mL 	c #0A0B0B",
"nL 	c #201E1E",
"oL 	c #2E2C2C",
"pL 	c #3C3939",
"qL 	c #494747",
"rL 	c #5A5758",
"sL 	c #696668",
"tL 	c #757376",
"uL 	c #838185",
"vL 	c #8C8A8F",
"wL 	c #9C9A9D",
"xL 	c #ABA4A6",
"yL 	c #B3ADAD",
"zL 	c #B0AAAA",
"AL 	c #B8B0B2",
"BL 	c #C4BEBE",
"CL 	c #BFB8B9",
"DL 	c #C5C1C6",
"EL 	c #B8B6BA",
"FL 	c #B6B3B8",
"GL 	c #B6B4B9",
"HL 	c #B0AEB4",
"IL 	c #A7A5AA",
"JL 	c #959398",
"KL 	c #8C878C",
"LL 	c #7B7878",
"ML 	c #6D6C6B",
"NL 	c #57585A",
"OL 	c #555658",
"PL 	c #505056",
"QL 	c #46474C",
"RL 	c #37393B",
"SL 	c #29292B",
"TL 	c #131213",
"UL 	c #0A0A0B",
"VL 	c #211E20",
"WL 	c #2C282A",
"XL 	c #544E51",
"YL 	c #60595D",
"ZL 	c #6C6468",
"`L 	c #787073",
" M 	c #847B7C",
".M 	c #8B8482",
"+M 	c #8B847F",
"@M 	c #8E827E",
"#M 	c #968784",
"$M 	c #A9A2A2",
"%M 	c #AAAEAD",
"&M 	c #B1BDBF",
"*M 	c #CBD0D5",
"=M 	c #CCC3CD",
"-M 	c #C7BDC8",
";M 	c #C5C4C9",
">M 	c #B9BABB",
",M 	c #BCB5B7",
"'M 	c #BFB6B9",
")M 	c #BFB9BD",
"!M 	c #BEB8BD",
"~M 	c #BBB2B8",
"{M 	c #BAAEB5",
"]M 	c #B2A2AA",
"^M 	c #A09099",
"/M 	c #8C7480",
"(M 	c #989199",
"_M 	c #ABA4AB",
":M 	c #BCB5BC",
"<M 	c #C2BBC1",
"[M 	c #B6AFB4",
"}M 	c #B1AAB0",
"|M 	c #A69FA7",
"1M 	c #9A939B",
"2M 	c #8F8990",
"3M 	c #827D83",
"4M 	c #756F75",
"5M 	c #6A656B",
"6M 	c #5A565B",
"7M 	c #464445",
"8M 	c #3A3739",
"9M 	c #2E2B2D",
"0M 	c #201F20",
"aM 	c #151616",
"bM 	c #0D0D0E",
"cM 	c #060607",
"dM 	c #242424",
"eM 	c #303030",
"fM 	c #3D3D3D",
"gM 	c #494948",
"hM 	c #5D5D5E",
"iM 	c #6E6D70",
"jM 	c #76767A",
"kM 	c #838488",
"lM 	c #898B8F",
"mM 	c #8D8F93",
"nM 	c #CBC9CA",
"oM 	c #D4CFD0",
"pM 	c #E3D8D9",
"qM 	c #E2D9D9",
"rM 	c #CFCCCA",
"sM 	c #D3CFD0",
"tM 	c #D4D2D2",
"uM 	c #C7C6C6",
"vM 	c #CBCBCB",
"wM 	c #CECECD",
"xM 	c #CAC9C9",
"yM 	c #BFBEBE",
"zM 	c #B5B5B5",
"AM 	c #A8A5A5",
"BM 	c #A0999D",
"CM 	c #918C8D",
"DM 	c #777477",
"EM 	c #6A666A",
"FM 	c #5F5B61",
"GM 	c #4F4E53",
"HM 	c #434749",
"IM 	c #343637",
"JM 	c #2A2B2D",
"KM 	c #1E1E1F",
"LM 	c #141415",
"MM 	c #131314",
"NM 	c #1B1B1D",
"OM 	c #2B2A2C",
"PM 	c #39383B",
"QM 	c #464548",
"RM 	c #545357",
"SM 	c #68666B",
"TM 	c #79767B",
"UM 	c #848184",
"VM 	c #8E8B8D",
"WM 	c #9A9696",
"XM 	c #A9A3A3",
"YM 	c #B7AEAF",
"ZM 	c #ACA8AB",
"`M 	c #BFC2C3",
" N 	c #BEC6C7",
".N 	c #D4D9DB",
"+N 	c #C9C6CC",
"@N 	c #C8C4CA",
"#N 	c #C8C9CC",
"$N 	c #CDCFD1",
"%N 	c #C7C2C5",
"&N 	c #C6C1C7",
"*N 	c #CCC7CD",
"=N 	c #D3CCD2",
"-N 	c #D4CBD1",
";N 	c #CFC4C9",
">N 	c #D9CDD2",
",N 	c #BAABB0",
"'N 	c #9E9297",
")N 	c #958B90",
"!N 	c #C9B9BD",
"~N 	c #B6A8AC",
"{N 	c #B1A0A4",
"]N 	c #A7989C",
"^N 	c #A5979B",
"/N 	c #A19398",
"(N 	c #998D91",
"_N 	c #8E8387",
":N 	c #82767A",
"<N 	c #73696D",
"[N 	c #665E62",
"}N 	c #575053",
"|N 	c #474042",
"1N 	c #383234",
"2N 	c #2D282A",
"3N 	c #211E1F",
"4N 	c #161516",
"5N 	c #393535",
"6N 	c #444040",
"7N 	c #5B5557",
"8N 	c #6D676B",
"9N 	c #736E72",
"0N 	c #747176",
"aN 	c #817F84",
"bN 	c #949296",
"cN 	c #ABA5A6",
"dN 	c #B1A5A7",
"eN 	c #C2B0B1",
"fN 	c #C4B4B4",
"gN 	c #BDB1B0",
"hN 	c #C0B3B5",
"iN 	c #CCBBBD",
"jN 	c #BBABAB",
"kN 	c #B5A8A9",
"lN 	c #B4A8A8",
"mN 	c #B0A4A4",
"nN 	c #A99C9D",
"oN 	c #A6999A",
"pN 	c #A59899",
"qN 	c #998C8E",
"rN 	c #94868A",
"sN 	c #8A7E80",
"tN 	c #817678",
"uN 	c #73696C",
"vN 	c #6D6266",
"wN 	c #665C61",
"xN 	c #5C5458",
"yN 	c #545354",
"zN 	c #484648",
"AN 	c #393638",
"BN 	c #282627",
"CN 	c #3A3638",
"DN 	c #494447",
"EN 	c #5A5357",
"FN 	c #6E666A",
"GN 	c #7D7378",
"HN 	c #867A7E",
"IN 	c #918689",
"JN 	c #A09395",
"KN 	c #AE9EA2",
"LN 	c #B4A4A7",
"MN 	c #B8A9AE",
"NN 	c #C6BCBF",
"ON 	c #B1ACAE",
"PN 	c #C1BBBD",
"QN 	c #BEB2B6",
"RN 	c #BEB1B6",
"SN 	c #C2B8BA",
"TN 	c #C5BBBD",
"UN 	c #C6B9BC",
"VN 	c #BEB0B4",
"WN 	c #B9AAB0",
"XN 	c #BDADB4",
"YN 	c #C2B2B7",
"ZN 	c #C1AFB4",
"`N 	c #BEABAE",
" O 	c #C1AFB2",
".O 	c #AA9698",
"+O 	c #A59395",
"@O 	c #715E61",
"#O 	c #D8BDBF",
"$O 	c #A88A8C",
"%O 	c #9F7F81",
"&O 	c #937375",
"*O 	c #94787A",
"=O 	c #9A8383",
"-O 	c #988384",
";O 	c #8E7A7B",
">O 	c #806D6E",
",O 	c #705F5F",
"'O 	c #615252",
")O 	c #534747",
"!O 	c #473A3D",
"~O 	c #34292B",
"{O 	c #292122",
"]O 	c #211A1B",
"^O 	c #0F0C0C",
"/O 	c #130E0E",
"(O 	c #1C1516",
"_O 	c #221B1B",
":O 	c #332A2A",
"<O 	c #3F3434",
"[O 	c #574B4D",
"}O 	c #6C5F63",
"|O 	c #6D6167",
"1O 	c #5E545A",
"2O 	c #776E74",
"3O 	c #9E959B",
"4O 	c #786367",
"5O 	c #745358",
"6O 	c #8E6467",
"7O 	c #967172",
"8O 	c #A58688",
"9O 	c #A48589",
"0O 	c #C2979D",
"aO 	c #A97A7E",
"bO 	c #8F5F63",
"cO 	c #845257",
"dO 	c #7F4E52",
"eO 	c #7E4F53",
"fO 	c #885C60",
"gO 	c #92686C",
"hO 	c #7D575B",
"iO 	c #7B5D60",
"jO 	c #795C5F",
"kO 	c #6F5358",
"lO 	c #654C4E",
"mO 	c #6A5255",
"nO 	c #6D575A",
"oO 	c #6C5A5D",
"pO 	c #686062",
"qO 	c #615A5C",
"rO 	c #4A4445",
"sO 	c #342E2E",
"tO 	c #181313",
"uO 	c #0D0909",
"vO 	c #161313",
"wO 	c #3E3638",
"xO 	c #4E4446",
"yO 	c #625558",
"zO 	c #76676A",
"AO 	c #827175",
"BO 	c #8A7479",
"CO 	c #967F85",
"DO 	c #A68D94",
"EO 	c #B398A0",
"FO 	c #AF959C",
"GO 	c #C5AAB1",
"HO 	c #CFB5BC",
"IO 	c #9E8588",
"JO 	c #A58B8E",
"KO 	c #AF9396",
"LO 	c #B09598",
"MO 	c #BA9EA1",
"NO 	c #B99DA0",
"OO 	c #BEA4A7",
"PO 	c #B3979B",
"QO 	c #A7878D",
"RO 	c #A8868D",
"SO 	c #AA878C",
"TO 	c #A48185",
"UO 	c #A48282",
"VO 	c #9C7B79",
"WO 	c #927471",
"XO 	c #B69091",
"YO 	c #A37A7B",
"ZO 	c #B18887",
"`O 	c #9A6E6E",
" P 	c #936361",
".P 	c #91615F",
"+P 	c #8A5E5B",
"@P 	c #7F5752",
"#P 	c #744F4B",
"$P 	c #6B4945",
"%P 	c #60413D",
"&P 	c #543834",
"*P 	c #472C2A",
"=P 	c #3B2422",
"-P 	c #351F21",
";P 	c #291719",
">P 	c #221415",
",P 	c #1A0F10",
"'P 	c #120A0A",
")P 	c #1A1010",
"!P 	c #231616",
"~P 	c #251717",
"{P 	c #301D1E",
"]P 	c #3D292B",
"^P 	c #4B373B",
"/P 	c #5D4A4F",
"(P 	c #736369",
"_P 	c #93848A",
":P 	c #A5979C",
"<P 	c #7C5D62",
"[P 	c #754850",
"}P 	c #7C4448",
"|P 	c #804B4E",
"1P 	c #8C5E61",
"2P 	c #884E55",
"3P 	c #8C4B52",
"4P 	c #8B4950",
"5P 	c #904C54",
"6P 	c #9A575F",
"7P 	c #9B5A61",
"8P 	c #915158",
"9P 	c #884C53",
"0P 	c #90595E",
"aP 	c #825255",
"bP 	c #825557",
"cP 	c #7A4F51",
"dP 	c #6C4346",
"eP 	c #684244",
"fP 	c #5E3B3D",
"gP 	c #55393B",
"hP 	c #5C4A4B",
"iP 	c #453637",
"jP 	c #372929",
"kP 	c #281C1C",
"lP 	c #1C1111",
"mP 	c #150E0E",
"nP 	c #24191A",
"oP 	c #322324",
"pP 	c #402E2F",
"qP 	c #5D4346",
"rP 	c #6B4D50",
"sP 	c #7A575B",
"tP 	c #866165",
"uP 	c #8E666B",
"vP 	c #936A6E",
"wP 	c #9A6F73",
"xP 	c #92676C",
"yP 	c #9E7277",
"zP 	c #946569",
"AP 	c #9D6E72",
"BP 	c #976A6D",
"CP 	c #94666A",
"DP 	c #8E6164",
"EP 	c #96686C",
"FP 	c #93666A",
"GP 	c #95666B",
"HP 	c #936269",
"IP 	c #8D5B63",
"JP 	c #905D62",
"KP 	c #8D5B5F",
"LP 	c #7E4E4F",
"MP 	c #835252",
"NP 	c #A87E7E",
"OP 	c #9E7170",
"PP 	c #A07270",
"QP 	c #92615E",
"RP 	c #905B56",
"SP 	c #86544F",
"TP 	c #7A4B45",
"UP 	c #70433D",
"VP 	c #683E39",
"WP 	c #5F3733",
"XP 	c #56312C",
"YP 	c #3D201C",
"ZP 	c #361C1C",
"`P 	c #2C1616",
" Q 	c #0F0707",
".Q 	c #231413",
"+Q 	c #331D1D",
"@Q 	c #3F2729",
"#Q 	c #4C3436",
"$Q 	c #5D484C",
"%Q 	c #77676C",
"&Q 	c #95878D",
"*Q 	c #A29499",
"=Q 	c #856368",
"-Q 	c #77474D",
";Q 	c #7E4145",
">Q 	c #83494B",
",Q 	c #8A5757",
"'Q 	c #8D585A",
")Q 	c #85474B",
"!Q 	c #87464B",
"~Q 	c #87464A",
"{Q 	c #8C4B4F",
"]Q 	c #97555A",
"^Q 	c #99585D",
"/Q 	c #8E4F53",
"(Q 	c #8E5457",
"_Q 	c #814D4E",
":Q 	c #814F50",
"<Q 	c #7B4B4C",
"[Q 	c #693E3E",
"}Q 	c #623939",
"|Q 	c #583535",
"1Q 	c #5E4646",
"2Q 	c #594445",
"3Q 	c #493535",
"4Q 	c #3D2A29",
"5Q 	c #2F1E1E",
"6Q 	c #190C0C",
"7Q 	c #100909",
"8Q 	c #311F1F",
"9Q 	c #40292A",
"0Q 	c #4E3233",
"aQ 	c #5A3A3C",
"bQ 	c #684446",
"cQ 	c #744C4F",
"dQ 	c #7D5456",
"eQ 	c #86595C",
"fQ 	c #8C5E60",
"gQ 	c #926264",
"hQ 	c #8B585B",
"iQ 	c #966265",
"jQ 	c #925D5F",
"kQ 	c #956164",
"lQ 	c #905C5F",
"mQ 	c #8D595C",
"nQ 	c #8F5B5E",
"oQ 	c #8E595C",
"pQ 	c #8B5358",
"qQ 	c #8D5458",
"rQ 	c #7F4849",
"sQ 	c #8F5656",
"tQ 	c #7B3F36",
"uQ 	c #8B4E46",
"vQ 	c #76342B",
"wQ 	c #7E3E34",
"xQ 	c #7F4034",
"yQ 	c #7D3E33",
"zQ 	c #73352C",
"AQ 	c #6C3028",
"BQ 	c #6A302A",
"CQ 	c #622E26",
"DQ 	c #5C2C25",
"EQ 	c #512520",
"FQ 	c #3C2120",
"GQ 	c #4A2C2C",
"HQ 	c #553838",
"IQ 	c #624A4A",
"JQ 	c #7A6B6D",
"KQ 	c #968B8F",
"LQ 	c #987277",
"MQ 	c #7C474B",
"NQ 	c #874446",
"OQ 	c #904F4D",
"PQ 	c #935854",
"QQ 	c #955655",
"RQ 	c #8C4E4C",
"SQ 	c #7C433E",
"TQ 	c #7F4541",
"UQ 	c #874E4A",
"VQ 	c #7F4742",
"WQ 	c #753D38",
"XQ 	c #7B423B",
"YQ 	c #783C34",
"ZQ 	c #723630",
"`Q 	c #6D3730",
" R 	c #63332C",
".R 	c #5A2C27",
"+R 	c #4E2926",
"@R 	c #452320",
"#R 	c #3E1F1C",
"$R 	c #2E1614",
"%R 	c #24100D",
"&R 	c #080203",
"*R 	c #26120F",
"=R 	c #311815",
"-R 	c #3F211E",
";R 	c #542925",
">R 	c #5F312C",
",R 	c #683631",
"'R 	c #6A352F",
")R 	c #854944",
"!R 	c #854841",
"~R 	c #864741",
"{R 	c #8E4F48",
"]R 	c #90504E",
"^R 	c #824140",
"/R 	c #82403E",
"(R 	c #7F3E3B",
"_R 	c #884644",
":R 	c #8B4A47",
"<R 	c #8D4C49",
"[R 	c #8E4C4A",
"}R 	c #8C4B48",
"|R 	c #8C4A48",
"1R 	c #93504F",
"2R 	c #8B4947",
"3R 	c #8C4B49",
"4R 	c #955250",
"5R 	c #824537",
"6R 	c #87493C",
"7R 	c #884B3B",
"8R 	c #824536",
"9R 	c #814339",
"0R 	c #763B36",
"aR 	c #6C342F",
"bR 	c #632F2A",
"cR 	c #5D2D28",
"dR 	c #552926",
"eR 	c #4A221E",
"fR 	c #3F1D17",
"gR 	c #28100C",
"hR 	c #1D0B07",
"iR 	c #1F0E0B",
"jR 	c #2E1916",
"kR 	c #3A201D",
"lR 	c #452926",
"mR 	c #513433",
"nR 	c #5E4948",
"oR 	c #746A6C",
"pR 	c #8C878B",
"qR 	c #979196",
"rR 	c #7E4E51",
"sR 	c #8F524F",
"tR 	c #915B52",
"uR 	c #935752",
"vR 	c #844B45",
"wR 	c #804841",
"xR 	c #824A43",
"yR 	c #844C45",
"zR 	c #7E453D",
"AR 	c #794035",
"BR 	c #703C33",
"CR 	c #67342B",
"DR 	c #602F27",
"ER 	c #5C2D26",
"FR 	c #592D29",
"GR 	c #502925",
"HR 	c #48241F",
"IR 	c #3D201B",
"JR 	c #341A16",
"KR 	c #2A1410",
"LR 	c #200E0A",
"MR 	c #160805",
"NR 	c #0F0503",
"OR 	c #1C0D0A",
"PR 	c #351C17",
"QR 	c #41221E",
"RR 	c #4A2520",
"SR 	c #532924",
"TR 	c #65332D",
"UR 	c #6D3931",
"VR 	c #7E453B",
"WR 	c #83473F",
"XR 	c #81443B",
"YR 	c #80433A",
"ZR 	c #84453E",
"`R 	c #7C3C38",
" S 	c #7A3A35",
".S 	c #7E3D39",
"+S 	c #84443F",
"@S 	c #864641",
"#S 	c #864843",
"$S 	c #884945",
"%S 	c #844641",
"&S 	c #874944",
"*S 	c #8F504C",
"=S 	c #82473C",
"-S 	c #85493B",
";S 	c #884C3E",
">S 	c #874A3A",
",S 	c #834637",
"'S 	c #83453B",
")S 	c #783D38",
"!S 	c #6F3732",
"~S 	c #66332E",
"{S 	c #582C28",
"]S 	c #411F18",
"^S 	c #361812",
"/S 	c #1F0B07",
"(S 	c #160704",
"_S 	c #0D0402",
":S 	c #1E0D0A",
"<S 	c #2D1815",
"[S 	c #442825",
"}S 	c #4F3330",
"|S 	c #5D4847",
"1S 	c #8A878B",
"2S 	c #969398",
"3S 	c #8C6F70",
"4S 	c #7E5153",
"5S 	c #884C4A",
"6S 	c #905B52",
"7S 	c #935952",
"8S 	c #8D514C",
"9S 	c #834842",
"0S 	c #844A44",
"aS 	c #844943",
"bS 	c #80463F",
"cS 	c #7C4339",
"dS 	c #7A4237",
"eS 	c #784037",
"fS 	c #743F35",
"gS 	c #6E3931",
"hS 	c #66352D",
"iS 	c #62332C",
"jS 	c #572D27",
"kS 	c #4C2823",
"lS 	c #45251F",
"mS 	c #321914",
"nS 	c #29130E",
"oS 	c #1E0C08",
"pS 	c #20100C",
"qS 	c #43241E",
"rS 	c #4B2620",
"sS 	c #532923",
"tS 	c #5D2F28",
"uS 	c #65342C",
"vS 	c #6E3A31",
"wS 	c #784138",
"xS 	c #7D433A",
"yS 	c #82463D",
"zS 	c #7F4238",
"AS 	c #7D4035",
"BS 	c #83443C",
"CS 	c #7D3D38",
"DS 	c #7B3C36",
"ES 	c #83463E",
"FS 	c #854843",
"GS 	c #824540",
"HS 	c #894E42",
"IS 	c #874C41",
"JS 	c #814738",
"KS 	c #81493A",
"LS 	c #7C423C",
"MS 	c #733B36",
"NS 	c #703B37",
"OS 	c #683935",
"PS 	c #5B312E",
"QS 	c #4D2724",
"RS 	c #421F19",
"SS 	c #371913",
"TS 	c #2A100B",
"US 	c #1A0A07",
"VS 	c #100604",
"WS 	c #2C1715",
"XS 	c #391F1C",
"YS 	c #442723",
"ZS 	c #4C2F2B",
"`S 	c #5A4645",
" T 	c #746C6F",
".T 	c #8A8890",
"+T 	c #9899A0",
"@T 	c #877274",
"#T 	c #7A565B",
"$T 	c #895653",
"%T 	c #8C5C50",
"&T 	c #9E5E5B",
"*T 	c #9B5655",
"=T 	c #8D4746",
"-T 	c #874140",
";T 	c #8B4444",
">T 	c #8D4747",
",T 	c #8D4646",
"'T 	c #834E46",
")T 	c #824F46",
"!T 	c #76453E",
"~T 	c #794B41",
"{T 	c #72443E",
"]T 	c #673935",
"^T 	c #59302B",
"/T 	c #522E28",
"(T 	c #482721",
"_T 	c #3D201A",
":T 	c #361C16",
"<T 	c #2E1712",
"[T 	c #2A120F",
"}T 	c #210C0B",
"|T 	c #180A07",
"1T 	c #22110D",
"2T 	c #2D1813",
"3T 	c #371D17",
"4T 	c #41221B",
"5T 	c #47231C",
"6T 	c #4E251E",
"7T 	c #5A2D25",
"8T 	c #67362D",
"9T 	c #6F3B31",
"0T 	c #794239",
"aT 	c #7C4439",
"bT 	c #80453C",
"cT 	c #7D4036",
"dT 	c #7A3E33",
"eT 	c #8B4D44",
"fT 	c #86483F",
"gT 	c #8A4C43",
"hT 	c #82433A",
"iT 	c #82453A",
"jT 	c #82473B",
"kT 	c #83493D",
"lT 	c #844A40",
"mT 	c #844A42",
"nT 	c #824743",
"oT 	c #874C4A",
"pT 	c #83433D",
"qT 	c #84463C",
"rT 	c #8A4C41",
"sT 	c #83473A",
"tT 	c #804539",
"uT 	c #7E4238",
"vT 	c #793E36",
"wT 	c #753C35",
"xT 	c #733D36",
"yT 	c #673831",
"zT 	c #592E28",
"AT 	c #4E2722",
"BT 	c #451F1A",
"CT 	c #3B1A14",
"DT 	c #30140F",
"ET 	c #250E0B",
"FT 	c #3A1F1C",
"GT 	c #51312E",
"HT 	c #5F484A",
"IT 	c #796E74",
"JT 	c #8D8892",
"KT 	c #9B98A3",
"LT 	c #897376",
"MT 	c #7D585C",
"NT 	c #8E5856",
"OT 	c #8F5D53",
"PT 	c #945F55",
"QT 	c #925451",
"RT 	c #8D4D4A",
"ST 	c #864644",
"TT 	c #854543",
"UT 	c #884846",
"VT 	c #894947",
"WT 	c #8A4A48",
"XT 	c #8D4D4B",
"YT 	c #884C48",
"ZT 	c #8E5852",
"`T 	c #824D49",
" U 	c #804E48",
".U 	c #7C4A47",
"+U 	c #663733",
"@U 	c #623631",
"#U 	c #5A322C",
"$U 	c #502B26",
"%U 	c #301715",
"&U 	c #0C0503",
"*U 	c #321B16",
"=U 	c #3B1E19",
"-U 	c #45231D",
";U 	c #4D2620",
">U 	c #572C25",
",U 	c #61322B",
"'U 	c #6A362F",
")U 	c #7E443C",
"!U 	c #7F433B",
"~U 	c #7F423A",
"{U 	c #7B3C34",
"]U 	c #7E3F37",
"^U 	c #824139",
"/U 	c #7A3931",
"(U 	c #86453D",
"_U 	c #87463E",
":U 	c #86473D",
"<U 	c #84483D",
"[U 	c #84493E",
"}U 	c #864B40",
"|U 	c #864A43",
"1U 	c #824641",
"2U 	c #824643",
"3U 	c #824645",
"4U 	c #84413C",
"5U 	c #7F3D38",
"6U 	c #83433B",
"7U 	c #85473C",
"8U 	c #82443A",
"9U 	c #7C4035",
"0U 	c #793E33",
"aU 	c #773F35",
"bU 	c #703C34",
"cU 	c #512821",
"dU 	c #49201B",
"eU 	c #3F1B16",
"fU 	c #2B120E",
"gU 	c #1C0C0A",
"hU 	c #271312",
"iU 	c #3C201D",
"jU 	c #4A2A26",
"kU 	c #543231",
"lU 	c #634A4C",
"mU 	c #7D6F77",
"nU 	c #8E8793",
"oU 	c #9C97A3",
"pU 	c #8A7377",
"qU 	c #7E585D",
"rU 	c #905958",
"sU 	c #905E54",
"tU 	c #945E55",
"uU 	c #8C504D",
"vU 	c #864A47",
"wU 	c #834643",
"xU 	c #844844",
"yU 	c #864A46",
"zU 	c #884B49",
"AU 	c #8C4F4C",
"BU 	c #8A4E4A",
"CU 	c #89514D",
"DU 	c #915854",
"EU 	c #945B57",
"FU 	c #86514C",
"GU 	c #834E4B",
"HU 	c #743F3D",
"IU 	c #6B3A36",
"JU 	c #683936",
"KU 	c #59302C",
"LU 	c #482722",
"MU 	c #40211D",
"NU 	c #371B19",
"OU 	c #291311",
"PU 	c #220F0E",
"QU 	c #150707",
"RU 	c #0A0402",
"SU 	c #0E0603",
"TU 	c #140905",
"UU 	c #1E0E0B",
"VU 	c #2F1915",
"WU 	c #381E1A",
"XU 	c #40211C",
"YU 	c #49251F",
"ZU 	c #522A24",
"`U 	c #5D312A",
" V 	c #67362F",
".V 	c #6E3831",
"+V 	c #743B34",
"@V 	c #81453E",
"#V 	c #81433C",
"$V 	c #7F403A",
"%V 	c #7C3B34",
"&V 	c #824039",
"*V 	c #7F3D35",
"=V 	c #7A3830",
"-V 	c #88463E",
";V 	c #894840",
">V 	c #8A4740",
",V 	c #87483E",
"'V 	c #85483D",
")V 	c #854A3E",
"!V 	c #884B43",
"~V 	c #854844",
"{V 	c #834744",
"]V 	c #804242",
"^V 	c #7E3934",
"/V 	c #76312B",
"(V 	c #904D46",
"_V 	c #8C4941",
":V 	c #8F4D44",
"<V 	c #85463B",
"[V 	c #84483B",
"}V 	c #764033",
"|V 	c #642F23",
"1V 	c #5A291E",
"2V 	c #592B21",
"3V 	c #52281E",
"4V 	c #4C201B",
"5V 	c #441D19",
"6V 	c #3D1C18",
"7V 	c #331613",
"8V 	c #1C0B09",
"9V 	c #25100F",
"0V 	c #3D1F1D",
"aV 	c #492624",
"bV 	c #532F2D",
"cV 	c #634548",
"dV 	c #7B6871",
"eV 	c #897E8A",
"fV 	c #958C9A",
"gV 	c #8C7379",
"hV 	c #80585F",
"iV 	c #925C5B",
"jV 	c #834D4A",
"kV 	c #834E49",
"lV 	c #7C4744",
"mV 	c #78433F",
"nV 	c #7D4945",
"oV 	c #85504C",
"pV 	c #87504D",
"qV 	c #89504D",
"rV 	c #905755",
"sV 	c #915856",
"tV 	c #8A5250",
"uV 	c #88514F",
"vV 	c #7B4543",
"wV 	c #703C39",
"xV 	c #6A3936",
"yV 	c #683A36",
"zV 	c #5E3631",
"AV 	c #55302A",
"BV 	c #4A2A25",
"CV 	c #371C1A",
"DV 	c #301918",
"EV 	c #261311",
"FV 	c #1C0E0C",
"GV 	c #0E0D0D",
"HV 	c #120705",
"IV 	c #190C08",
"JV 	c #20110C",
"KV 	c #2D1713",
"LV 	c #41231E",
"MV 	c #4A2822",
"NV 	c #562D28",
"OV 	c #64352E",
"PV 	c #6B3630",
"QV 	c #703631",
"RV 	c #783B35",
"SV 	c #7C3D37",
"TV 	c #84443D",
"UV 	c #84423C",
"VV 	c #8B4942",
"WV 	c #86433A",
"XV 	c #7E3C34",
"YV 	c #935047",
"ZV 	c #8A473E",
"`V 	c #89463D",
" W 	c #89473D",
".W 	c #88473D",
"+W 	c #87473C",
"@W 	c #894A40",
"#W 	c #8D4D45",
"$W 	c #985954",
"%W 	c #7A3A38",
"&W 	c #7D3B32",
"*W 	c #7D3B31",
"=W 	c #89473E",
"-W 	c #87453B",
";W 	c #85443A",
">W 	c #7E3F34",
",W 	c #7C4134",
"'W 	c #7C4236",
")W 	c #773F33",
"!W 	c #6F3A2F",
"~W 	c #66342A",
"{W 	c #603128",
"]W 	c #582C23",
"^W 	c #51251F",
"/W 	c #4B231E",
"(W 	c #351813",
"_W 	c #1E0B08",
":W 	c #3F201D",
"<W 	c #4A2624",
"[W 	c #532E2D",
"}W 	c #644749",
"|W 	c #7C6C70",
"1W 	c #8C838A",
"2W 	c #9E959E",
"3W 	c #94787E",
"4W 	c #80595D",
"5W 	c #94605E",
"6W 	c #8B554D",
"7W 	c #865148",
"8W 	c #824B46",
"9W 	c #834946",
"0W 	c #814744",
"aW 	c #7F4543",
"bW 	c #804643",
"cW 	c #894E4C",
"dW 	c #915754",
"eW 	c #905853",
"fW 	c #8D5551",
"gW 	c #8B534E",
"hW 	c #88524E",
"iW 	c #7C4742",
"jW 	c #794740",
"kW 	c #76453F",
"lW 	c #6B3E37",
"mW 	c #633731",
"nW 	c #502B27",
"oW 	c #42221F",
"pW 	c #3B201D",
"qW 	c #331B18",
"rW 	c #1D0D0C",
"sW 	c #1A0B0A",
"tW 	c #110607",
"uW 	c #110909",
"vW 	c #171817",
"wW 	c #1B0C08",
"xW 	c #21110C",
"yW 	c #291611",
"zW 	c #351B18",
"AW 	c #592D27",
"BW 	c #61342D",
"CW 	c #693931",
"DW 	c #6F3B33",
"EW 	c #723932",
"FW 	c #743932",
"GW 	c #86453E",
"HW 	c #82463A",
"IW 	c #894C40",
"JW 	c #8D5044",
"KW 	c #8A4D41",
"LW 	c #884B3F",
"MW 	c #884B40",
"NW 	c #88493F",
"OW 	c #884940",
"PW 	c #83453F",
"QW 	c #7D3C30",
"RW 	c #824135",
"SW 	c #844236",
"TW 	c #804034",
"UW 	c #7F3F33",
"VW 	c #76382D",
"WW 	c #773A2F",
"XW 	c #783D32",
"YW 	c #794338",
"ZW 	c #703D32",
"`W 	c #67372D",
" X 	c #5E3128",
".X 	c #562A23",
"+X 	c #512822",
"@X 	c #401E18",
"#X 	c #391A15",
"$X 	c #26110C",
"%X 	c #1D0C08",
"&X 	c #2B1612",
"*X 	c #4B2725",
"=X 	c #654949",
"-X 	c #7E6E70",
";X 	c #8F878A",
">X 	c #A49DA1",
",X 	c #9B7C81",
"'X 	c #80595C",
")X 	c #956360",
"!X 	c #925A54",
"~X 	c #7B473C",
"{X 	c #7A413C",
"]X 	c #7E403E",
"^X 	c #7F413F",
"/X 	c #824342",
"(X 	c #824442",
"_X 	c #864846",
":X 	c #915251",
"<X 	c #9A5C5A",
"[X 	c #985D58",
"}X 	c #925B55",
"|X 	c #915A53",
"1X 	c #844E47",
"2X 	c #8C554E",
"3X 	c #905A53",
"4X 	c #87524B",
"5X 	c #7E4A41",
"6X 	c #814F46",
"7X 	c #804F46",
"8X 	c #5D302A",
"9X 	c #562C27",
"0X 	c #4B2723",
"aX 	c #492723",
"bX 	c #462623",
"cX 	c #402320",
"dX 	c #381D1B",
"eX 	c #321A18",
"fX 	c #281512",
"gX 	c #241310",
"hX 	c #1C1313",
"iX 	c #1F1C1C",
"jX 	c #232524",
"kX 	c #1D1414",
"lX 	c #201110",
"mX 	c #25120E",
"nX 	c #2A1611",
"oX 	c #311B17",
"pX 	c #3D201D",
"qX 	c #472620",
"rX 	c #532721",
"sX 	c #5B2D26",
"tX 	c #66372E",
"uX 	c #6D3D34",
"vX 	c #723F37",
"wX 	c #743C34",
"xX 	c #70362E",
"yX 	c #854940",
"zX 	c #82443B",
"AX 	c #85463C",
"BX 	c #844C3E",
"CX 	c #854D3E",
"DX 	c #884F40",
"EX 	c #895142",
"FX 	c #8A5243",
"GX 	c #885041",
"HX 	c #874F40",
"IX 	c #894F42",
"JX 	c #8A4B43",
"KX 	c #86473F",
"LX 	c #84453C",
"MX 	c #85463D",
"NX 	c #804239",
"OX 	c #7E3E35",
"PX 	c #814239",
"QX 	c #85453D",
"RX 	c #84443B",
"SX 	c #7F4038",
"TX 	c #7B4038",
"UX 	c #774039",
"VX 	c #713D36",
"WX 	c #683630",
"XX 	c #60312C",
"YX 	c #562824",
"ZX 	c #502520",
"`X 	c #3C1714",
" Y 	c #331714",
".Y 	c #1C0B08",
"+Y 	c #3D231D",
"@Y 	c #482923",
"#Y 	c #512F2A",
"$Y 	c #624949",
"%Y 	c #756B6B",
"&Y 	c #848284",
"*Y 	c #9C999D",
"=Y 	c #A08383",
"-Y 	c #765050",
";Y 	c #945F5B",
">Y 	c #80443A",
",Y 	c #7F423C",
"'Y 	c #7F3F3C",
")Y 	c #7B3B38",
"!Y 	c #783835",
"~Y 	c #7A3936",
"{Y 	c #7A3A37",
"]Y 	c #8B4C47",
"^Y 	c #9A5D56",
"/Y 	c #93564F",
"(Y 	c #985C55",
"_Y 	c #81443E",
":Y 	c #81493F",
"<Y 	c #6A342D",
"[Y 	c #632E28",
"}Y 	c #61302B",
"|Y 	c #58312B",
"1Y 	c #56322B",
"2Y 	c #4F2D27",
"3Y 	c #4A2B26",
"4Y 	c #442621",
"5Y 	c #3D221D",
"6Y 	c #371D18",
"7Y 	c #2C1614",
"8Y 	c #251A1A",
"9Y 	c #292625",
"0Y 	c #303232",
"aY 	c #353535",
"bY 	c #271D1C",
"cY 	c #281816",
"dY 	c #2F1913",
"eY 	c #362018",
"fY 	c #3D241C",
"gY 	c #3F211D",
"hY 	c #44231F",
"iY 	c #4D2925",
"jY 	c #5C2E2B",
"kY 	c #683732",
"lY 	c #6B3A33",
"mY 	c #723F38",
"nY 	c #743E39",
"oY 	c #773F3A",
"pY 	c #824843",
"qY 	c #834642",
"rY 	c #854943",
"sY 	c #8D544A",
"tY 	c #8A5045",
"uY 	c #884E44",
"vY 	c #854C41",
"wY 	c #864C42",
"xY 	c #834841",
"yY 	c #884C47",
"zY 	c #894D48",
"AY 	c #824740",
"BY 	c #80443E",
"CY 	c #874B46",
"DY 	c #86443B",
"EY 	c #7C3F37",
"FY 	c #773C35",
"GY 	c #753D35",
"HY 	c #703933",
"IY 	c #6B3731",
"JY 	c #66352E",
"KY 	c #5F2D29",
"LY 	c #582925",
"MY 	c #471F1C",
"NY 	c #421E1A",
"OY 	c #391A16",
"PY 	c #2F1410",
"QY 	c #371E19",
"RY 	c #41251E",
"SY 	c #4B2A24",
"TY 	c #54312C",
"UY 	c #5B3937",
"VY 	c #674F4F",
"WY 	c #7C7074",
"XY 	c #8C898D",
"YY 	c #A29FA3",
"ZY 	c #785351",
"`Y 	c #8D5852",
" Z 	c #84463E",
".Z 	c #7D3F3C",
"+Z 	c #7A3C38",
"@Z 	c #7B3C39",
"#Z 	c #7E413D",
"$Z 	c #884A46",
"%Z 	c #935550",
"&Z 	c #995B55",
"*Z 	c #9A5C56",
"=Z 	c #965851",
"-Z 	c #955751",
";Z 	c #8C4F4A",
">Z 	c #8F534A",
",Z 	c #854B41",
"'Z 	c #7E433B",
")Z 	c #793E37",
"!Z 	c #733832",
"~Z 	c #6B322D",
"{Z 	c #68332E",
"]Z 	c #633830",
"^Z 	c #623A33",
"/Z 	c #5B342E",
"(Z 	c #56312B",
"_Z 	c #502E27",
":Z 	c #4A2924",
"<Z 	c #452721",
"[Z 	c #40231D",
"}Z 	c #3C211B",
"|Z 	c #3B201C",
"1Z 	c #381E1B",
"2Z 	c #373232",
"3Z 	c #3E4040",
"4Z 	c #424242",
"5Z 	c #342727",
"6Z 	c #331F1D",
"7Z 	c #3C221B",
"8Z 	c #41271E",
"9Z 	c #452920",
"0Z 	c #4A2620",
"aZ 	c #502B25",
"bZ 	c #5D2E2A",
"cZ 	c #663431",
"dZ 	c #703B36",
"eZ 	c #703C37",
"fZ 	c #75413B",
"gZ 	c #7D4840",
"hZ 	c #854C46",
"iZ 	c #8C524B",
"jZ 	c #90564E",
"kZ 	c #8D514A",
"lZ 	c #894B45",
"mZ 	c #8B4E47",
"nZ 	c #8F5249",
"oZ 	c #8B4F44",
"pZ 	c #884B44",
"qZ 	c #8C473E",
"rZ 	c #8F483F",
"sZ 	c #833D35",
"tZ 	c #823D34",
"uZ 	c #813C33",
"vZ 	c #7E3B32",
"wZ 	c #7F3E35",
"xZ 	c #7C3D35",
"yZ 	c #753830",
"zZ 	c #71362E",
"AZ 	c #6C332B",
"BZ 	c #6F3831",
"CZ 	c #69342F",
"DZ 	c #562B26",
"EZ 	c #49211D",
"FZ 	c #3D1A16",
"GZ 	c #381916",
"HZ 	c #2E1310",
"IZ 	c #28120E",
"JZ 	c #341B16",
"KZ 	c #3E221D",
"LZ 	c #4D2A23",
"MZ 	c #56332E",
"NZ 	c #5E3E3B",
"OZ 	c #6D5657",
"PZ 	c #85797F",
"QZ 	c #969198",
"RZ 	c #ACA7AD",
"SZ 	c #A08581",
"TZ 	c #7B5753",
"UZ 	c #83433C",
"VZ 	c #7F4139",
"WZ 	c #834641",
"XZ 	c #804440",
"YZ 	c #7E423E",
"ZZ 	c #915651",
"`Z 	c #975A55",
" ` 	c #9F625D",
".` 	c #A3635E",
"+` 	c #9B5B56",
"@` 	c #9A5A55",
"#` 	c #93534E",
"$` 	c #9E5D58",
"%` 	c #8D4E46",
"&` 	c #894A43",
"*` 	c #874941",
"=` 	c #82433D",
"-` 	c #7B3C37",
";` 	c #753833",
">` 	c #6F3630",
",` 	c #6E3D36",
"'` 	c #71433C",
")` 	c #693C35",
"!` 	c #613630",
"~` 	c #5B332C",
"{` 	c #57312B",
"]` 	c #55312A",
"^` 	c #522D27",
"/` 	c #4C2A24",
"(` 	c #472822",
"_` 	c #442522",
":` 	c #402D30",
"<` 	c #463E40",
"[` 	c #4D4D4E",
"}` 	c #4E4B4C",
"|` 	c #423232",
"1` 	c #3E2525",
"2` 	c #4A2C25",
"3` 	c #4C2D23",
"4` 	c #4E2D20",
"5` 	c #572D24",
"6` 	c #5E342D",
"7` 	c #65322E",
"8` 	c #723B37",
"9` 	c #834C46",
"0` 	c #925A50",
"a` 	c #975C54",
"b` 	c #9A5E54",
"c` 	c #9A5E55",
"d` 	c #92534A",
"e` 	c #93564D",
"f` 	c #914F46",
"g` 	c #925046",
"h` 	c #915046",
"i` 	c #945348",
"j` 	c #925047",
"k` 	c #8E4E46",
"l` 	c #915249",
"m` 	c #7D3B2F",
"n` 	c #7F3B30",
"o` 	c #8D493E",
"p` 	c #89453A",
"q` 	c #864337",
"r` 	c #87453A",
"s` 	c #88463B",
"t` 	c #7A3A30",
"u` 	c #6D2F25",
"v` 	c #71352B",
"w` 	c #783D33",
"x` 	c #763D33",
"y` 	c #6F372E",
"z` 	c #6D3830",
"A` 	c #5F2822",
"B` 	c #592520",
"C` 	c #542620",
"D` 	c #4D221C",
"E` 	c #411C17",
"F` 	c #371611",
"G` 	c #30120E",
"H` 	c #2A100C",
"I` 	c #240D09",
"J` 	c #1E0906",
"K` 	c #150504",
"L` 	c #140504",
"M` 	c #170505",
"N` 	c #200C0A",
"O` 	c #28120F",
"P` 	c #321816",
"Q` 	c #371B18",
"R` 	c #3F211C",
"S` 	c #4A2923",
"T` 	c #502C26",
"U` 	c #5A3632",
"V` 	c #644240",
"W` 	c #72585B",
"X` 	c #908088",
"Y` 	c #ADA2AB",
"Z` 	c #B2A8B1",
"`` 	c #957E7B",
"  .	c #7B5D58",
". .	c #85534F",
"+ .	c #6C3732",
"@ .	c #753E37",
"# .	c #86504E",
"$ .	c #8A5653",
"% .	c #895553",
"& .	c #915D5B",
"* .	c #8B5856",
"= .	c #8E5A58",
"- .	c #8C5755",
"; .	c #915957",
"> .	c #965D5B",
", .	c #995F5D",
"' .	c #965C5A",
") .	c #7D4342",
"! .	c #955C5A",
"~ .	c #945A59",
"{ .	c #824B45",
"] .	c #7F4841",
"^ .	c #804843",
"/ .	c #7A423E",
"( .	c #7A4844",
"_ .	c #774642",
": .	c #6A3D38",
"< .	c #673C37",
"[ .	c #623835",
"} .	c #5B322E",
"| .	c #5C322F",
"1 .	c #572F2A",
"2 .	c #522D2A",
"3 .	c #4B2726",
"4 .	c #4C2A2F",
"5 .	c #493035",
"6 .	c #54484D",
"7 .	c #645F63",
"8 .	c #625C5E",
"9 .	c #483336",
"0 .	c #4A2C2E",
"a .	c #55342F",
"b .	c #59372F",
"c .	c #5D3830",
"d .	c #63342C",
"e .	c #65372F",
"f .	c #763E37",
"g .	c #794039",
"h .	c #96594E",
"i .	c #905448",
"j .	c #925549",
"k .	c #95574C",
"l .	c #975A4D",
"m .	c #9A584B",
"n .	c #9B584C",
"o .	c #935044",
"p .	c #904D41",
"q .	c #8E4D42",
"r .	c #8F4E43",
"s .	c #935147",
"t .	c #945248",
"u .	c #7F3E34",
"v .	c #80473D",
"w .	c #884C42",
"x .	c #864B41",
"y .	c #80504A",
"z .	c #7D4B45",
"A .	c #79453C",
"B .	c #79453D",
"C .	c #713E38",
"D .	c #6E3E37",
"E .	c #5E2A25",
"F .	c #592722",
"G .	c #572B26",
"H .	c #4F2721",
"I .	c #391C18",
"J .	c #2C1411",
"K .	c #25100C",
"L .	c #1E0C0B",
"M .	c #200D0D",
"N .	c #2A1615",
"O .	c #381F1D",
"P .	c #3E2421",
"Q .	c #462927",
"R .	c #4F312C",
"S .	c #624240",
"T .	c #6F5151",
"U .	c #7E666A",
"V .	c #978790",
"W .	c #B2A6B1",
"X .	c #B6ACB6",
"Y .	c #988584",
"Z .	c #7A615F",
"` .	c #885E5C",
" ..	c #7A5251",
"...	c #7A4F4C",
"+..	c #855A59",
"@..	c #8E6464",
"#..	c #8F6566",
"$..	c #8C6162",
"%..	c #916566",
"&..	c #8E6363",
"*..	c #8E6364",
"=..	c #8D6163",
"-..	c #906363",
";..	c #936363",
">..	c #956465",
",..	c #926162",
"'..	c #8B5A5B",
")..	c #7B4C4E",
"!..	c #8F5F5E",
"~..	c #8D5B5B",
"{..	c #835653",
"]..	c #855752",
"^..	c #825551",
"/..	c #835553",
"(..	c #885957",
"_..	c #855553",
":..	c #7C4C4A",
"<..	c #7F4F4E",
"[..	c #80524F",
"}..	c #7D4F4D",
"|..	c #794E4C",
"1..	c #744B48",
"2..	c #704947",
"3..	c #6B4442",
"4..	c #643C3B",
"5..	c #653C3A",
"6..	c #5F3834",
"7..	c #553131",
"8..	c #553338",
"9..	c #53383E",
"0..	c #5F5358",
"a..	c #716C70",
"b..	c #71696C",
"c..	c #574246",
"d..	c #57393D",
"e..	c #5C3C3A",
"f..	c #5F3F3A",
"g..	c #64413C",
"h..	c #693D38",
"i..	c #6A3F38",
"j..	c #6B4039",
"k..	c #784540",
"l..	c #814F47",
"m..	c #8A564D",
"n..	c #8C564B",
"o..	c #945C52",
"p..	c #8E574D",
"q..	c #91584E",
"r..	c #91594F",
"s..	c #92594E",
"t..	c #985C50",
"u..	c #975A4F",
"v..	c #925449",
"w..	c #8B4E42",
"x..	c #8E5146",
"y..	c #8E5048",
"z..	c #90524A",
"A..	c #84473F",
"B..	c #825950",
"C..	c #89625A",
"D..	c #80584F",
"E..	c #81594F",
"F..	c #80574E",
"G..	c #7F574D",
"H..	c #8C655E",
"I..	c #A57F79",
"J..	c #AE8983",
"K..	c #9B7772",
"L..	c #765450",
"M..	c #74524D",
"N..	c #70504C",
"O..	c #684947",
"P..	c #542E2B",
"Q..	c #502A28",
"R..	c #5A3935",
"S..	c #4A2E2A",
"T..	c #533A37",
"U..	c #523A36",
"V..	c #46312D",
"W..	c #3B2724",
"X..	c #34221F",
"Y..	c #2A1A18",
"Z..	c #241614",
"`..	c #2A1C1B",
" +.	c #241616",
".+.	c #28191B",
"++.	c #2E1E20",
"@+.	c #372729",
"#+.	c #362527",
"$+.	c #3A292A",
"%+.	c #473436",
"&+.	c #4E3B3C",
"*+.	c #523D3D",
"=+.	c #614949",
"-+.	c #735C5C",
";+.	c #877173",
">+.	c #958488",
",+.	c #A1949D",
"'+.	c #B4AAB5",
")+.	c #BCB5C0",
"!+.	c #A0989C",
"~+.	c #776A6D",
"{+.	c #907577",
"]+.	c #A4888A",
"^+.	c #8C7375",
"/+.	c #927C7F",
"(+.	c #9B858B",
"_+.	c #8F787F",
":+.	c #8A737A",
"<+.	c #887379",
"[+.	c #8A757B",
"}+.	c #8E787F",
"|+.	c #917B82",
"1+.	c #947C82",
"2+.	c #8E757A",
"3+.	c #886E75",
"4+.	c #876D72",
"5+.	c #856C71",
"6+.	c #7D646B",
"7+.	c #7D6469",
"8+.	c #745B60",
"9+.	c #8A7173",
"0+.	c #866D6D",
"a+.	c #8E7576",
"b+.	c #9B7F82",
"c+.	c #9A7D80",
"d+.	c #886D70",
"e+.	c #7A5F62",
"f+.	c #826367",
"g+.	c #826465",
"h+.	c #7F6262",
"i+.	c #7C6263",
"j+.	c #806667",
"k+.	c #7B6162",
"l+.	c #71595B",
"m+.	c #684F52",
"n+.	c #654A4D",
"o+.	c #5D4143",
"p+.	c #553C3B",
"q+.	c #5D4142",
"r+.	c #5B3E43",
"s+.	c #5C444A",
"t+.	c #675B60",
"u+.	c #757075",
"v+.	c #7B7379",
"w+.	c #715E65",
"x+.	c #695058",
"y+.	c #5C474B",
"z+.	c #5E494C",
"A+.	c #614C4C",
"B+.	c #69494B",
"C+.	c #664B48",
"D+.	c #6E524E",
"E+.	c #6B4C4A",
"F+.	c #735251",
"G+.	c #7D5956",
"H+.	c #775654",
"I+.	c #735552",
"J+.	c #74534D",
"K+.	c #7E564F",
"L+.	c #8B635D",
"M+.	c #8D645E",
"N+.	c #8A625B",
"O+.	c #8B625C",
"P+.	c #845A53",
"Q+.	c #805750",
"R+.	c #8E635C",
"S+.	c #855A52",
"T+.	c #82574F",
"U+.	c #875C53",
"V+.	c #7B5046",
"W+.	c #784C44",
"X+.	c #81554D",
"Y+.	c #885B54",
"Z+.	c #8A5C57",
"`+.	c #885954",
" @.	c #81524E",
".@.	c #7F504C",
"+@.	c #835551",
"@@.	c #80524E",
"#@.	c #865854",
"$@.	c #AB9592",
"%@.	c #AF9996",
"&@.	c #B09B98",
"*@.	c #B09A97",
"=@.	c #AE9996",
"-@.	c #B09C9C",
";@.	c #B49F9F",
">@.	c #B7A2A3",
",@.	c #B4A0A2",
"'@.	c #A69496",
")@.	c #A08D8E",
"!@.	c #9E8D8E",
"~@.	c #9C8B8D",
"{@.	c #857274",
"]@.	c #867376",
"^@.	c #7E6C6E",
"/@.	c #685759",
"(@.	c #6A5C5C",
"_@.	c #5D5051",
":@.	c #534748",
"<@.	c #4A3F3F",
"[@.	c #443A3A",
"}@.	c #413738",
"|@.	c #3E3536",
"1@.	c #3D3435",
"2@.	c #3F3737",
"3@.	c #42393B",
"4@.	c #433A3D",
"5@.	c #463D3F",
"6@.	c #4D4446",
"7@.	c #51484A",
"8@.	c #605759",
"9@.	c #61585A",
"0@.	c #696062",
"a@.	c #796F71",
"b@.	c #827678",
"c@.	c #928788",
"d@.	c #A09797",
"e@.	c #A79FA2",
"f@.	c #B0ABB2",
"g@.	c #BBB9C1",
"h@.	c #C4C2CC",
"i@.	c #ACA9B0",
"j@.	c #9A9298",
"k@.	c #A28F93",
"l@.	c #A79AA0",
"m@.	c #A7A0A5",
"n@.	c #A1989F",
"o@.	c #A499A2",
"p@.	c #A2959F",
"q@.	c #A498A2",
"r@.	c #A79BA5",
"s@.	c #A599A3",
"t@.	c #A397A1",
"u@.	c #A79AA4",
"v@.	c #A99AA3",
"w@.	c #A799A1",
"x@.	c #9F929A",
"y@.	c #9E9198",
"z@.	c #978992",
"A@.	c #9C8F96",
"B@.	c #9F939A",
"C@.	c #9C9195",
"D@.	c #9E9296",
"E@.	c #A09497",
"F@.	c #A8989D",
"G@.	c #AD9DA3",
"H@.	c #B1A1A7",
"I@.	c #9C9092",
"J@.	c #9B8E90",
"K@.	c #9A8D8F",
"L@.	c #988B8D",
"M@.	c #978C8F",
"N@.	c #9A8E92",
"O@.	c #918287",
"P@.	c #908387",
"Q@.	c #7B6F6F",
"R@.	c #736464",
"S@.	c #715F61",
"T@.	c #6E5D62",
"U@.	c #736D71",
"V@.	c #7D7E81",
"W@.	c #817F83",
"X@.	c #867980",
"Y@.	c #86777E",
"Z@.	c #7B7278",
"`@.	c #7F787D",
" #.	c #857F83",
".#.	c #8B7C81",
"+#.	c #86777B",
"@#.	c #8C7E7F",
"##.	c #8F7E81",
"$#.	c #988589",
"%#.	c #978386",
"&#.	c #9C8C8F",
"*#.	c #9B8D8F",
"=#.	c #938283",
"-#.	c #8D7475",
";#.	c #8F7676",
">#.	c #A2898A",
",#.	c #8A706E",
"'#.	c #8A6F6D",
")#.	c #907674",
"!#.	c #937976",
"~#.	c #8F7673",
"{#.	c #866D6B",
"]#.	c #7F6563",
"^#.	c #7F6362",
"/#.	c #826264",
"(#.	c #7F5F61",
"_#.	c #79585A",
":#.	c #765558",
"<#.	c #775658",
"[#.	c #745355",
"}#.	c #6E4C4E",
"|#.	c #B5A3A2",
"1#.	c #BAA7A6",
"2#.	c #BFADAC",
"3#.	c #BFADAD",
"4#.	c #C0ADAC",
"5#.	c #BEACAC",
"6#.	c #BFAEB0",
"7#.	c #BCADB0",
"8#.	c #B4A5A8",
"9#.	c #AD9FA1",
"0#.	c #ADA0A2",
"a#.	c #AB9EA1",
"b#.	c #948387",
"c#.	c #97868A",
"d#.	c #8B7B7E",
"e#.	c #786A6E",
"f#.	c #756A6D",
"g#.	c #665C5E",
"h#.	c #5A5152",
"i#.	c #544C4D",
"j#.	c #524A4C",
"k#.	c #4F484A",
"l#.	c #4F4748",
"m#.	c #50484A",
"n#.	c #564E51",
"o#.	c #574F52",
"p#.	c #595153",
"q#.	c #5F585B",
"r#.	c #645D5F",
"s#.	c #736C6E",
"t#.	c #756D6F",
"u#.	c #7A7476",
"v#.	c #8B8487",
"w#.	c #90898B",
"x#.	c #9F9899",
"y#.	c #ADA7A8",
"z#.	c #B2ACB0",
"A#.	c #B9B6BC",
"B#.	c #C0BFC7",
"C#.	c #C9C8D0",
"D#.	c #B3B1B8",
"E#.	c #A79FA5",
"F#.	c #A7989D",
"G#.	c #AB9B9F",
"H#.	c #B6ACB1",
"I#.	c #B3AEB3",
"J#.	c #A9A2AA",
"K#.	c #AEA3AD",
"L#.	c #B0A5AF",
"M#.	c #B4A9B3",
"N#.	c #B8ADB7",
"O#.	c #B6ABB6",
"P#.	c #B2A7B2",
"Q#.	c #B3A7B1",
"R#.	c #B5A8B2",
"S#.	c #B5AAB2",
"T#.	c #AFA4AC",
"U#.	c #AA9FA6",
"V#.	c #A499A1",
"W#.	c #A69EA5",
"X#.	c #AAA2AA",
"Y#.	c #A29CA1",
"Z#.	c #A79FA3",
"`#.	c #ABA2A6",
" $.	c #ADA2A7",
".$.	c #B6AAB0",
"+$.	c #BFB2B9",
"@$.	c #B5A9AE",
"#$.	c #ACA3A6",
"$$.	c #AAA1A4",
"%$.	c #A8A0A4",
"&$.	c #A79DA1",
"*$.	c #A89FA1",
"=$.	c #AAA3A6",
"-$.	c #ADA4A8",
";$.	c #A4989E",
">$.	c #A49CA0",
",$.	c #90898A",
"'$.	c #887E7E",
")$.	c #837578",
"!$.	c #7F7276",
"~$.	c #827D81",
"{$.	c #888C8F",
"]$.	c #8D8D90",
"^$.	c #988E95",
"/$.	c #998C94",
"($.	c #8F888F",
"_$.	c #8F8B90",
":$.	c #979297",
"<$.	c #9B8F95",
"[$.	c #988C91",
"}$.	c #9D9195",
"|$.	c #A6969B",
"1$.	c #A39398",
"2$.	c #AD9FA3",
"3$.	c #ABA1A5",
"4$.	c #A19498",
"5$.	c #988588",
"6$.	c #928082",
"7$.	c #998587",
"8$.	c #9A878A",
"9$.	c #AD999B",
"0$.	c #8F7F81",
"a$.	c #8E7F80",
"b$.	c #928081",
"c$.	c #9A8686",
"d$.	c #9C8886",
"e$.	c #998786",
"f$.	c #91807F",
"g$.	c #877676",
"h$.	c #887477",
"i$.	c #8A7378",
"j$.	c #866D73",
"k$.	c #81686E",
"l$.	c #80676E",
"m$.	c #7A6166",
"n$.	c #796065",
"o$.	c #796268",
"p$.	c #BFAFB9",
"q$.	c #CABAC2",
"r$.	c #E4D4DE",
"s$.	c #DCCCD5",
"t$.	c #DECED6",
"u$.	c #E1D1DA",
"v$.	c #E5D8DE",
"w$.	c #DAD0D4",
"x$.	c #C9C3C4",
"y$.	c #C2BEC0",
"z$.	c #C1BBC0",
"A$.	c #BFBCC1",
"B$.	c #B7B4BA",
"C$.	c #A0969A",
"D$.	c #A89B9D",
"E$.	c #8E8486",
"F$.	c #979398",
"G$.	c #7F7F86",
"H$.	c #6C6C72",
"I$.	c #837F82",
"J$.	c #807F80",
"K$.	c #767577",
"L$.	c #727073",
"M$.	c #6F6D6F",
"N$.	c #6A6769",
"O$.	c #6B686A",
"P$.	c #716D70",
"Q$.	c #6F6B6E",
"R$.	c #746F72",
"S$.	c #777275",
"T$.	c #7E7A7C",
"U$.	c #8A8688",
"V$.	c #908D90",
"W$.	c #9E9B9E",
"X$.	c #A1A0A3",
"Y$.	c #A8A7AB",
"Z$.	c #A7A7AC",
"`$.	c #AFAFB4",
" %.	c #BEBFC2",
".%.	c #CACACF",
"+%.	c #CDCCD2",
"@%.	c #C8C9CD",
"#%.	c #CAC0C2",
"$%.	c #BFB2B3",
"%%.	c #E0D2D3",
"&%.	c #E1D1D3",
"*%.	c #ECDDDE",
"=%.	c #D7CACD",
"-%.	c #DACDD2",
";%.	c #D4C6CD",
">%.	c #E4D6DD",
",%.	c #E8D9E1",
"'%.	c #EEDFE7",
")%.	c #F2E3EB",
"!%.	c #EADBE3",
"~%.	c #DBCDD4",
"{%.	c #E0D3DB",
"]%.	c #E0D4DE",
"^%.	c #DDD7D9",
"/%.	c #E5DEE0",
"(%.	c #CEC2C6",
"_%.	c #CBC1C6",
":%.	c #BABEC2",
"<%.	c #B1BDC1",
"[%.	c #ACB6BC",
"}%.	c #BBBEC5",
"|%.	c #B7B7BD",
"1%.	c #B6B9BC",
"2%.	c #B0B7B8",
"3%.	c #B1B7BA",
"4%.	c #BEC0C6",
"5%.	c #CCCBD3",
"6%.	c #CECDD5",
"7%.	c #CDCBD3",
"8%.	c #CCCDD3",
"9%.	c #C6C6CB",
"0%.	c #C5C7CB",
"a%.	c #CCCDD0",
"b%.	c #BEBEC2",
"c%.	c #BDBDC1",
"d%.	c #BABABF",
"e%.	c #BEBEC1",
"f%.	c #B0AFB3",
"g%.	c #A9A8AD",
"h%.	c #A8A9AD",
"i%.	c #A6AAAE",
"j%.	c #AFB0B4",
"k%.	c #C2C0C4",
"l%.	c #BFBAC0",
"m%.	c #BBB4B8",
"n%.	c #A6A0A4",
"o%.	c #B3ABAF",
"p%.	c #B8AAAF",
"q%.	c #C7BDC3",
"r%.	c #C5BAC2",
"s%.	c #CDC0C9",
"t%.	c #BEB3BD",
"u%.	c #B9AEB8",
"v%.	c #CCC2CC",
"w%.	c #D0C8D2",
"x%.	c #C6C0C9",
"y%.	c #BEB8BE",
"z%.	c #BAB2B7",
"A%.	c #C1B1B7",
"B%.	c #D1C1C8",
"C%.	c #CCBFC5",
"D%.	c #BABAC0",
"E%.	c #A7AEB3",
"F%.	c #ADBBC2",
"G%.	c #B8BEC4",
"H%.	c #C1B7BB",
"I%.	c #BDB9B7",
"J%.	c #B9B8B8",
"K%.	c #B5B5BA",
"L%.	c #C0BBC3",
"M%.	c #C2B8C3",
"N%.	c #B8AAB7",
"O%.	c #B6A8B5",
"P%.	c #BEB1BD",
"Q%.	c #A294A1",
"R%.	c #A699A6",
"S%.	c #C9BBC8",
"T%.	c #B09AA1",
"U%.	c #AE989F",
"V%.	c #B4A1A8",
"W%.	c #B8A3AA",
"X%.	c #C2ACB3",
"Y%.	c #C9B2BA",
"Z%.	c #D0BCC1",
"`%.	c #D4C3C5",
" &.	c #D3C4C5",
".&.	c #CDBFC0",
"+&.	c #B4A9AD",
"@&.	c #B5ABAF",
"#&.	c #AEA3A7",
"$&.	c #9C8E91",
"%&.	c #A99798",
"&&.	c #98898A",
"*&.	c #ADA5A9",
"=&.	c #7E7D84",
"-&.	c #7D7D82",
";&.	c #8B8789",
">&.	c #918A8B",
",&.	c #8F898A",
"'&.	c #8D8687",
")&.	c #8A8384",
"!&.	c #867E7F",
"~&.	c #7C7475",
"{&.	c #7B7375",
"]&.	c #756C6F",
"^&.	c #7F7477",
"/&.	c #85797C",
"(&.	c #8C7F82",
"_&.	c #8F8386",
":&.	c #948A8C",
"<&.	c #9D9395",
"[&.	c #A79DA0",
"}&.	c #B1AAAD",
"|&.	c #B4ACB2",
"1&.	c #B5ADB3",
"2&.	c #BEB6BB",
"3&.	c #C9C1C6",
"4&.	c #CCC3CA",
"5&.	c #CDC5CA",
"6&.	c #D5CBD0",
"7&.	c #C5B3B3",
"8&.	c #C5B1B0",
"9&.	c #C9B3B4",
"0&.	c #CEB8B9",
"a&.	c #D2BBBB",
"b&.	c #C3ACAD",
"c&.	c #C2ACAF",
"d&.	c #C7B0B5",
"e&.	c #C9B3B8",
"f&.	c #CCB6BB",
"g&.	c #D0BAC0",
"h&.	c #CFBAC0",
"i&.	c #C5AFB4",
"j&.	c #B7A1A7",
"k&.	c #C9B3BA",
"l&.	c #CAB6BE",
"m&.	c #C0B5B6",
"n&.	c #D1C4C5",
"o&.	c #DAC5C8",
"p&.	c #C2B0B4",
"q&.	c #C4C5C9",
"r&.	c #BAC4C7",
"s&.	c #BAC0CA",
"t&.	c #BFB9C1",
"u&.	c #BDBBBD",
"v&.	c #B7BAB9",
"w&.	c #C0C1C2",
"x&.	c #D3CED3",
"y&.	c #DACFD7",
"z&.	c #DCCCD4",
"A&.	c #DED1D7",
"B&.	c #DDD1D6",
"C&.	c #CFC5C9",
"D&.	c #D3CACC",
"E&.	c #CCC4C7",
"F&.	c #C9BFC6",
"G&.	c #CBC2C8",
"H&.	c #CBC3C8",
"I&.	c #CCC4CA",
"J&.	c #C9C4C9",
"K&.	c #C3BFC3",
"L&.	c #BEB7BC",
"M&.	c #BCB5B9",
"N&.	c #C5BBBF",
"O&.	c #C7BABF",
"P&.	c #C5B4B9",
"Q&.	c #AF9CA0",
"R&.	c #C0A8AD",
"S&.	c #B4A0A5",
"T&.	c #C9B4BB",
"U&.	c #DBC6CD",
"V&.	c #C8B2BA",
"W&.	c #C7B3BB",
"X&.	c #CBB9C1",
"Y&.	c #CABAC3",
"Z&.	c #C4B7BE",
"`&.	c #C7B1B6",
" *.	c #E2CACF",
".*.	c #DECACF",
"+*.	c #C6C3C9",
"@*.	c #A8AEB2",
"#*.	c #B0BEC5",
"$*.	c #B6BAC0",
"%*.	c #D2BEC2",
"&*.	c #CDB6B7",
"**.	c #CBBFBB",
"=*.	c #CCC4C2",
"-*.	c #C9C1C4",
";*.	c #CDC1C7",
">*.	c #D0BFC7",
",*.	c #C9B6BF",
"'*.	c #C2AEB7",
")*.	c #C1ADB6",
"!*.	c #A29099",
"~*.	c #C3AFB8",
"{*.	c #DBC6D0",
"]*.	c #A68A90",
"^*.	c #9C8085",
"/*.	c #AF9399",
"(*.	c #B99CA2",
"_*.	c #C1A7AB",
":*.	c #CEB9BB",
"<*.	c #D7C2C3",
"[*.	c #D1BDBD",
"}*.	c #B09FA3",
"|*.	c #A7979B",
"1*.	c #9B8789",
"2*.	c #A99595",
"3*.	c #9F8D8D",
"4*.	c #BAB0B3",
"5*.	c #7E7C84",
"6*.	c #89898E",
"7*.	c #948F90",
"8*.	c #9B9191",
"9*.	c #9F9595",
"0*.	c #9F9494",
"a*.	c #9E9393",
"b*.	c #9A8E8E",
"c*.	c #8E8283",
"d*.	c #8A7C7D",
"e*.	c #7A6D6F",
"f*.	c #8B7C7F",
"g*.	c #928184",
"h*.	c #9B8A8D",
"i*.	c #9C8A8D",
"j*.	c #9A8B8D",
"k*.	c #A69698",
"l*.	c #BCAFB2",
"m*.	c #BBAFB5",
"n*.	c #BAAEB4",
"o*.	c #B8ABB1",
"p*.	c #BCAFB6",
"q*.	c #C5B8BE",
"r*.	c #CABBC1",
"s*.	c #CEC0C6",
"t*.	c #D7C7CC",
"u*.	c #BFA7A6",
"v*.	c #C7AEAC",
"w*.	c #B89D9D",
"x*.	c #C0A5A5",
"y*.	c #C2A2A2",
"z*.	c #B69595",
"A*.	c #B19295",
"B*.	c #BD9FA3",
"C*.	c #B6999C",
"D*.	c #BA9CA0",
"E*.	c #BB9FA2",
"F*.	c #B79B9F",
"G*.	c #AA8C90",
"H*.	c #9E7F84",
"I*.	c #B99BA2",
"J*.	c #BB9FA6",
"K*.	c #AC9C9C",
"L*.	c #C3B1B1",
"M*.	c #DCC3C5",
"N*.	c #BBA3A6",
"O*.	c #C8C8CB",
"P*.	c #BDC6C9",
"Q*.	c #C3C6D0",
"R*.	c #C2BEC7",
"S*.	c #C3B9C1",
"T*.	c #C0B9BC",
"U*.	c #BAB8B7",
"V*.	c #C6C3C3",
"W*.	c #DAD0D5",
"X*.	c #E0CFD6",
"Y*.	c #E4CDD3",
"Z*.	c #E1CBD1",
"`*.	c #E4D0D6",
" =.	c #E7D4D9",
".=.	c #D3C1C5",
"+=.	c #D6C5C7",
"@=.	c #D1C4C7",
"#=.	c #CEBFC7",
"$=.	c #D3C3CB",
"%=.	c #D0C3CA",
"&=.	c #CDC0C7",
"*=.	c #DACED4",
"==.	c #DAD0D6",
"-=.	c #CABEC3",
";=.	c #C4B6BA",
">=.	c #C5B5B9",
",=.	c #CAB8BC",
"'=.	c #C8B2B6",
")=.	c #A48C8E",
"!=.	c #AD9094",
"~=.	c #C4A6A9",
"{=.	c #A78A8D",
"]=.	c #CBAFB4",
"^=.	c #E0C6CB",
"/=.	c #CAAFB6",
"(=.	c #CCB2BA",
"_=.	c #C8B0B9",
":=.	c #C4AFB8",
"<=.	c #C0AFB6",
"[=.	c #AEA0A3",
"}=.	c #988689",
"|=.	c #C8AEB2",
"1=.	c #E7CBCF",
"2=.	c #E3CCCF",
"3=.	c #CAC5CA",
"4=.	c #A8ADB1",
"5=.	c #B2BFC7",
"6=.	c #B6B8BE",
"7=.	c #D7BFC3",
"8=.	c #D0B5B4",
"9=.	c #CFBFBA",
"0=.	c #D3C7C3",
"a=.	c #D0C3C5",
"b=.	c #D2C0C6",
"c=.	c #D4BFC6",
"d=.	c #D0B9C0",
"e=.	c #C6AEB5",
"f=.	c #C1A8AF",
"g=.	c #A28C93",
"h=.	c #CFB7BE",
"i=.	c #E0C8D0",
"j=.	c #A06964",
"k=.	c #965F5A",
"l=.	c #99625D",
"m=.	c #A06863",
"n=.	c #9D6765",
"o=.	c #996465",
"p=.	c #9E696B",
"q=.	c #A26E70",
"r=.	c #9A676B",
"s=.	c #9B6A6F",
"t=.	c #9F6F75",
"u=.	c #9B6C72",
"v=.	c #8E696D",
"w=.	c #805A5A",
"x=.	c #927374",
"y=.	c #8C787B",
"z=.	c #776E78",
"A=.	c #97959C",
"B=.	c #9E989A",
"C=.	c #786162",
"D=.	c #694748",
"E=.	c #724E4F",
"F=.	c #775355",
"G=.	c #744F51",
"H=.	c #714B4D",
"I=.	c #765052",
"J=.	c #714A4D",
"K=.	c #62393A",
"L=.	c #6E4445",
"M=.	c #724848",
"N=.	c #714646",
"O=.	c #704646",
"P=.	c #704545",
"Q=.	c #694040",
"R=.	c #784F51",
"S=.	c #81585A",
"T=.	c #805658",
"U=.	c #764C4D",
"V=.	c #6E4344",
"W=.	c #754749",
"X=.	c #855758",
"Y=.	c #8A5A5C",
"Z=.	c #864D4E",
"`=.	c #915558",
" -.	c #925758",
".-.	c #8C4D50",
"+-.	c #955357",
"@-.	c #7E4042",
"#-.	c #8B4F4F",
"$-.	c #884C4C",
"%-.	c #8E5252",
"&-.	c #894D4E",
"*-.	c #814546",
"=-.	c #7A3F3F",
"--.	c #8F4F51",
";-.	c #874749",
">-.	c #774241",
",-.	c #633130",
"'-.	c #703B41",
")-.	c #875964",
"!-.	c #B6A6B0",
"~-.	c #AFA8B2",
"{-.	c #D1BDCC",
"]-.	c #C0A1B0",
"^-.	c #AF8995",
"/-.	c #9B7278",
"(-.	c #8E6666",
"_-.	c #845A59",
":-.	c #875456",
"<-.	c #9A6162",
"[-.	c #985A53",
"}-.	c #995A55",
"|-.	c #7A4042",
"1-.	c #7A4245",
"2-.	c #683237",
"3-.	c #612E33",
"4-.	c #683438",
"5-.	c #6F3B40",
"6-.	c #6F3C41",
"7-.	c #78484C",
"8-.	c #7D4D51",
"9-.	c #79484C",
"0-.	c #723D42",
"a-.	c #774245",
"b-.	c #854F53",
"c-.	c #7A4446",
"d-.	c #7D4647",
"e-.	c #7D4444",
"f-.	c #884F51",
"g-.	c #6A3436",
"h-.	c #7E494D",
"i-.	c #774246",
"j-.	c #68363B",
"k-.	c #6B383E",
"l-.	c #7D5054",
"m-.	c #8F6568",
"n-.	c #916468",
"o-.	c #5E3035",
"p-.	c #8C7077",
"q-.	c #9C8A92",
"r-.	c #B9AFB9",
"s-.	c #BBA6B0",
"t-.	c #7B4A4E",
"u-.	c #854D4C",
"v-.	c #804E47",
"w-.	c #8C5C54",
"x-.	c #8E5B57",
"y-.	c #8B5652",
"z-.	c #89554D",
"A-.	c #8A554C",
"B-.	c #8C574E",
"C-.	c #8F5A51",
"D-.	c #8B564E",
"E-.	c #804C44",
"F-.	c #733E37",
"G-.	c #9F655E",
"H-.	c #A36963",
"I-.	c #8B514C",
"J-.	c #995F59",
"K-.	c #9D635E",
"L-.	c #995E5E",
"M-.	c #9C6163",
"N-.	c #9F6667",
"O-.	c #9F676A",
"P-.	c #9F696D",
"Q-.	c #9C676D",
"R-.	c #97646A",
"S-.	c #8B6064",
"T-.	c #805555",
"U-.	c #926F70",
"V-.	c #887276",
"W-.	c #847983",
"X-.	c #A29EA5",
"Y-.	c #A39EA0",
"Z-.	c #806566",
"`-.	c #72494A",
" ;.	c #774D4E",
".;.	c #7B5152",
"+;.	c #7B5051",
"@;.	c #7B4F50",
"#;.	c #7A4E50",
"$;.	c #6A3A3A",
"%;.	c #754543",
"&;.	c #7A4947",
"*;.	c #784745",
"=;.	c #744542",
"-;.	c #734441",
";;.	c #6B3C39",
">;.	c #6D3D3B",
",;.	c #835354",
"';.	c #845252",
");.	c #7D4C4B",
"!;.	c #794645",
"~;.	c #865251",
"{;.	c #8C5756",
"];.	c #854848",
"^;.	c #854747",
"/;.	c #8F5051",
"(;.	c #935253",
"_;.	c #8B484A",
":;.	c #965553",
"<;.	c #7D3D3B",
"[;.	c #7C3C3A",
"};.	c #7F3F3D",
"|;.	c #94504F",
"1;.	c #884443",
"2;.	c #753A38",
"3;.	c #602825",
"4;.	c #6C3339",
"5;.	c #774751",
"6;.	c #AE9EA8",
"7;.	c #ABA4AD",
"8;.	c #CCB6C3",
"9;.	c #BC9AA8",
"0;.	c #A17884",
"a;.	c #8F6166",
"b;.	c #845656",
"c;.	c #83514F",
"d;.	c #8C5251",
"e;.	c #8D4B45",
"f;.	c #7F3D39",
"g;.	c #7F3F3E",
"h;.	c #6E3133",
"i;.	c #6F3437",
"j;.	c #60252A",
"k;.	c #612427",
"l;.	c #6E3134",
"m;.	c #793C3F",
"n;.	c #753B3D",
"o;.	c #71383B",
"p;.	c #753F41",
"q;.	c #794244",
"r;.	c #743C3E",
"s;.	c #6E3135",
"t;.	c #773A3D",
"u;.	c #834749",
"v;.	c #7F4242",
"w;.	c #7C403F",
"x;.	c #7D4441",
"y;.	c #854846",
"z;.	c #8C4E4F",
"A;.	c #7D4040",
"B;.	c #7E4344",
"C;.	c #7B4244",
"D;.	c #783F41",
"E;.	c #7C4346",
"F;.	c #845254",
"G;.	c #8B5B5C",
"H;.	c #753C3F",
"I;.	c #723A3D",
"J;.	c #673437",
"K;.	c #82646A",
"L;.	c #9C888F",
"M;.	c #B7ACB5",
"N;.	c #B49DA7",
"O;.	c #91574D",
"P;.	c #93584F",
"Q;.	c #955A51",
"R;.	c #A96D65",
"S;.	c #A66A62",
"T;.	c #8A4E47",
"U;.	c #9C6059",
"V;.	c #995C55",
"W;.	c #9B5F58",
"X;.	c #995B56",
"Y;.	c #995958",
"Z;.	c #9D5F5F",
"`;.	c #A4686A",
" >.	c #A4696B",
".>.	c #9A6064",
"+>.	c #945C60",
"@>.	c #87555A",
"#>.	c #7F4F4F",
"$>.	c #92696B",
"%>.	c #836A6E",
"&>.	c #92848E",
"*>.	c #ACA8AE",
"=>.	c #A9A3A4",
"->.	c #87696A",
";>.	c #7C4D4D",
">>.	c #7C4C4C",
",>.	c #7D4D4D",
"'>.	c #825051",
")>.	c #7D4B4C",
"!>.	c #6D393A",
"~>.	c #713B3A",
"{>.	c #7C4541",
"]>.	c #814A47",
"^>.	c #7F4944",
"/>.	c #78433E",
"(>.	c #77423D",
"_>.	c #6E3A33",
":>.	c #733D39",
"<>.	c #7F4946",
"[>.	c #844E4C",
"}>.	c #854E4A",
"|>.	c #8F5652",
"1>.	c #8E4A49",
"2>.	c #954F4F",
"3>.	c #863E3F",
"4>.	c #8C4544",
"5>.	c #8F4945",
"6>.	c #99554F",
"7>.	c #9F5A54",
"8>.	c #8B4742",
"9>.	c #7A3530",
"0>.	c #7D3833",
"a>.	c #85403B",
"b>.	c #99534E",
"c>.	c #8A413D",
"d>.	c #73342F",
"e>.	c #5F211C",
"f>.	c #6A2D34",
"g>.	c #642F38",
"h>.	c #A6959F",
"i>.	c #A69FA9",
"j>.	c #C5ADBA",
"k>.	c #B793A0",
"l>.	c #90626D",
"m>.	c #804A4E",
"n>.	c #794241",
"o>.	c #834945",
"p>.	c #914C48",
"q>.	c #833E34",
"r>.	c #803A32",
"s>.	c #7A3433",
"t>.	c #5F1D20",
"u>.	c #642328",
"v>.	c #5A161D",
"w>.	c #621F20",
"x>.	c #773434",
"y>.	c #7E3C3D",
"z>.	c #753535",
"A>.	c #733736",
"B>.	c #733636",
"C>.	c #6D2D2D",
"D>.	c #682527",
"E>.	c #773334",
"F>.	c #83403F",
"G>.	c #854340",
"H>.	c #7B3B37",
"I>.	c #72342E",
"J>.	c #864740",
"K>.	c #8D4D48",
"L>.	c #924F4E",
"M>.	c #8F4F4D",
"N>.	c #834343",
"O>.	c #8D5050",
"P>.	c #8D5656",
"Q>.	c #895857",
"R>.	c #84514F",
"S>.	c #74383A",
"T>.	c #773C3E",
"U>.	c #713C3F",
"V>.	c #76565B",
"W>.	c #9C868C",
"X>.	c #B5A8B0",
"Y>.	c #AC939C",
"Z>.	c #874E50",
"`>.	c #793B2F",
" ,.	c #7D4034",
".,.	c #96564D",
"+,.	c #995A50",
"@,.	c #9A5C52",
"#,.	c #9B5C53",
"$,.	c #7E4037",
"%,.	c #925856",
"&,.	c #864D4B",
"*,.	c #793F3E",
"=,.	c #804644",
"-,.	c #844948",
";,.	c #824844",
">,.	c #945A54",
",,.	c #98615D",
"',.	c #955F5A",
"),.	c #945F5C",
"!,.	c #9B6664",
"~,.	c #976A67",
"{,.	c #876A6D",
"],.	c #9D8C94",
"^,.	c #ACA7AB",
"/,.	c #B6ADAE",
"(,.	c #8E716D",
"_,.	c #825650",
":,.	c #80524C",
"<,.	c #7D4E49",
"[,.	c #74433F",
"},.	c #6B3936",
"|,.	c #653028",
"1,.	c #79443B",
"2,.	c #834D44",
"3,.	c #7E483F",
"4,.	c #7C493E",
"5,.	c #7D493E",
"6,.	c #7C4C40",
"7,.	c #804D42",
"8,.	c #824C41",
"9,.	c #824B40",
"0,.	c #7F483C",
"a,.	c #7B4438",
"b,.	c #7D453A",
"c,.	c #874D42",
"d,.	c #844A3F",
"e,.	c #89463F",
"f,.	c #834539",
"g,.	c #84473A",
"h,.	c #824438",
"i,.	c #804237",
"j,.	c #87493D",
"k,.	c #89493D",
"l,.	c #84493B",
"m,.	c #6E3228",
"n,.	c #6A3031",
"o,.	c #602F36",
"p,.	c #A49FA3",
"q,.	c #AFB3B8",
"r,.	c #C3B2B6",
"s,.	c #9F7E83",
"t,.	c #845659",
"u,.	c #864D4A",
"v,.	c #8E5248",
"w,.	c #824A44",
"x,.	c #7B4342",
"y,.	c #642E2F",
"z,.	c #69363B",
"A,.	c #6B373E",
"B,.	c #642A2D",
"C,.	c #7B3933",
"D,.	c #76332C",
"E,.	c #6E2C25",
"F,.	c #74352D",
"G,.	c #7A3C33",
"H,.	c #74372F",
"I,.	c #6F342B",
"J,.	c #6F322A",
"K,.	c #6C2B25",
"L,.	c #72322B",
"M,.	c #7C3A34",
"N,.	c #71332B",
"O,.	c #703127",
"P,.	c #6E3025",
"Q,.	c #783B2F",
"R,.	c #7D4136",
"S,.	c #7F4339",
"T,.	c #7F443A",
"U,.	c #7F453D",
"V,.	c #854D44",
"W,.	c #864F48",
"X,.	c #854F48",
"Y,.	c #83524A",
"Z,.	c #7F544B",
"`,.	c #7B4D45",
" '.	c #7E4A45",
".'.	c #774542",
"+'.	c #5F4A4A",
"@'.	c #A19799",
"#'.	c #B3ADB0",
"$'.	c #884D3C",
"%'.	c #854B3A",
"&'.	c #935349",
"*'.	c #93534C",
"='.	c #8C4F49",
"-'.	c #864B47",
";'.	c #864C48",
">'.	c #854A46",
",'.	c #945954",
"''.	c #894F4A",
")'.	c #874F4E",
"!'.	c #7D4544",
"~'.	c #7B4241",
"{'.	c #7F4645",
"]'.	c #824A49",
"^'.	c #854C48",
"/'.	c #8F564E",
"('.	c #925A52",
"_'.	c #96605A",
":'.	c #925F59",
"<'.	c #986562",
"['.	c #975E5C",
"}'.	c #99615C",
"|'.	c #946864",
"1'.	c #8C6D6F",
"2'.	c #A18E96",
"3'.	c #B3ABB1",
"4'.	c #BCB1B2",
"5'.	c #927571",
"6'.	c #875A53",
"7'.	c #865750",
"8'.	c #83554D",
"9'.	c #7F504A",
"0'.	c #774741",
"a'.	c #703E38",
"b'.	c #612E29",
"c'.	c #663129",
"d'.	c #7C453B",
"e'.	c #854F46",
"f'.	c #7F4B40",
"g'.	c #804C41",
"h'.	c #7E4D41",
"i'.	c #804D41",
"j'.	c #834D40",
"k'.	c #834C40",
"l'.	c #834C3F",
"m'.	c #80493B",
"n'.	c #7B4437",
"o'.	c #7B4336",
"p'.	c #804739",
"q'.	c #844B3F",
"r'.	c #83473D",
"s'.	c #85453C",
"t'.	c #814539",
"u'.	c #7F4337",
"v'.	c #814438",
"w'.	c #874B3F",
"x'.	c #83493C",
"y'.	c #743930",
"z'.	c #692F30",
"A'.	c #633238",
"B'.	c #AAA5A9",
"C'.	c #B0B7B9",
"D'.	c #BFAFB0",
"E'.	c #98787A",
"F'.	c #825355",
"G'.	c #864D49",
"H'.	c #8D5249",
"I'.	c #8D5146",
"J'.	c #8C4D42",
"K'.	c #8C4D44",
"L'.	c #87514B",
"M'.	c #804A45",
"N'.	c #784341",
"O'.	c #622E2F",
"P'.	c #653338",
"Q'.	c #66343B",
"R'.	c #662E30",
"S'.	c #793831",
"T'.	c #713029",
"U'.	c #6D2C24",
"V'.	c #74352C",
"W'.	c #7C3E35",
"X'.	c #783C33",
"Y'.	c #72362D",
"Z'.	c #6D3128",
"`'.	c #6C2C27",
" ).	c #773731",
".).	c #7C3C35",
"+).	c #703128",
"@).	c #703026",
"#).	c #6D2E23",
"$).	c #76382B",
"%).	c #7A3E32",
"&).	c #7E4339",
"*).	c #80463C",
"=).	c #86514A",
"-).	c #86514B",
";).	c #83534B",
">).	c #7E544A",
",).	c #7D5047",
"').	c #804D47",
")).	c #7C4C47",
"!).	c #805552",
"~).	c #A79EA0",
"{).	c #B6B2B3",
"]).	c #A89899",
"^).	c #84524F",
"/).	c #884D44",
"().	c #864C3D",
"_).	c #93554C",
":).	c #93544F",
"<).	c #8B4F4B",
"[).	c #884F4B",
"}).	c #884E4B",
"|).	c #723C3B",
"1).	c #6E3736",
"2).	c #8D5755",
"3).	c #915958",
"4).	c #905951",
"5).	c #915B51",
"6).	c #8F5950",
"7).	c #935E57",
"8).	c #905E57",
"9).	c #905E5A",
"0).	c #915855",
"a).	c #99605A",
"b).	c #8B5F5A",
"c).	c #A48F97",
"d).	c #BFB3B5",
"e).	c #977974",
"f).	c #8B6057",
"g).	c #885B52",
"h).	c #84564D",
"i).	c #805349",
"j).	c #7C4C44",
"k).	c #77463F",
"l).	c #62302A",
"m).	c #67332B",
"n).	c #7B463B",
"o).	c #844F46",
"p).	c #7E4840",
"q).	c #7F4C41",
"r).	c #825044",
"s).	c #7B4A3E",
"t).	c #7B483C",
"u).	c #814C3E",
"v).	c #834D3F",
"w).	c #834C3E",
"x).	c #7B4436",
"y).	c #784032",
"z).	c #7A4335",
"A).	c #7E4639",
"B).	c #7F493D",
"C).	c #7E4137",
"D).	c #7D4338",
"E).	c #884D42",
"F).	c #864C40",
"G).	c #864B3F",
"H).	c #7D4235",
"I).	c #80483B",
"J).	c #7F443B",
"K).	c #672D2F",
"L).	c #69373E",
"M).	c #B4B1B4",
"N).	c #B2BABA",
"O).	c #B8A7A6",
"P).	c #8C6D6C",
"Q).	c #7F504F",
"R).	c #864E48",
"S).	c #894F45",
"T).	c #894E43",
"U).	c #8B4F45",
"V).	c #83504B",
"W).	c #7C4945",
"X).	c #73433F",
"Y).	c #602F30",
"Z).	c #582A2E",
"`).	c #5A2C30",
" !.	c #6A3534",
".!.	c #72332B",
"+!.	c #682921",
"@!.	c #6E3027",
"#!.	c #74372D",
"$!.	c #7D4239",
"%!.	c #753B32",
"&!.	c #662C23",
"*!.	c #6A2E28",
"=!.	c #80423D",
"-!.	c #7B3E37",
";!.	c #6E2F27",
">!.	c #6B2C23",
",!.	c #723328",
"'!.	c #743B2E",
")!.	c #7F463C",
"!!.	c #88534A",
"~!.	c #87544D",
"{!.	c #895750",
"]!.	c #83554C",
"^!.	c #7D5448",
"/!.	c #81564B",
"(!.	c #865751",
"_!.	c #805753",
":!.	c #655557",
"<!.	c #B1A9AC",
"[!.	c #BCBABA",
"}!.	c #8C5B58",
"|!.	c #864E41",
"1!.	c #854E42",
"2!.	c #925651",
"3!.	c #915553",
"4!.	c #8B5250",
"5!.	c #925958",
"6!.	c #7D4543",
"7!.	c #804846",
"8!.	c #824945",
"9!.	c #905752",
"0!.	c #915752",
"a!.	c #864E45",
"b!.	c #8D5751",
"c!.	c #8E5B55",
"d!.	c #8D5A56",
"e!.	c #8F5D59",
"f!.	c #97635A",
"g!.	c #9C655B",
"h!.	c #886868",
"i!.	c #A08D93",
"j!.	c #C1B6BD",
"k!.	c #C6B8BA",
"l!.	c #9C7C78",
"m!.	c #8F625B",
"n!.	c #8C5D56",
"o!.	c #885952",
"p!.	c #83514B",
"q!.	c #83514A",
"r!.	c #733E39",
"s!.	c #7B443C",
"t!.	c #864F49",
"u!.	c #814C45",
"v!.	c #855049",
"w!.	c #834E45",
"x!.	c #885045",
"y!.	c #895044",
"z!.	c #894F44",
"A!.	c #7A4135",
"B!.	c #7D4337",
"C!.	c #7F463B",
"D!.	c #763A30",
"E!.	c #854A40",
"F!.	c #854A41",
"G!.	c #894E46",
"H!.	c #864B42",
"I!.	c #864B43",
"J!.	c #763B31",
"K!.	c #73392F",
"L!.	c #773D34",
"M!.	c #864942",
"N!.	c #69292D",
"O!.	c #693338",
"P!.	c #BBB2B6",
"Q!.	c #AFB4B4",
"R!.	c #B39F9B",
"S!.	c #8F6C6A",
"T!.	c #895655",
"U!.	c #90534F",
"V!.	c #773F3C",
"W!.	c #7C4642",
"X!.	c #713C39",
"Y!.	c #65312E",
"Z!.	c #612E2C",
"`!.	c #753731",
" ~.	c #773934",
".~.	c #7B3D37",
"+~.	c #7F443D",
"@~.	c #824942",
"#~.	c #7D4640",
"$~.	c #834845",
"%~.	c #682723",
"&~.	c #6D2C26",
"*~.	c #722F29",
"=~.	c #75312B",
"-~.	c #82453E",
";~.	c #7E4640",
">~.	c #824C47",
",~.	c #814E4B",
"'~.	c #82534C",
")~.	c #85584D",
"!~.	c #86564C",
"~~.	c #814D48",
"{~.	c #875652",
"]~.	c #815856",
"^~.	c #89767B",
"/~.	c #BCB4B9",
"(~.	c #B6B0B3",
"_~.	c #AD9B9C",
":~.	c #845251",
"<~.	c #8B504C",
"[~.	c #905554",
"}~.	c #8F5353",
"|~.	c #8B514E",
"1~.	c #925955",
"2~.	c #955A53",
"3~.	c #925851",
"4~.	c #91564F",
"5~.	c #854C44",
"6~.	c #834A43",
"7~.	c #89514B",
"8~.	c #9B655A",
"9~.	c #90635A",
"0~.	c #896867",
"a~.	c #A28D93",
"b~.	c #C0B6BD",
"c~.	c #C9BABD",
"d~.	c #9E7D7A",
"e~.	c #8F5F58",
"f~.	c #8D5C56",
"g~.	c #8B5752",
"h~.	c #87514D",
"i~.	c #77413C",
"j~.	c #6F3733",
"k~.	c #7C433D",
"l~.	c #89504A",
"m~.	c #845049",
"n~.	c #8A4E44",
"o~.	c #7F4439",
"p~.	c #7E4237",
"q~.	c #804439",
"r~.	c #81473C",
"s~.	c #854D41",
"t~.	c #8D554A",
"u~.	c #84493F",
"v~.	c #81443A",
"w~.	c #874B42",
"x~.	c #773C33",
"y~.	c #763C34",
"z~.	c #884A44",
"A~.	c #6C2B2F",
"B~.	c #6D363C",
"C~.	c #BBB1B6",
"D~.	c #AEB2B3",
"E~.	c #AE9893",
"F~.	c #91534E",
"G~.	c #8E524C",
"H~.	c #8F524D",
"I~.	c #874C48",
"J~.	c #7B3F3C",
"K~.	c #814843",
"L~.	c #773F3B",
"M~.	c #6F3832",
"N~.	c #6B3631",
"O~.	c #723934",
"P~.	c #793B36",
"Q~.	c #7D3F3B",
"R~.	c #7C3E39",
"S~.	c #80443F",
"T~.	c #864B45",
"U~.	c #834A45",
"V~.	c #864B48",
"W~.	c #824542",
"X~.	c #81433F",
"Y~.	c #6A2927",
"Z~.	c #702E2A",
"`~.	c #75302D",
" {.	c #76312D",
".{.	c #814B46",
"+{.	c #824D4B",
"@{.	c #7F4B48",
"#{.	c #81504B",
"${.	c #85564D",
"%{.	c #87554D",
"&{.	c #865450",
"*{.	c #815756",
"={.	c #BBB3B8",
"-{.	c #B8B0B4",
";{.	c #865352",
">{.	c #88514C",
",{.	c #8E5253",
"'{.	c #8D5151",
"){.	c #8A4F4C",
"!{.	c #8C514C",
"~{.	c #8F5550",
"{{.	c #7E443F",
"]{.	c #9A5C51",
"^{.	c #95584D",
"/{.	c #915447",
"({.	c #915548",
"_{.	c #8E5345",
":{.	c #844944",
"<{.	c #884D49",
"[{.	c #8D524F",
"}{.	c #8C514F",
"|{.	c #8A524F",
"1{.	c #8B5351",
"2{.	c #8E5C53",
"3{.	c #956054",
"4{.	c #9B6D64",
"5{.	c #916C6A",
"6{.	c #A48B91",
"7{.	c #B9ADB5",
"8{.	c #CBBEC2",
"9{.	c #9E7C7B",
"0{.	c #8F5C57",
"a{.	c #97605C",
"b{.	c #9A645F",
"c{.	c #945C59",
"d{.	c #874D49",
"e{.	c #793E3B",
"f{.	c #763937",
"g{.	c #7B3F3D",
"h{.	c #8D5250",
"i{.	c #834C49",
"j{.	c #814B47",
"k{.	c #8A4D46",
"l{.	c #884A42",
"m{.	c #87463F",
"n{.	c #85443D",
"o{.	c #88483F",
"p{.	c #89493F",
"q{.	c #8C4F46",
"r{.	c #894C42",
"s{.	c #935450",
"t{.	c #91524F",
"u{.	c #8C4E4B",
"v{.	c #854945",
"w{.	c #773D35",
"x{.	c #753336",
"y{.	c #7E454C",
"z{.	c #BAADB4",
"A{.	c #AFAEB0",
"B{.	c #9A7D79",
"C{.	c #885B56",
"D{.	c #8C4A47",
"E{.	c #8A4847",
"F{.	c #894948",
"G{.	c #8C4B4A",
"H{.	c #8B4747",
"I{.	c #8B4642",
"J{.	c #8B4C43",
"K{.	c #8B4D4B",
"L{.	c #783837",
"M{.	c #7A3A39",
"N{.	c #844645",
"O{.	c #8A4E4C",
"P{.	c #8B4F4D",
"Q{.	c #834747",
"R{.	c #7C3D3D",
"S{.	c #814342",
"T{.	c #7B3737",
"U{.	c #7C3636",
"V{.	c #793333",
"W{.	c #7C3D3C",
"X{.	c #804544",
"Y{.	c #824847",
"Z{.	c #84494A",
"`{.	c #7C4343",
" ].	c #7E4645",
".].	c #814C48",
"+].	c #804A48",
"@].	c #825254",
"#].	c #A48D95",
"$].	c #ACA2AD",
"%].	c #C3B9C0",
"&].	c #A99095",
"*].	c #955D5C",
"=].	c #8E4F4C",
"-].	c #8B5152",
";].	c #86494D",
">].	c #834743",
",].	c #80443D",
"'].	c #844841",
")].	c #92554D",
"!].	c #8E5249",
"~].	c #905449",
"{].	c #8E5448",
"]].	c #885046",
"^].	c #864C49",
"/].	c #915C54",
"(].	c #8E6563",
"_].	c #A1858C",
":].	c #BCB2BA",
"<].	c #C7BFC3",
"[].	c #9B7A7A",
"}].	c #955D59",
"|].	c #975E5A",
"1].	c #905753",
"2].	c #894E4B",
"3].	c #844845",
"4].	c #793C3A",
"5].	c #753936",
"6].	c #713733",
"7].	c #7F4542",
"8].	c #844A47",
"9].	c #88534D",
"0].	c #8F5852",
"a].	c #894C44",
"b].	c #884A41",
"c].	c #86463C",
"d].	c #8A4A3F",
"e].	c #8B4C42",
"f].	c #83463B",
"g].	c #793F33",
"h].	c #71372C",
"i].	c #8C4D45",
"j].	c #884B46",
"k].	c #864A45",
"l].	c #7D423D",
"m].	c #7E423F",
"n].	c #7A474B",
"o].	c #AFB1B4",
"p].	c #957674",
"q].	c #855851",
"r].	c #844B42",
"s].	c #854445",
"t].	c #844140",
"u].	c #84403D",
"v].	c #874643",
"w].	c #874644",
"x].	c #884845",
"y].	c #894946",
"z].	c #8A4A47",
"A].	c #8F5451",
"B].	c #7C3E3B",
"C].	c #7B3B3A",
"D].	c #884C49",
"E].	c #874D4A",
"F].	c #834543",
"G].	c #844744",
"H].	c #804240",
"I].	c #783937",
"J].	c #7B3C3A",
"K].	c #7A3B38",
"L].	c #814443",
"M].	c #854B49",
"N].	c #834948",
"O].	c #8A5853",
"P].	c #8C5A56",
"Q].	c #8A5959",
"R].	c #A28A92",
"S].	c #B2AAB3",
"T].	c #C3BCC5",
"U].	c #A28D91",
"V].	c #96635C",
"W].	c #9A5F56",
"X].	c #915653",
"Y].	c #7F4340",
"Z].	c #874B47",
"`].	c #8E5348",
" ^.	c #8D5448",
".^.	c #884F4A",
"+^.	c #8B605F",
"@^.	c #9F8189",
"#^.	c #BCB3BB",
"$^.	c #C4BFC2",
"%^.	c #987978",
"&^.	c #945A56",
"*^.	c #8F534F",
"=^.	c #763936",
"-^.	c #713632",
";^.	c #7D433F",
">^.	c #814D46",
",^.	c #915A54",
"'^.	c #82473F",
")^.	c #884C43",
"!^.	c #884B42",
"~^.	c #8A4A3E",
"{^.	c #8B4B41",
"]^.	c #7F4338",
"^^.	c #6F352A",
"/^.	c #8A4A41",
"(^.	c #8A4A42",
"_^.	c #844945",
":^.	c #7A3F3B",
"<^.	c #773E37",
"[^.	c #8C5549",
"}^.	c #814743",
"|^.	c #7C4B4E",
"1^.	c #BBB4B9",
"2^.	c #AFB1B6",
"3^.	c #917270",
"4^.	c #834344",
"5^.	c #823E3D",
"6^.	c #823F3A",
"7^.	c #874745",
"8^.	c #8B4B49",
"9^.	c #8C504C",
"0^.	c #915954",
"a^.	c #915753",
"b^.	c #7E413E",
"c^.	c #894E4A",
"d^.	c #854946",
"e^.	c #7A3D3A",
"f^.	c #7D403D",
"g^.	c #7C403C",
"h^.	c #8B514F",
"i^.	c #824846",
"j^.	c #89504F",
"k^.	c #8B5B53",
"l^.	c #8E5D58",
"m^.	c #8C5B5B",
"n^.	c #A0878F",
"o^.	c #B4ACB5",
"p^.	c #C2BCC5",
"q^.	c #9F8C8F",
"r^.	c #96655B",
"s^.	c #9E6359",
"t^.	c #8D5452",
"u^.	c #7D403B",
"v^.	c #894C49",
"w^.	c #814541",
"x^.	c #8E5449",
"y^.	c #8D5348",
"z^.	c #8B5247",
"A^.	c #895347",
"B^.	c #8A534A",
"C^.	c #955C55",
"D^.	c #8E554E",
"E^.	c #733C38",
"F^.	c #753931",
"G^.	c #844C44",
"H^.	c #7D4F4C",
"I^.	c #876B70",
"J^.	c #ACA2AA",
"K^.	c #C3BDC1",
"L^.	c #8F7271",
"M^.	c #7E4842",
"N^.	c #874A45",
"O^.	c #8B514B",
"P^.	c #8F554F",
"Q^.	c #955D56",
"R^.	c #88514A",
"S^.	c #824C44",
"T^.	c #854B43",
"U^.	c #8E4F46",
"V^.	c #905045",
"W^.	c #8B4B3F",
"X^.	c #884A3F",
"Y^.	c #85493E",
"Z^.	c #894F43",
"`^.	c #80463A",
" /.	c #804137",
"./.	c #915B4F",
"+/.	c #906063",
"@/.	c #C0B9BE",
"#/.	c #B0B2B7",
"$/.	c #816161",
"%/.	c #72423A",
"&/.	c #8A4B45",
"*/.	c #8B4D4C",
"=/.	c #8B4B4C",
"-/.	c #8E4B46",
";/.	c #905551",
">/.	c #935B56",
",/.	c #955B57",
"'/.	c #8A4D4B",
")/.	c #824240",
"!/.	c #884E4A",
"~/.	c #8B514D",
"{/.	c #945754",
"]/.	c #955855",
"^/.	c #8E524F",
"//.	c #864F4C",
"(/.	c #7E4744",
"_/.	c #7C4542",
":/.	c #7F4845",
"</.	c #804946",
"[/.	c #7E4846",
"}/.	c #7B4645",
"|/.	c #82524A",
"1/.	c #7C4B47",
"2/.	c #8C747B",
"3/.	c #AFA8B1",
"4/.	c #B9B4BC",
"5/.	c #9C888D",
"6/.	c #8F5F54",
"7/.	c #975B51",
"8/.	c #8C514E",
"9/.	c #824A48",
"0/.	c #7A3F3A",
"a/.	c #733631",
"b/.	c #804340",
"c/.	c #783B38",
"d/.	c #864A3F",
"e/.	c #8B5248",
"f/.	c #895348",
"g/.	c #73372F",
"h/.	c #7D504C",
"i/.	c #8C6F73",
"j/.	c #B5ABB2",
"k/.	c #C3BCC0",
"l/.	c #834D47",
"m/.	c #8E544D",
"n/.	c #8B504A",
"o/.	c #864A44",
"p/.	c #8B4E49",
"q/.	c #90544F",
"r/.	c #89524B",
"s/.	c #844E46",
"t/.	c #8C564E",
"u/.	c #894E45",
"v/.	c #8E5147",
"w/.	c #905047",
"x/.	c #82463B",
"y/.	c #8F5549",
"z/.	c #85473D",
"A/.	c #86473E",
"B/.	c #854840",
"C/.	c #894F49",
"D/.	c #8A5448",
"E/.	c #92594D",
"F/.	c #79403C",
"G/.	c #87575A",
"H/.	c #B8B2B6",
"I/.	c #B2B4B8",
"J/.	c #826160",
"K/.	c #75433C",
"L/.	c #894944",
"M/.	c #884A4A",
"N/.	c #8A4947",
"O/.	c #8C4B46",
"P/.	c #8D514D",
"Q/.	c #89524D",
"R/.	c #905350",
"S/.	c #894A48",
"T/.	c #8A4E4B",
"U/.	c #925653",
"V/.	c #844D4A",
"W/.	c #854E4B",
"X/.	c #834C4B",
"Y/.	c #7E4C48",
"Z/.	c #84544D",
"`/.	c #7C636A",
" (.	c #ACA4AD",
".(.	c #B19EA1",
"+(.	c #86564B",
"@(.	c #834A48",
"#(.	c #793D38",
"$(.	c #7D413E",
"%(.	c #8A5249",
"&(.	c #965D56",
"*(.	c #905750",
"=(.	c #8B524B",
"-(.	c #854C45",
";(.	c #844B44",
">(.	c #6C342E",
",(.	c #71352D",
"'(.	c #8F7276",
")(.	c #BBB0B8",
"!(.	c #C3BCBF",
"~(.	c #927372",
"{(.	c #87514A",
"](.	c #8D504B",
"^(.	c #90514C",
"/(.	c #935651",
"((.	c #8B4F4A",
"_(.	c #945B54",
":(.	c #854F47",
"<(.	c #8D564F",
"[(.	c #905046",
"}(.	c #8A4D43",
"|(.	c #85483E",
"1(.	c #844E42",
"2(.	c #8C5448",
"3(.	c #805052",
"4(.	c #826060",
"5(.	c #76443D",
"6(.	c #884843",
"7(.	c #864848",
"8(.	c #864949",
"9(.	c #8B4B45",
"0(.	c #915652",
"a(.	c #955754",
"b(.	c #955956",
"c(.	c #824B48",
"d(.	c #85504F",
"e(.	c #7F4E49",
"f(.	c #8F5E59",
"g(.	c #8A5857",
"h(.	c #6E555C",
"i(.	c #AAA2AB",
"j(.	c #B9B4BD",
"k(.	c #BFABAE",
"l(.	c #7E4E44",
"m(.	c #8B5147",
"n(.	c #834B49",
"o(.	c #804540",
"p(.	c #7F423F",
"                                                                                                                                                                                                                                                                                                                                                                                                ",
"                                                                                                                                                                                                                                                                                                                                                                                                ",
".  +  @  #  $  %  &  *  =  -  ;  >  ,  '  )  !  ~  {  ]  ^  /  (  _  :  <  [  }  |  1  2  3  4  5  6  7  8  9  0  a  b  c  d  e  f  g  h  i  j  k  l  m  n  o  p  q  r  s  t  u  v  w  x  y  w  z  A  B  C  D  E  F  G  H  I  J  K  L  M  N  M  O  P  Q  R  S  T  U  V  W  X  Y  Z  `   . .. .. +. @. #. $. %. &. *. =. -. ;. >. ,. >. '. ). !. ~. {. ]. ^. /. (. _. :. <. [. }. |. 1. 2. 3.    ",
"4. 5. 6. 7. 8. 9. 0. a. b. c. d. e. f. g. h. i. j. k. l. m. n. o. p. q. r. s. t. u. v. w. x. y. z. A. B. C. D. E. F. G. H. I. J. K. L. M. N. O. P. Q. R. S. T. U. V. W. X. Y. Z. `.  + .+ ++ @+ #+ $+ %+ &+ *+ =+ -+ ;+ >+ ,+ '+ )+ !+ ~+ {+ ]+ ^+ /+ (+ _+ :+ <+ [+ }+ |+ 1+ 2+ 3+ 4+ 5+ 6+ 7+ 8+ 9+ 0+ a+ b+ c+ d+ e+ f+ g+ h+ i+ j+ k+ l+ m+ n+ o+ p+ q+ r+ s+ t+ u+ v+ w+ x+ y+ z+ A+ B+    ",
"C+ D+ E+ F+ G+ H+ I+ J+ K+ L+ M+ N+ O+ P+ Q+ R+ S+ T+ U+ V+ W+ X+ Y+ Z+ `+  @ .@  @ +@ @@ #@ $@ %@ &@ *@ =@ -@ ;@ >@ ,@ '@ )@ !@ ~@ {@ ]@ ^@ /@ (@ _@ :@ <@ [@ }@ |@ 1@ 2@ 3@ 4@ 5@ 6@ 7@ 8@ 9@ 0@ a@ b@ c@ d@ e@ f@ g@ h@ i@ j@ k@ l@ m@ n@ o@ p@ q@ r@ s@ t@ u@ v@ w@ x@ y@ z@ A@ B@ C@ D@ E@ F@ G@ H@ I@ J@ K@ L@ M@ N@ O@ P@ Q@ R@ S@ T@ U@ V@ W@ X@ Y@ Z@ `@  # .# .# +# @# ## $# %# &#    ",
"*# =# -# ;# ># ,# '# )# !# ~# !# {# ]# ^# /# (# _# :# <# [# }# |# 1# 2# 3# 4# 5# 6# 7# 8# 9# 0# a# b# c# d# e# f# g# h# s@ i# j# k# l# m# n# o# p# q# r# s# t# u# v# w# x# y# z# A# B# C# B# D# E# F# G# H# I# J# K# L# M# N# O# P# Q# R# S# T# T# U# V# W# X# Y# Z# `#  $ .$ +$ @$ #$ $$ %$ &$ *$ =$ -$ ;$ >$ ,$ '$ )$ !$ ~$ {$ ]$ ~$ ^$ /$ ($ _$ :$ <$ [$ }$ |$ 1$ 2$ 3$ 4$ 5$ 5$ 6$ 7$ 8$    ",
"9$ 0$ a$ b$ c$ d$ e$ f$ g$ g$ h$ i$ j$ k$ l$ k$ m$ n$ o$ p$ q$ r$ s$ t$ u$ v$ w$ x$ y$ z$ A$ B$ C$ D$ E$ F$ G$ H$ I$ J$ K$ L$ M$ N$ O$ P$ Q$ R$ S$ T$ U$ V$ W$ X$ Y$ Z$ `$  % .% +% @% @% #% $% %% &% *% =% -% ;% >% ,% '% )% !% ~% {% ]% ^% /% (% _% :% <% [% }% |% 1% 2% 3% 4% 5% 6% 7% 8% 9% 0% a% b% c% d% e% f% g% h% i% j% k% l% m% n% o% p% q% r% s% t% u% .@ v% w% x% y% z% A% B% C%    ",
"D% E% F% G% H% I% u# J% K% L% M% N% O% P% Q% R% S% T% U% V% W% X% Y% c@ Z% `%  & .& +& @& #& $& %& && *& s$ =& -& ;& >& ,& '& )& !& ~& {& ]& ^& /& (& _& :& <& [& }& |& 1& 2& 3& 4& 5& 6& 7& 8& 9& 0& a& b& -% c& d& e& f& g& h& i& j& k& l& m& n& o& p& q& r& s& t& u& v& w& x& y& z& A& B& C& D& a% E& F& G& H& I& J& K& L& M& N& O& P& Q& R& S& a# T& U& V& W& X& Y& Z& `&  * .* +* @* #*    ",
"$* %* &* ** =* -* ;* >* ,* '* )* !* ~* {* ]* ^* {* /* (* _* :* <* [* }* |* 1* 2* 3* 4* 5* 6* 7* 8* 9* 0* a* b* c* d* e* f* g* h* i* j* k* l* m* n* o* p* q* r* s* t* u* v* w* x* y* z* A* B* C* D* E* F* 4& G* H* I* J* K* L* M* N* O* P* Q* R* S* T* U* V* W* X* Y* Z* `*  = x& .= += @= #= $= %= &= *= == -= ;= >= ,= '= )= != ~= {= ]= ^= /= (= _= := <= [= }= |= 1= 2= 3= 4= 5= 6= 7= 8=    ",
"9= 0= a= b= c= d= e= f= g= h= i= j= k= l= /& m= n= o= p= q= R* r= s= t= u= v= w= x= y= z= A= B= C= D= E= F= G= H= I= J= K= L= M= N= O= P= Q= R= S= T= U= V= W= X= Y= Z= `=  - .- +- @- #- $- %- &- *- =- -- ;- >- ,- '- )- $* !- ~- {- ]- ^- /- (- _- :- <- [- }- |- 1- 2- 3- 4- 5- 6- p. 7- 8- 9- 0- t. a- b- c- d- e- f- g- h- i- j- k- 5# l- m- (= n- o- p- q- r- s- t- u- v- w- x- y- z-    ",
"A- B- C- D- E- E- F- G- H- I- J- l= K- L- M- N- O- P- Q- R- S- T- U- V- W- X- Y- Z- `-  ; .; +; @; #; $; %; &; *; =; -; ;; >; ,; '; ); !; ~; {; ]; ^; /; (; _; :; <; [; }; |; 1; 2; 3; 4; 5; 5; 6; e# 7; 8; 9; 0; a; K* b; c; d; e; f; g; h; i; j; k; l; m; n; o; p; q; r; s; t; u; v; w; x; y; z; A; B; C; D; E; B% F; G; H; I; J; K; G; L; M; N; O; P; Q; R; S; T; U; V; W; X; Y; Z; `;  >    ",
".> +> @> #> $> %> &> *> => -> m$ ;> >> ,> '> [; )> !> t$ ~> {> ]> ^> /> (> _> :> <> [> }> |> 1> 2> 3> 4> 5> 6> 7> 8> 9> 0> a> b> c> d> e> f> g> h> i> j> k> l> m> n> o> p> q> r> s> t> u> v> (# w> x> r$ y> z> A> B> C> D> E> F> G> H> I> J> K> L> M> N> O> z= P> Q> R> S> T> U> V> W> X> Y> Z> `>  , ., +, @, #, $, %, &, ]$ *, C$ =, -, =& ;, >, ,, ', ), !, l- ~, 7$ {, ], ^, /, (, _, :,    ",
"<, [, }, |, 1, 2, 3, 4, 5, b; }; 6, 7, 8, 9, 0, a, b, c, d, e, f, g, h, i, j, k, l, m, n, o, p, q, r, s, t, u, v, w, x, y, z, A, B, C, D, E, F, G, H, I, J, K, P% L, M, N, O, P, Q, 1; R, S, T, U, {% V, W, X, /* Y, Z, `,  ' .' +' @' #' $' %' &' *' =' -' ;' >' ,' '' )' !' ~' {' ]' ^' /' (' _' :' <' [' }' |' 1' := 2' 3' 4' 5' 5' 6' 7' E- 8' 9' 0' a' r* G& b' _$ c' d' e' f' g' h' i'    ",
"j' k' l' m' n' o' p' q' r' s' 6, t' u' v' w' x' y' z' A' B' C' D' E' F' G' H' I' J' K' L' M' N' N' O' P' Q' R' S' T' U' V' W' X' Y' Z' `'  ) .) <; ., +) @) #) $) %) &) *) =) -) ;) >) ,) ') )) !) ~) {) ]) ^) /) () _) :) <) [) }) |) 1) 2) 3) 4) 5) 6) 7) 8) 9) 0) a) b) c) d) e) f) g) h) i) j) k) l) m) n) o) p) q) r) I; s) t) u) v) w) x) y) z) A) B) C) D) E) F) c' G) H) I) J) K) L)    ",
"M) N) O) P) v) Q) R) S) T) U) V) W) {$ =, X) Y) Z) `)  ! .! +! @! #! $! %! &! *! =! -! ;! >! >! ,! '! )! !! ~! {! ]! ^! /! (! _! :! <! [! }! y$ |! 1! 2! 3! 4! )> [% 5! 6! 7! 7! 8! 9! 5! 0! J, a! b! c! d! e! f! g! h! i! j! B= k! l! @; m! n! o! p! q! r! s! t! u! v! w! x! y! z! A! B! C! D! E! F! G! H! I! J! K! L! M! |' N! O! P! Q! R! S! T! U! V! V! W! X! Y! Z! `! 4#  ~ .~ +~ @~ #~    ",
"$~ %~ &~ *~ =~ -~ 2; ;~ >~ ,~ '~ )~ $* !~ ~~ {~ ]~ ^~ /~ (~ _~ :~ <~ [~ }~ >! |~ 1~ 2~ 3~ 4~ 5~ 6~ 7~ 8~ 9~ 0~ a~ b~ c~ d~ e~ f~ g~ h~ i~ j~ k~ l~ m~ n~ o~ p~ q~ r~ F$ s~ t~ u~ v~ w~ x~ y~ z~ A~ B~ C~ D~ E~ F~ G~ H~ I~ J~ K~ L~ M~ N~ O~ P~ Q~ R~ S~ T~ U~ V~ W~ X~ Y~ Z~ `~  { .{ +{ @{ #{ ${ %{ &{ *{ ={ J! -{ 8- ;{ >{ ,{ '{ ){ O+ !{ ~{ {{ T# ]{ D~ ^{ /{ D; ({ u% _{ :{ M+ <{ [{ }{    ",
"|{ 1{ d% 5# 2{ 3{ 2; 4{ 5{ 6{ 7{ 8{ 9{ 0{ a{ b{ c{ d{ e{ f{ g{ h{ i{ j{ k{ l{ m{ n{ o{ p{ q{ q{ r{ s{ t{ 4~ u{ v{ w{ x{ y{ z{ A{ B{ C{ D{ E{ F{ G{ H{ I{ J{ K{ L{ M{ N{ O{ P{ Q{ R{ v' S{ T{ U{ V{ W{ X{ Y{ Z{ `{  ] .] +] @] 2> #] $] %] &] *] =] -] ;] >] ,] '] )] !] ~] {] ]] ^] /] (] _] :] T@ <] [] }] |] 1] 2] 3] 4] 5] 6] 7] 8] 9] 0] a] b] c] d, O! ,{ d] e] f] g] g] h] i] j] k] l]    ",
"m] n] o] y~ p] s& q] r] s] t] l& u] #& v] w] x] y] z] A] B] C] D] E] F] G] H] I] J] K] L] L] M] M] J] N] O] P] Q] R] S] T] U] V] W] X] Y] Z] `]  ^ .^ +^ @^ #^ $^ %^ &^ *^ =^ -^ p$ ;^ >^ ,^ M* '^ )^ !^ ~^ {^ ]^ ^^ c{ /^ (^ _^ :^ <^ [^ }^ |^ 8~ 1^ 2^ 3^ 4^ 5^ 6^ 7^ 8^ 9^ 0^ a^ b^ c^ d^ e^ f^ g^ h^ i^ m) y- j^ k^ N! l^ m^ n^ o^ p^ )$ q^ r^ {{ s^ b% t^ u^ M! @* v^ w^ w^ x^ y^ z^ 7;    ",
"A^ :; B^ C^ x' D$ D^ A$ E^ F^ G^ H^ I^ S@ J^ K^ L^ M^ N^ O^ P^ Q^ R^ S^ T^ U^ V^ W^ X^ X^ Y^ X^ X^ Z^ W^ `^  / ./ +/ @/ #/ $/ %/ &/ */ =/ -/ ;/ >/ ,/ '/ )/ !/ ~/ b@ {/ ]/ ^/ // (/ _/ k$ :/ </ [/ }/ |/ 1/ E^ 2/ 3/ 4/ 5/ 6/ 7/ 8/ 9/ 0/ a/ b/ t{ c/ d/ e/ O] f/ S^ g/ h/ i/ j/ k/ l/ m/ n/ o/ p/ q/ r/ s/ t/ u/ v/ w/ x/ y/ N! d! x^ L; z/ A/ r* B/ C/ a% D/ E/ F/ G/ H/ v^ I/ J/ K/ L/ M/    ",
"N/ O/ P/ 7@ Q/ R/ S/ T/ U/ V/ W/ X/ Y/ Z/ n/ `/  ( .( D] +( @( #( $( %( &( Z^ *( =( -( -( -( -( ;( =( *( Y^ >( ,( '( )( !( ~( {( ]( ^( /( (( _( :( Z] <( [( }( |( 1( 2( ;* 3( 4( 5( J% 6( V% 7( 8@ 8( 9( 0( G^ G= a( b( c( d( e( f( g( h( i( j( M] k( l( m( n( o( p( q( r( s( t( u( v( w( x( y( z( A( B( C( D( E( F( G( H( I( J( K( u- L( M( N( O( P( Q( R( S( T( U( V( W( X( Y( Z( h# `(  _    ",
"._ ._ +_ @_ #_ $_ %_ &_ *_ =_ -_ ;_ >_ ,_ '_ )_ !_ ~_ {_ ]_ ^_ /_ (_ __ :_ <_ [_ }_ |_ -( 1_ 1_ -( -( 2_ [_ 3_ 4_ 5_ 6_ 7_ 8_ 9_ 0_ a_ b_ c_ d_ e_ f_ g_ h_ i_ j_ k_ l_ m_ n_ o_ p_ q_ r_ s_ C( t_ u_ v_ w_ y, x_ y_ z_ A_ B_ C_ D_ E_ F_ G_ H_ I_ J_ K_ L_ M_ N_ O_ P_ Q_ R_ S_ T_ U_ V_ W_ X_ Y_ Z_ `_  : .: +: @: #: $: %: &: *: =: -: ;: >: ,: ': ): !: ~: {: ]: ^: /: (: _: :: <: [: }:    ",
"|: 1: 2: 3: 4: 5: 6: 7: 8: 9: 0: a: b: c: d: e: f: g: h: i: j: k: l: m: n: o: -( 1_ 1_ p: q: q: 1_ 1_ 1_ 2_ [_ r: s: t: __ u: v: w: x: y: z: A: B: C: D: E: F: G: H: I: J: K: L: M: N: O: P: Q: R: S: T: U: V: W: X: Y: Z: `:  < .< +< @< #< $< %< &< [_ *< r: =< -< ;< >< ,< '< )< !< ~< {< ]< ^< /< (< _< :< << [< }< |< 1< 2< 3< 4< 5< 6< 7< 8< 9< 0< a< b< c< d< e< f< g< h< i< j< k< l<    ",
"m< n< o< p< q< r< s< t< u< v< w< x< y< z< A< B< C< D< E< F< G< H< I< J< K< -( 1_ L< L< L< L< L< L< L< 1_ 1_ 2_ [_ M< N< O< P< Q< R< S< T< U< V< W< X< Y< Z< `<  [ .[ +[ @[ u< #[ $[ %[ &[ *[ =[ -[ ;[ >[ ,[ '[ )[ ![ ~[ {[ ][ ^[ /[ ([ _[ :[ <[ [[ o: |_ |_ o: [[ }[ |[ 1[ 2[ 3[ 4[ 5[ 6[ 7[ 8[ 9[ 0[ a[ b[ c[ d[ e[ f[ g[ h[ i[ j[ k[ l[ m[ n[ o[ p[ q[ r[ s[ t[ u[ v[ w[ x[ y[ z[ A[ B[ C[    ",
"D[ E[ F[ G[ H[ I[ J[ K[ L[ M[ N[ O[ P[ Q[ R[ S[ T[ U[ V[ W[ X[ Y[ m: r: 2_ 1_ L< L< L< L< L< L< L< L< L< L< 1_ 2_ [_ <_ :_ Z[ `[  } .} +} @} #} $} %} &} *} =} -} ;} >} ,} '} )} !} ~} {} ]} ^} /} (} _} :} <} [} }} |} 1} 2} 3} 4} 5} k: l: 6} 7} 2_ 1_ 1_ 2_ K< 6} 8} 9} 0} a} b} c} d} e} f} g} h} i} j} k} l} m} n} o} p} p} q} r} s} t} u} v} w} x} y} z} A} B} C} D} E} F} G} H} I} J}    ",
"K} L} M} N} O} P} Q} R} S} T} U} V} W} X} Y} |} Z} `}  | .| +| @| =< [_ 1_ q: L< L< L< L< L< L< L< L< L< L< L< 1_ -( o: r: :_ #| $| %| &| *| =| -| ;| >| z, ,| '| )| !| ~| {| ]| ^| /| (| _| :| <| [| }| || 1| 2| 3| 4| 5| 6| 7| 8| 9| 0| a| b| c| 2_ 1_ 1_ 1_ o: d| $< e| f| g| h| i| j| k| l| m| n| o| p| q| r| s| t| u| v| w| x| y| z| A| B| C| D| E| F| G| H| I| J| K| L| M| N| O| P| Q|    ",
"R| S| T| U| V| W| X| Y| v; Z| `|  1 .1 +1 @1 #1 $1 %1 &1 *1 =1 -1 }_ 1_ L< L< L< L< L< L< L< L< L< L< L< L< L< L< L< q: 1_ }_ ;1 >1 ,1 '1 )1 !1 ~1 {1 ]1 ^1 /1 (1 _1 S' :1 <1 [1 }1 |1 11 21 31 41 51 61 71 81 91 01 a1 b1 c1 d1 e1 f1 g1 h1 <_ }_ -( 1_ 1_ 2_ [_ n: i1 J_ j1 k1 l1 m1 n1 o1 p1 q1 r1 s1 t1 u1 v1 w1 x1 }! y1 z1 A1 B1 C1 D1 E1 F1 G1 H1 I1 J1 K1 L1 M1 N1 O1 P1 Q1 R1 S1 T1    ",
"U1 V1 W1 X1 Y1 Z1 `1  2 .2 +2 @2 #2 $2 %2 &2 *2 =2 -2 ;2 Q< >2 ,2 -( q: L< L< L< L< L< L< L< L< L< L< L< L< L< L< L< L< q: 1_ ;( *( '2 )2 !2 ~2 {2 ]2 ^2 /2 (2 _2 :2 <2 [2 }2 |2 12 22 32 42 52 62 72 82 92 02 a2 b2 c2 d2 e2 f2 g2 h2 i2 j2 k2 -( 1_ q: q: 1_ -( }_ ;1 ,2 >( l2 m2 n2 o2 p2 q2 r2 s2 t2 u2 v2 w2 s- x2 y2 z2 A2 B2 V. C2 D2 E2 F2 G2 T1 H2 I2 J2 K2 L2 M2 N2 D+ O2 P2 Q2 R2    ",
"S2 T2 U2 V2 W2 X2 Y2 Z2 b! `2  3 .3 +3 @3 #3 $3 %3 &3 *3 =3 5_ *( -( q: L< L< L< L< L< L< L< L< L< L< L< L< L< L< L< L< L< q: q: ;( =( X^ -3 ;3 >3 ,3 '3 )3 !3 ~3 {3 ]3 ^3 /3 (3 _3 :3 <3 [3 }3 |3 13 23 33 43 53 63 73 83 93 03 a3 b3 c3 =( -( q: L< L< L< L< q: q: d3 ;( e3 f3 g3 h3 i3 j3 k3 l3 m3 n3 o3 p3 q3 r3 s3 t3 u3 6& v3 o- w3 x3 y3 z3 A3 B3 C3 D3 E3 F3 G3 H3 I3 J3 K3 L3 M3 N3    ",
"O3 P3 Q3 R3 S3 T3 U3 V3 &> W3 X3 Y3 D' Z3 `3  4 .4 +4 @4 #4 h1 $4 q: q: L< L< L< L< L< L< L< L< L< L< L< L< L< L< L< L< L< L< q: q: ;( %4 &4 f3 *4 =4 -4 ;4 >4 ,4 '4 )4 !4 ~4 {4 ]4 ^4 /4 (4 _4 :4 <4 [4 }4 |4 14 24 34 44 54 64 74 M] c3 ;( q: q: L< L< L< L< L< q: d3 ;( e3 `^ ;3 84 94 04 a4 b4 c4 d4 e4 f4 A- g4 h4 i4 j4 k4 )~ l4 m4 n4 o4 p4 q4 r4 s4 t4 u4 v4 w4 x4 y4 z4 A4 B4 C4 D4    ",
"E4 F4 G4 H4 I4 J4 K4 L4 M4 0# N4 O4 P4 Q4 R4 S4 T4 U4 V4 W4 X4 $4 q: L< L< L< L< L< L< L< L< L< L< L< L< L< L< L< L< L< L< L< L< q: q: ;( Y4 Z4 `4  5 .5 +5 @5 #5 $5 %5 &5 2) *5 (- =5 -5 ;5 >5 ,5 '5 )5 !5 ~5 {5 ]5 ^5 /5 (5 _5 :5 <5 [5 ;( q: q: L< L< L< L< L< q: q: }5 |5 l( 15 25 35 45 55 65 75 85 95 05 a5 b5 c5 d5 e5 f5 g5 h5 i5 j5 k5 l5 m5 n5 o5 p5 q5 s4 r5 s5 t5 u5 v5 w5 x5 y5    ",
"z5 A5 B5 C5 D5 E5 F5 G5 M2 H5 I5 J5 K5 L5 M5 N5 O5 P5 Q5 R5 S5 k2 q: L< L< L< L< L< L< L< L< L< L< L< L< L< L< L< L< L< L< L< L< L< q: d3 ;( %4 T5 U5 V5 W5 X5 Y5 Z5 `5  6 .6 +6 @6 #6 $6 %6 &6 *6 =6 -6 ;6 >6 ,6 '6 )6 !6 ~6 {6 ]6 ^6 %4 }5 q: q: L< L< L< L< L< L< q: }5 /6 (6 M] _6 :6 <6 [6 }6 |6 16 26 36 46 56 66 76 86 96 06 a6 b6 c6 d6 e6 f6 g6 h6 i6 j6 k6 l6 m6 n6 o6 p6 q6 r6 s6    ",
"t6 u6 v6 w6 v6 x6 y6 z6 A6 B6 C6 D6 E6 F6 G6 H6 I6 J6 K6 L6 M6 k2 q: L< L< L< L< L< L< L< L< L< L< L< L< L< L< L< L< L< L< L< L< L< L< q: N6 =( [5 T5 O6 V5 P6 Q6 ;] R6 S6 8) T6 U6 V6 W6 X6 Y6 Z6 `6  7 .7 +7 @7 #7 $7 !6 %7 &7 *7 =7 Y4 ;( q: q: L< L< L< L< L< L< q: N6 =( X^ <5 -7 ;7 >7 ,7 '7 )7 !7 ~7 {7 ]7 ^7 9{ /7 (7 _7 :7 <7 [7 }7 |7 17 27 37 47 57 67 77 87 97 07 a7 b7 c7 d7 e7    ",
"f7 g7 h7 h7 i7 j7 k7 l7 m7 n7 o7 p7 q7 r7 s7 t7 u7 J6 v7 P< h1 w7 q: L< L< L< L< L< L< L< L< L< L< L< L< L< L< L< L< L< L< L< L< L< L< q: q: N6 =( x7 y7 z7 A7 B7 C7 -] :^ s! D7 E7 F7 G7 B= H7 I7 J7 K7 L7 M7 N7 #7 O7 P7 Q7 &7 *7 R7 Y4 ;( q: q: L< L< L< L< L< L< q: d3 ;( Y^ S7 T7 U7 V7 W7 X7 Y7 Z7 `7  8 .8 P* +8 @8 j6 #8 $8 %8 &8 *8 =8 -8 ;8 >8 ,8 '8 )8 !8 ~8 {8 ]8 ^8 /8 (8 _8 :8    ",
"<8 [8 }8 |8 18 28 38 48 58 68 78 88 98 |6 08 a8 b8 c8 d8 e8 f8 ;( q: L< L< L< L< L< L< L< L< L< L< L< L< L< L< L< L< L< L< L< L< L< L< L< q: d3 ;( %4 g8 j( h8 i8 j8 k8 l8 m8 n8 o8 p8 q8 r8 s8 t8 u8 v8 w8 x8 y8 z8 A8 B8 V7 C8 D8 n( X^ =( N6 q: L< L< L< L< L< L< q: N6 =( Y4 ^6 -7 c/ E8 F8 G8 H8 1> I8 J8 K8 L8 s' M8 N8 u3 O8 P8 Q8 R8 S8 T8 U8 V8 W8 X8 Y8 Z8 `8  9 .9 C4 +9 @9 #9 $9    ",
"%9 &9 *9 =9 -9 |8 ;9 >9 ,9 '9 )9 !9 ~9 {9 ]9 ^9 /9 (9 _9 :9 -1 ;( q: L< L< L< L< L< L< L< L< L< L< L< L< L< L< L< L< L< L< L< L< L< L< L< L< q: d3 }5 |5 <9 [9 }9 |9 19 29 39 q! 49 59 69 79 89 99 09 a9 b9 c9 d9 e9 f9 g9 (5 _5 h9 V^ X^ ;( N6 q: L< L< L< L< L< L< q: q: ;( /6 l( T7 i9 j9 k9 l9 m9 n9 o9 p9 q9 r9 s9 t9 ^% u9 J3 v9 w9 x9 y9 z9 A9 B9 C9 $% D9 E9 F9 G9 H9 I9 g& J9 K9 L9    ",
"M9 N9 O9 P9 Q9 R9 S9 T9 U9 V9 W9 X9 Y9 {9 Z9 `9  <  0 _9 e| J_ ;( q: L< L< L< L< L< L< L< L< L< L< L< L< L< L< L< L< L< L< L< L< L< L< L< L< q: q: d3 =( x7 .0 z7 +0 @0 #0 $0 %0 &0 *0 =0 -0 ;0 >0 ,0 '0 Y6 )0 !0 ~0 {0 ]0 ^0 /0 (0 n( _0 ;( N6 q: L< L< L< L< L< L< L< q: -( %4 l( J] :0 <0 k9 [0 }0 |0 10 20 w] 30 40 50 60 70 80 90 00 a0 b0 c0 d0 e0 f0 g0 h0 i0 j0 k0 l0 m0 G9 D9 n0 H9    ",
"o0 p0 q0 q0 r0 s0 t0 u0 v0 w0 x0 y0 z0 A0 B0 a~ C0 D0 _9 E0 F0 $4 q: q: L< L< L< L< L< L< L< L< L< L< L< L< L< L< L< L< L< L< L< L< L< L< L< L< q: q: }5 Y4 ^6 G0 H0 I0 J0 K0 L0 M0 N0 O0 P0 Q0 R0 S0 T0 U0 V0 W0 X0 Y0 Z0 `0 _5  a L] _0 $4 -( q: L< L< L< L< L< L< L< q: -( *( W^  / .a +a @a #a $a %a &a *a =a -a $& ;a B~ >a C* -~ ,a 'a )a !a ~a {a ]a ^a /a (a _a :a F# <a [a }a |a 1a    ",
"2a 3a 4a 5a 6a 7a 8a 9a 0a aa ba ca da ea B0 fa ga ha ia ja ka k2 q: q: L< L< L< L< L< L< L< L< L< L< L< L< L< L< L< L< L< L< L< L< L< L< L< L< L< q: d3 ;( Y4 T5 la ma na oa pa qa ra sa ta ua va wa xa ya za Aa Ba Ca Da Ea Fa Ga Ha (6 =( -( q: L< L< L< L< L< L< L< q: N6 $4 (6 L] Ia Ja Ka La Ma Na Oa Pa Qa Ra Sa Ta Ua Va Wa Xa Ya Za `a  b .b +b @b #b $b %b &b *b =b -b ;b >b ,b 'b    ",
"z5 )b !b ~b 8a a; {b ]b ^b /b (b _b :b <b [b }b |b 1b 2b 3b 4b k2 N6 q: L< L< L< L< L< L< L< L< L< L< L< L< L< L< L< L< L< L< L< L< L< L< L< L< L< L< q: d3 =( e3 T5 5b 6b 1~ 7b 8b 9b 0b ab bb z! cb db eb fb gb hb ib jb kb lb mb nb (6 ;( -( q: L< L< L< L< L< L< L< q: N6 =( X^ <5 ob pb qb rb sb tb ub vb wb xb yb zb Ab Bb Cb Db Eb Fb Gb Hb Ib V, Jb Kb Lb Mb Nb Ob Pb Qb Qb Rb Sb Tb    ",
"t0 Ub Vb Wb Xb Yb Zb `b  c [- .c +c @c #c Z9 $c %c &c *c =c 4b k2 N6 q: L< L< L< L< L< L< L< L< L< L< L< L< L< L< L< L< L< L< L< L< L< L< L< L< L< L< q: q: }5 %4 g8 .0 -c .5 ;c >c ,c 'c )c !c ~c {c ]c ^c /c (c _c :c Z0 <c [c }c  / (6 =( -( q: L< L< L< L< L< L< L< q: N6 =( _0 L] |c :6 1c La 2c 3c 4c 5c $6 6c k& 7c 8c 9c 0c ~a ac bc cc dc |/ >^ ec fc gc hc ic jc kc lc mc l0 nc oc    ",
"W2 pc qc rc sc tc uc vc wc xc yc zc Ac Bc Cc Dc Ec Fc Gc Hc Ic k2 N6 q: L< L< L< L< L< L< L< L< L< L< L< L< L< L< L< L< L< L< L< L< L< L< L< L< L< L< L< q: d3 ;( |5 ^6 Jc Kc Lc Mc Nc a4 Oc Pc Qc Rc Sc Tc Uc Vc Wc Xc Yc Zc `c  d  / Z^ =( -( q: L< L< L< L< L< L< L< q: N6 =( _0 L] .d +d @d #d $d r, %d &d U@ *d =d -d ;d >d ,d 'd )d !d ~d {d ]d ^d g6 /d (d _d :d <d [d }d [d |d 1d 2d    ",
"3d 4d 5d 6d 7d 8d 9d 0d ad bd cd dd ed fd gd hd id jd kd ld t: *( -( q: L< L< L< L< L< L< L< L< L< L< L< L< q: q: q: q: L< L< L< L< L< L< L< L< L< L< L< q: q: ;( %4 (6 md nd od pd qd rd sd td ud vd wd xd yd zd Ad Bd Cd Dd Ed Fd Gd Z^ /6 -( q: L< L< L< L< L< L< L< q: -( =( Hd Id Jd Kd Ld Md v! Nd Od Pd Qd Rd Sd Td Ud Vd Wd Xd Yd Zd `d  e .e +e @e #e y% $e %e &e *e =e -e #e ;e >e    ",
",e 'e )e !e ~e {e ]e ^e /e (e _e :e <e [e }e |e 1e 2e 3e 4e 5e k2 -( q: L< L< L< L< L< L< L< L< L< L< L< q: q: q: q: q: q: L< L< L< L< L< L< L< L< L< L< L< q: -( ;( *( Z^ Gd 6e 7e 8e 9e 0e ae be ce de ee fe ge he ie je ke le !( me '2 k2 -( q: L< L< L< L< L< L< L< q: 1_ ;( ne oe pe qe re se te ue ve we xe ye ze Ae Be Ce De Ee Fe Ge He Ie Je Ke Le Me Ne Oe Pe Qe Re Se Te Ue Ve We    ",
"Xe Ye Ze Ze `e  f .f +f @f #f $f %f &f *f =f -f ;f >f ,f 'f )f ;1 -( !f L< L< L< L< L< L< L< L< L< L< q: 1_ 1_ 1_ 1_ 1_ 1_ q: q: L< L< L< L< L< L< L< L< L< q: 1_ -( [_ -1 ,1 ~f {f ]f ^f /f (f _f :f <f [f }f |f 1f 2f 3f 4f 5f 6f 7f 8f ;1 -( 1_ q: L< L< L< L< L< L< q: -( }_ j2 )2 9f 0f af bf cf df ef ff gf hf if jf kf lf mf nf of pf qf rf sf tf uf vf wf xf yf zf Af Bf Cf Df Ef Ff    ",
"Gf Hf If Jf Kf If Lf Mf Nf Of Pf Qf Rf Sf Tf Uf Vf Wf Xf Yf Zf n: `f 1_ q: L< L< L< L< L< L< L< L< p: 1_ -( |_ 2_ 2_ 2_ 2_ -( 1_ p: L< L< L< L< L< L< L< L< L< 1_ 2_  g .g 8} +g @g #g $g %g &g *g =g -g ;g >g ,g 'g )g !g ~g {g ]g ^g :_ r: o: -( 1_ L< L< L< L< L< L< 1_ 2_ &< b| /g (g _g :g <g [g }g |g 1g U> 2g 3g 4g 5g 6g 7g 8g 9g 0g ag bg cg dg eg fg gg hg ig jg kg kg lg mg ng og    ",
"pg qg rg sg tg ug vg wg xg yg zg Ag Bg Cg Dg Eg Fg Gg 2[ Hg Ig .g &< 2_ 1_ L< L< L< L< L< L< L< 1_ 1_ |_ o: o: K<  g  g K< o: 2_ 1_ 1_ Jg L< L< L< L< L< L< L< 1_ 2_ K< Kg Lg Mg Ng Og Pg Qg Rg Sg Tg Ug Vg Wg Xg Yg Zg `g  h .h +h L6 @h #h $h |_ 1_ L< L< L< L< L< 1_ 1_ o: %h &h *h =h -h ;h >h ,h 'h )h !h ~h o4 {h ]h ^h /h (h _h :h <h [h }h |h 1h 2h 3h 4h 5h 6h 7h 8h 9h 0h ah bh ch    ",
"qg dh rg eh fh gh vg hh ih jh kh lh mh nh oh ph qh rh sh Hg th uh 7} 2_ 1_ L< L< L< L< L< L< L< 1_ 1_ 2_ *<  g M< vh vh wh xh o: 2_ 1_ 1_ Jg L< L< L< L< L< L< 1_ 1_ `f M< yh zh Ah Bh Ch Dh Eh Fh Gh Hh Ih Jh Kh Lh Mh Nh Oh Ph Qh L6 Rh #h *< |_ 1_ L< L< L< L< L< 1_ 1_ o: wh Sh Th =h Uh Vh Wh Xh Yh Zh `h  i .i +i @i #i $i %i &i *i =i -i ;i >i ,i 'i )i !i ~i {i ]i ^i /i (i _i :i <i    ",
"[i }i |i 1i 2i 3i 4i 5i 6i 7i 8i 9i 0i ai bi ci di ei fi O_ gi hi ii 2_ 1_ q: L< L< L< L< L< 1_ 1_ |_ o: [_ &< <_ K_ ji n: &< o: `f 2_ -( 1_ L< L< L< L< L< L< L< L< 1_ w7 k2 ,2 ki li mi ni oi pi qi ri si ti ui vi wi xi yi zi Ai '1 Bi ji &< 2_ 1_ L< L< L< L< L< 1_ 1_ o: Kg Ci Di Ei Fi Gi Hi Ii Ji Ki Li Mi Ni Oi Pi Qi Ri Si Ti Ui Vi Wi Xi Yi Zi `i  j .j +j @j #j $j %j &j *j =j -j    ",
";j >j ,j 'j )j !j ~j {j ]j ^j /j (j _j :j <j [j }j |j 1j 2j 3j ;1 }_ 1_ q: L< L< L< L< L< L< q: 1_ 1_ |_ }_ ;1 j2 4j 4j <_  g K< *< }_ -( q: L< L< L< L< L< L< L< L< q: !f -( ;( Y^ 5j 6j l1 7j 8j 8j 9j 0j aj bj cj dj ej fj gj hj ij 8f jj -( 1_ q: L< L< L< L< L< 1_ -( *< d| kj lj mj nj oj pj qj rj yd sj tj uj vj wj xj yj zj Aj Bj Cj Dj Ej Fj Gj Hj Ij Jj Kj Lj |! Mj Nj  j Oj Pj Qj    ",
"Rj Sj Tj Uj Vj Wj Xj Yj Zj `j  k .k +k @k #k $k %k &k *k =k -k -( q: L< L< L< L< L< L< L< L< L< 1_ 1_ 1_ -( k2 ,2 ;k >k -1 3_ n: r: [_ 1_ q: L< L< L< L< L< L< L< L< L< q: q: d3 =( [5 L] la ,k 'k )k 3~ !k ~k {k ]k ^k 5~ /k (k _k c3 ;( -( q: L< L< L< L< L< L< L< p: -( K< =< >k :k <k [k }k |k 1k 2k 3k 4k 5k 6k 7k 8k 9k 0k ak bk ck dk ek fk gk hk ik _d jk kk lk mk nk ok pk qk rk sk    ",
"tk uk vk wk xk yk zk Ak Bk Ck Dk Ek Fk Gk Hk ^9 Ik Jk Kk b3 Z^ =( -( q: L< L< L< L< L< L< L< L< q: q: -( =( *( X^ W^ Lk 8f M_ 6} d| r: N6 q: q: L< L< L< L< L< L< L< L< L< q: d3 m( |5 Mk Nk  5 Ok Pk Qk Rk Sk Tk Uk Vk Wk Xk Yk Zk `k %4 }5 q: q: L< L< L< L< L< L< q: |_ &< d| ne  l  d .l +l @l V~ #l $l %l &l *l =l -l ;l >l ,l 'l )l !l ~l {l ]l ^l /l (l _l 4a :l <l [l }l |l 1l 2l 3l    ",
"4l 5l 6l 7l 8l 9l 0l al bl cl dl el fl gl hl il jl kl ll ml Z^ =( -( q: L< L< L< L< L< L< L< L< q: q: -( %4 X^ Z^ nl ol pl m: Sh )f L_ ;( N6 q: q: L< L< L< L< L< L< L< L< q: q: ql %4 e3 i( rl sl tl ul ;c vl wl wl xl yl zl Al Nk Mk %4 }5 q: L< L< L< L< L< L< L< q: 2_ &< d| ne  l }c Bl Cl Dl El Fl Gl Hl Il Jl Kl Ll }l Ml Nl Ol Pl Ql f5 h7 Rl Sl ,8 Tl Ul Vl 47 Wl Wl Xl A4 Yl Zl v~    ",
"`l  m .m +m @m #m $m %m &m *m =m -m ;m >m ,m 'm )m !m ~m Gd Z^ /6 -( q: L< L< L< L< L< L< L< L< q: q: ;( /6 Z^ W^ &( :k {m ]m ^m /g /m =( ;( q: q: L< L< L< L< L< L< L< L< L< q: d3 ;( |5 (m _m :m c/ <m [m }m |m 1m 2m 3m 4m 5m 6m Mk %4 d3 q: L< L< L< L< L< L< L< q: 2_ K< d| ne 7m 8m 9m Cl 0m am bm cm dm em fm gm hm im jm km lm Ql mm nm om pm qm rm sm tm um vm M* 2l [; p] wm v) xm    ",
"ym zm Am Bm Cm Dm Em Fm Gm Hm Im Jm Km Lm Mm Nm Om Pm Qm Rm Sm *( -( q: L< L< L< L< L< L< L< L< q: -( ;( Y^ Tm Um  l Vm Wm Xm Ym Zm `m %4 ;( ;( q: q: L< L< L< L< L< L< L< L< L< q: d3 =( c3 L]  n a3 .n +n @n #n V7 u{ $n %n &n *n e3 =( ;( q: L< L< L< L< L< L< L< q: 2_ K< d| =n Ha -n ;n >n ,n 'n )n !n ~n {n ]n +m D5 ^n @% /n (n _n :n <n [n }n C4 |n 1n 2n >& 3n !^ 4n 5n 6n 7n 8n 9n    ",
"0n an bn cn dn en fn W( gn hn in jn kn ln mn nn on pn qn rn Lk *( -( q: L< L< L< L< L< L< L< L< q: -( ;( Y^ 5j sn tn un 9f vn =3 wn xn X^ %4 =( N6 q: L< L< L< L< L< L< L< L< L< q: q: ;( Y4 W^ M] yn zn An :6 Bn 5~ Cn Dn En Jc *n e3 =( d3 q: L< L< L< L< L< L< L< q: 2_ K< d| >( l2 Fn Gn Hn In e( t! Jn Kn Ln Mn t5 Nn On Y8 Pn Qn Rn Sn Tn Un Vn Wn Xn => Yn Zn `n  o ,> .o +o @o #o $o    ",
"%o &o *o =o -o ;o >o ,o 'o )o !o ~o {o ]o ^o /o (o _o qn :o '2 k2 -( q: L< L< L< L< L< L< L< q: q: -( $4 ne <o [o }o |o f1 1o 2o 3o 4o nl _0 Y4 ;( d3 q: L< L< L< L< L< L< L< L< L< q: N6 =( Y4 R7 5o 6o 7o 8o pb 9o 0o V5 z7 `4 i( e3 ql d3 q: L< L< L< L< L< L< L< q: |_ K< ao >( f3 /k bo co do eo fo go ho io jo ko nc lo mo no oo po qo ro so to uo vo wo xo yo zo Ao Bo g$ Co Do Eo Fo    ",
"Go Ho Io *o Jo Ko Lo Mo ,a No Oo Po Qo Ro So To Uo Vo Wo me >( ;( -( q: L< L< L< L< L< L< L< q: 1_ ;( *( '2 Xo Yo $( Zo `o  p .p +p @p L] &4 X^ =( -( q: L< L< L< L< L< L< L< L< L< q: q: ;( =( c3 `^ #p $p :5 %p V5 h( &p Jc j( i( e3 ql q: q: L< L< L< L< L< L< L< p: 2_  g %< *p =p C8 ^k -p ;p >p ,p 'p )p !p ~p {p ]p ^p /p (p _p :p <p [p }p |p 1p s6 =) 2p 3p 4p K% 5p 6p 7p 8p 9p .-    ",
"0p ap *o bp cp dp ep fp gp hp ip jn jp kp lp mp np op pp qp ne ;( -( q: L< L< L< L< L< L< L< q: -( ;( rp sp tp up g/ vp wp xp yp zp fi J] `^ &4 Y4 ;( N6 q: L< L< L< L< L< L< L< L< L< q: N6 N6 /6 (6 R7 Ap Bp (k Cp (k &n Zk y7 (m |5 }5 q: q: L< L< L< L< L< L< L< 1_ 2_ K< %< '2 b3 i9 Dp -p ;p Ep Fp Gp Hp Ip Jp Kp Lp Mp ^p Np _p Op Pp Qp :p Rp Sp Tp P, Up Vp Wp Xp Yp Zp `p  q .q 4,    ",
"+q @q #q $q B& %q &q d. *q =q -q ;q >q ,q 'q )q !q ~q {q oe ]q }_ -( q: L< L< L< L< L< L< L< !f -( k2 =n ^q /q (q _q :q <q [q }q |q 1q 2q K] l( X^ %4 -( q: q: L< L< L< L< L< L< L< L< q: q: N6 ;( Hd [5 `^  / N] 5b 3q `4 f3 (m |5 =( ;( d3 q: L< L< L< L< L< L< L< !f -( K< %< '2 ml 4q 5q 6q 7q 8q 9q 0q aq bq cq dq eq fq gq Lp Lp hq iq ,l jq kq Ql lq mq nq oq q$ pq qq rq c! sq tq uq    ",
"M) vq L; wq xq yq #+ zq Aq Bq Cq Dq Eq Fq Gq Hq Iq Jq pe oe ne ;( 1_ q: L< L< L< L< L< L< q: 1_ ;( *( '2 ol Kq Lq R^ u7 Mq Nq Oq Pq Qq Rq Sq K] W^ Y^ ;( N6 q: L< L< L< L< L< L< L< L< L< q: q: N6 =( /6 (6 S7 _k f3 Tq f3 i( Z4 |5 =( -( q: q: L< L< L< L< L< L< L< q: 1_ K< L_ '2 Uq 8m Bl Vq [6 Wq Xq Yq Zq `q  r 96 .r +r H9 H9 @r #r :n $r %r &r ec *r =r j$ >> -r c! ;r >r U{ ,r 0] z2    ",
")$ J$ 'r d! )r !r ~r {r ]r ^r /r (r _r :r <r [r }r Jq q( |r ne ;( !f q: L< L< L< L< L< L< q: 1_ }_ ,2 ki 1r !( 2r F] 3r 4r 5r 6r 7r 8r 9r 0r ar br (6 /6 ;( q: q: L< L< L< L< L< L< L< L< L< q: q: -( =( Y^ c3 Z4 <9 T5 i( (m c3 |5 =( d3 q: q: L< L< L< L< L< L< L< L< 1_ K< L_ '2 Uq 8m cr dr er fr gr hr ir `q jr kr lr mr {p nr or pr qr #r rr sr tr ur )~ ;> vr wr xr ;r yr M{ zr Ar M{    ",
"Br w) $= Cr Dr Er Fr Gr Hr Ir Jr Kr Lr Mr Nr Or Pr Qr Kq <o Y^ ;( q: q: L< L< L< L< L< L< q: 1_ ;( ,2 5j Rr Sr !m Tr Ur Vr Wr Xr Yr Zr `r  s .s O] L] c3 =( N6 q: q: L< L< L< L< L< L< L< L< q: q: q: ;( ;( %4 e3 Mk g8 (m (m c3 |5 =( d3 q: q: L< L< L< L< L< L< L< q: |_ [_ +s Tm Uq @s #s $s [6 %s &s *s =s -s ;s >s ,s 's )s !s ~s {s ]s ^s /s (s _s Ql :s <s [s }s |s 1s Ll 2s 3s 4s 4{    ",
"5s 6s 7s ;# 8s 9s *@ 0s as bs cs ds es fs gs hs is js ks ls *( ;( q: L< L< L< L< L< L< L< q: -( ;( ne &( )( m2 ms Q^ ns os ps qs rs ss ts us vs P] G0 ^6 X^ ;( d3 q: L< L< L< L< L< L< L< L< L< q: q: d3 }5 ;( %4 %4 |5 e3 |5 %4 =( ;( d3 q: L< L< L< L< L< L< L< L< p: |_ [_ <_ Z^ Uq 4q ws xs fa ys zs As Bs Cs Ds Es ;~ Fs Gs Hs Is Js Ks Ls A# Ms Ns Os Pn lm X8 Ps Qs Rs Ss Ts Us Vs Wn    ",
"Ws Xs Ys Zs ;e `s  t .t +t @t #t $t %t &t *t hs =t -t ;t Lk *( -( q: L< L< L< L< L< L< L< q: -( $4 >( >t Yo Lq ,t 't Hi )t !t ~t {t ]t ^t /t 35 (t _t `^ &4 /6 -( q: q: L< L< L< L< L< L< L< L< L< q: q: d3 N6 }5 =( =( =( =( }5 }5 N6 q: q: L< L< L< L< L< L< L< L< 1_ |_ [_ <_ Z^ :t +/ <t [t }t $d |t 1t 2t 3t 4t 5t 6t 7t 8t 9t 0t at bt ct A# dt k6 J9 (n #r et ft gt ht it jt kt =) lt    ",
"mt nt ot pt qt rt st tt ut vt wt xt yt zt At Bt Ct Dt i2 >k k2 -( q: L< L< L< L< L< L< L< q: 1_ }_ ]q Et Ft Gt Ht It Jt Kt Lt Mt Nt Ot Pt Qt I6 Rt St Ft Tt Ut -( 1_ q: L< L< L< L< L< L< L< L< L< L< q: q: q: !f -( ;( ;( ;( ;( -( 1_ q: L< L< L< L< L< L< L< L< L< 1_ -( *< n: ,2 Vt Wt Xt Yt Zt e~ `t  u .u +u @u #u $u %u &u *u =u -u ;u >u ,u 'u )u !u ~u {u ]u ^u /u (u _u :u <u [u }u    ",
"|u 1u 2u 3u 4u 5u &_ 6u 7u 8u 9u 0u au bu cu af du eu fu j2 }_ -( q: L< L< L< L< L< L< L< q: -( k2 -1 gu 7_ hu iu ju ku lu mu nu ou pu qu ru su tu uu vu wu X4 <_ `f -( 1_ q: L< L< L< L< L< L< L< L< L< q: !f 1_ 1_ -( -( }_ ;( -( 1_ 1_ L< L< L< L< L< L< L< L< L< p: 1_ o: wh <_ xu yu vu zu Au Bu Cu Du Eu Fu Gu Hu Iu Ju Ku Lu Mu Nu Ou Pu Qu Ru Su Tu Uu Vu Wu Xu Yu Zu `u  v .v +v @v    ",
"#v $v %v &v *v =v -v ;v >v ,v 'v )v !v ~v {v ]v ^v /v M6 &< 2_ 1_ q: L< L< L< L< L< L< L< 1_ |_ [_ L_ >2 (v _v :v <v [v }v |v 1v 2v 3v 4v 5v 6v 7v 8v 9v 0v Hc av %< K< 2_ 1_ p: L< L< L< L< L< L< L< L< L< 1_ 1_ 1_ 1_ -( 2_ 2_ -( 1_ 1_ q: L< L< L< L< L< L< L< L< L< 1_ o: %h bv N_ cv %| dv ev fv gv hv hv iv jv X' kv lv mv nv ov pv qv rv sv tv uv vv wv xv yv zv @u Av Bv Cv Dv Ev Fv    ",
"Gv Hv Iv Iv Jv Kv Lv Mv Nv Ov Pv Qv Rv Sv Tv Uv Vv =h Wv Xv 7} o: 1_ 1_ L< L< L< L< L< 1_ 2_ K< ao Yv Zv `v  w .w +w @w #w $w %w &w *w =w -w ;w >w ,w 'w )w !w ~w I< {w 7} `f 1_ 1_ L< L< L< L< L< L< L< L< 1_ 1_ 1_ 2_ 2_ }_ }_ 2_ 2_ 1_ 1_ 1_ L< L< L< L< L< L< L< 1_ 2_ *< ]w ^w Ym /w (w _w :w <w [w }w |w 1w 2w 3w 4w 5w 6w 7w 8w 9w 0w aw bw cw dw ew fw gw hw iw jw kw lw mw nw ow pw    ",
"qw rw sw tw uw vw ww xw yw zw Aw Bw Cw Dw Ew Fw 4}  } Gw {w 7} 2_ 1_ q: L< L< L< L< L< 1_ }_ r: 6} Hw =3 Iw +} Jw Kw Lw Mw Nw Ow Pw Qw Rw Sw Tw Uw Vw Ww Xw Yw =h W4 Zw b| &< 2_ 1_ 1_ L< L< L< L< L< L< L< L< 1_ 1_ 1_ -( -( 2_ 2_ -( 1_ 1_ q: L< L< L< L< L< L< L< q: 1_ o: [[ `w Ym  x .x ev +x @x #x $x %x &x *x =x -x ;x >x ,x 'x )x !x ~x {x ]x ^x /x (x _x :x <x [x }x |x 1x 2x 3x 4x    ",
"5x 6x 7x 8x 9x 0x ax bx cx dx ex fx gx hx ix 7v 8| jx *h J< K< -( 1_ L< L< L< L< L< L< 1_ o: kx Ci lx mx nx ox px qx rx sx tx ux vx wx xx yx zx }} Ax Bx Uf Cx Dx k: Ex `m L_ K< -( 1_ L< L< L< L< L< L< L< L< L< 1_ 1_ 1_ 1_ 1_ 1_ 1_ 1_ p: L< L< L< L< L< L< L< L< L< 1_ }_ M< Sh Fx Gx Hx Ix Jx Kx Lx Mx Nx )| Ox Px Qx Rx Sx Tx Ux Vx Wx Xx Yx Zx `x  y .y +y @y #y $y %y &y *y =y -y ;y    ",
">y ,y ,y 'y )y !y ~y {y ]y ^y /y (y _y :y <y [y }y ~f |y n: o: 1_ L< L< L< L< L< L< L< q: 1_ }_ j2 1y 2y 3y 4y 5y 6y 7y 8y 9y 0y ay g_ by cy dy ey fy gy hy iy jy ky 7f 3j ;1 ly 1_ q: L< L< L< L< L< L< L< L< L< L< L< L< L< L< L< L< L< L< L< L< L< L< L< L< L< L< L< L< q: -( ;1 my Vm ny oy py qy ry sy ty uy vy wy xy yy zy Ay By Cy Dy Ey Fy Gy Hy Iy Jy Ky Ly My Ny Oy Py Qy Ry Sy Ty    ",
"Uy Vy Wy Xy Yy Zy `y |*  z .z +z @z #z $z %z &z *z Rm =z M< `f 1_ L< L< L< L< L< L< L< q: q: -z =( Z4 f3 ;z >z ,z 'z )z !z ~z {z ]z ^z /z (z _z :z <z [z Ik n{ }z |z ml nl Y^ ;( -( q: q: L< L< L< L< L< L< L< L< L< L< L< L< L< L< L< L< L< L< L< L< L< L< L< L< L< L< L< L< q: -( %4 (m rl 1z vl 2z 3z 4z 5z 6z 7z 8z 9z 0z az bz cz dz ez fz gz hz iz jz kz lz mz nz oz pz qz Ua rz sz tz    ",
"uz vz wz xz N* nk wz F> (- ~n Gl yz zz h{ Az Bz ~m me -1 r: `f p: L< L< L< L< L< L< L< q: q: d3 %4 (m Cz Dz Ez Fz Gz Hz Iz Jz Kz Lz Mz Nz Oz Pz Qz Rz Sz Tz Uz Vz Wz g3 Xz br X^ =( -( q: q: L< L< L< L< L< L< L< L< L< L< L< L< L< L< L< L< L< L< L< L< L< L< L< L< L< L< L< q: d3 =( Yz Zz m{ `z  A .A +A @A #A $A %A &A *A =A -A ;A >A ,A 'A )A !A ~A {A ]A ^A /A (A _A 4, :A <A [A }A |A    ",
":{ 1A 2A 3A qz t$ 4A 5A 6A 7A 8A 9A 0A aA bA cA dA ol -1 r: o: 1_ L< L< L< L< L< L< L< q: q: ;( |5 <9 la eA fA gA hA iA jA kA lA mA nA oA pA qA rA sA tA uA vA f( +a wA xA  / yA Y^ ;( -( q: L< L< L< L< L< L< L< L< L< L< L< L< L< L< L< L< L< L< L< L< L< L< L< L< L< L< L< q: d3 ;( Mk zA %n 2^ AA BA CA DA EA FA GA HA IA JA KA LA MA NA OA PA QA RA SA TA UA VA WA XA YA ZA `A 2;  B .B    ",
"+B Z& 2' C~ @B #B $B R# %B &B *B =B -B ;B >B cA ,B Um +s 7} o: !f L< L< L< L< L< L< L< q: q: ;( Y4 ^6 la n{ 1~ 'B )B !B ~B {B ]B ^B /B (B _B :B <B [B }B |B 1B 2B 3B 4B 5B yn Ha Z^ Y^ =( -( q: q: L< L< L< L< L< L< L< L< L< L< L< L< L< L< L< L< L< L< L< L< L< L< L< L< L< L< q: ;( |5 f3 6B 7B 8B 9B 0B aB bB cB dB eB fB gB hB iB jB kB lB mB nB y% oB pB qB rB sB tB uB vB wB xB yB zB    ",
"+B `& AB C~ BB CB DB EB FB GB HB IB JB KB bA LB MB NB -1 7} o: 1_ L< L< L< L< L< L< L< q: q: ;( Y4 _k OB .s PB 'B QB RB SB TB UB VB WB XB YB ZB h, `B  C .C +C @C #C $C %C zn &C *C Tm *( ;( 1_ 1_ 1_ L< L< L< L< L< L< L< L< L< L< L< L< L< L< L< L< L< L< L< L< L< L< L< L< L< q: ;( Y4 T5 =C -C f( ;B ;C 0) >C ,C 'C )C !C ~C {C ]C ^C /C (C _C :C <C [C _# 68 }C |C 1C 2C 3C 4C 5C sB KA    ",
"x^ P+ 6C 7C ~- -d S/ 8C 9C 0C aC m, bC i{ ~6 `c cC |r dC 7} `f 1_ L< L< L< L< L< L< L< q: q: ;( Y4 `^ OB eC fC gC hC iC jC kC lC mC nC oC pC qC rC sC tC uC vC wC xC yC zC lb S^ 5o AC >( *( -( -( 1_ 1_ L< L< L< L< L< L< L< L< L< L< L< L< L< L< L< L< L< L< L< L< L< L< L< L< q: N6 %4 ^6  a BC CC DC EC FC GC HC IC JC KC LC MC NC OC PC QC RC SC TC UC VC WC -d XC YC ZC `C  D .D +D sm    ",
"@D #D u' $D %D &D R/ *D =D 2) -D ;D >D ,D 'D +d |z )D j2 &< o: !f L< L< L< L< L< L< L< q: q: ;( Y^ br !D ~D {D ]D ^D /D (D _D :D <D [D }D |D 1D 2D 3D 4D 5D 6D 7D 8D 9D 0D aD bD dA cD ,( ne }_ }_ 2_ 1_ L< L< L< L< L< L< L< L< L< L< L< L< L< L< L< L< L< L< L< L< L< L< L< L< q: q: =( &4 N] dD eD fD L' gD |> hD iD jD kD lD (A mD nD oD pD qD rD sD tD uD vD 0( m7 wD xD yD zD AD BD y4    ",
"CD DD ED FD GD HD ID JD KD LD MD ND OD PD QD RD SD Dt TD &< o: 1_ L< L< L< L< L< L< L< q: q: ;( Y^ ml UD VD WD XD YD ZD `D  E .E L1 +E @E #E $E %E &E *E =E -E ;E >E ,E 'E )E !E ~E {E 7m j1 j2 &< o: 2_ L< L< L< L< L< L< L< L< L< L< L< L< L< L< L< L< L< L< L< L< L< L< L< L< q: q: }5 Y4 <5 :5 5~ ]E ^E /E (E _E :E <E [E }E |E 1E 2E 3E 4E 5E 6E 7E 8E 9E Zp 0E aE bE cE dE eE fE gE hE    ",
"iE jE kE lE C4 mE 8{ nE oE pE qE rE sE PD tE 6^ SD 2y ;1 &< `f p: L< L< L< L< L< L< L< q: q: ;( X^ ml uE ~D vE wE xE yE `D  E zE AE BE CE DE EE FE GE HE IE JE KE LE ME NE OE PE QE RE up k1 3j %< SE o: q: L< L< L< L< L< L< L< L< L< L< L< L< L< L< L< L< L< L< L< L< L< L< L< L< q: N6 %4 T5 TE UE VE WE XE YE ZE `E  F .F +F @F #F $F %F &F *F =F ^= -F ;F >F &D ,F 'F eE )F 2s !F ~F {F    ",
"]F n> ^F /F (F _F :F <F [F }F |F 1F 2F 3F 4F 5F 6F 7F 8F &< 2_ q: L< L< L< L< L< L< L< q: q: ;( X^ ml 9F 0F aF bF cF dF eF fF gF hF iF jF kF lF mF nF oF pF qF rF sF tF uF vF wF xF yF zF AF BF CF DF 7} p: L< L< L< L< L< L< L< L< L< L< L< L< L< L< L< L< L< L< L< L< L< L< L< L< q: d3 =( Z4 la U7 EF FF GF HF IF JF KF LF MF NF OF PF QF RF SF TF &e p' UF VF 7c WF 8{ XF YF ZF `F  G .G    ",
"+G @G #G $G %G &G *G ]^ =G -G ;G >G ,G 'G )G !G cC ~G <_ K< {G 1_ L< L< L< L< L< L< L< q: q: -( Y^ br 6e H] 5F ]G ^G /G (G _G :G <G [G }G |G 1G 2G 3G 4G 5G 6G 8> 7G 8G 9G 0G aG bG cG dG Lq yu __ eG [[ -( q: L< L< L< L< L< L< L< L< L< L< L< L< L< L< L< L< L< L< L< L< L< L< L< q: q: ;( X^ -3 fG gG hG iG jG )c kG lG mG nG oG pG qG rG sG tG uG vG wG xG yG zG AG BG CG DG l7 EG FG GG    ",
"7C HG $G IG JG KG LG h; MG NG OG PG QG RG SG TG UG ~G ji xh {G 1_ L< L< L< L< L< L< L< L< q: -( /6 nl }o VG WG XG }t YG `3 ZG `G  H .H +H |% $e @H #H $H %H &H *H =H -H ;H >H ,H 'H )H !H ~H {H cv ]H ^H w7 q: q: L< L< L< L< L< L< L< L< L< L< L< L< L< L< L< L< L< L< L< L< L< L< L< q: -( Y^ S7 /H (H _H F8 :H <H [H N> }H |H 1H 2H 3H 4H 5H 6H 7H 8H x~ 9H f= 0H aH 1d D* bH cH dH 2, eH    ",
"*, 6, fH gH L* hH iH jH kH lH mH nH oH #a Hn pH qH li =z M< o: 1_ L< L< L< L< L< L< L< L< q: ;( /6 br rH }z WG )H sH tH uH vH wH xH yH zH AH .~ .~ BH CH t. DH EH FH GH A( HH IH v! JH KH LH MH _v NH OH rp ;( -( q: L< L< L< L< L< L< L< L< L< L< L< L< L< L< L< L< L< L< L< L< L< L< q: d3 =( S7 PH QH RH SH TH UH VH WH XH YH ZH `H  I .I +I @I #I $I %I &I *I =I -I ;I n' >I ,I ,I 'I )I    ",
"!I m$ (/ ~I )^ {I ]I ]I ^I /I (I _I :I 7q <I [I rH }I <_ vh *< 1_ L< L< L< L< L< L< L< L< q: -( =( 5j |I 1I 2I 3I 4I 5I 6I 7I 8I 9I 0I aI bI cI dI eI fI gI hI iI jI kI lI mI nI oI pI y{ qI rI sI *1 Zv ne =( ;( q: q: L< L< L< L< L< L< L< L< L< L< L< L< L< L< L< L< L< L< L< L< L< q: q: ;( [5 md %n tI uI vI wI xI yI zI .F AI BI CI DI EI FI GI HI II JI KI LI MI NI OI PI QI RI u3 SI    ",
"}A TI -^ UI VI WI XI YI ZI `I  J .J +J @J (5 #J $J %J <_ #h  g 1_ L< L< L< L< L< L< L< L< q: -( =( &J ks *J =J -J ;J >J ,J 'J )J !J ~J {J ]J ^J /J (J _J :J <J [J }J |J 1J 2J 3J 4J 5J 6J 7J 8J 9J 0J aJ my *( =( -( q: q: L< L< L< L< L< L< L< L< L< L< L< L< L< L< L< L< L< L< L< L< L< q: -( %4 y7 bJ cJ dJ eJ fJ gJ hJ iJ jJ kJ lJ mJ nJ oJ pJ rD qJ rJ sJ tJ uJ vJ wJ xJ yJ zJ AJ %r BJ    ",
"CJ DJ .b EJ FJ GJ HJ IJ JJ KJ LJ MJ NJ OJ PJ Pm Ct QJ RJ #h  g 1_ L< L< L< L< L< L< L< L< p: -( k2 >( SJ TJ UJ VJ WJ XJ YJ ZJ `J  K .K +K @K #K $K %K &K *K =K -K ;K >K ,K 'K )K !K ~K {K xi ]K +} ^K /K G_ (K _K ;( -( q: L< L< L< L< L< L< L< L< L< L< L< L< L< L< L< L< L< L< L< L< L< q: -( =( yA *7 74 3~ :K <K [K }K |K 1K 2K 3K 4K 5K 6K 7K 8K 9K 0K aK bK cK 3$ dK eK fK gK 3n hK iK    ",
"jK kK lK mK nK oK pK qK rK sK tK uK vK wK xK g| yK -< zK AK xh -( 1_ L< L< L< L< L< L< 1_ -( [_ n: M6 Xm BK CK DK EK FK GK HK IK JK KK of LK MK NK OK PK QK RK SK TK UK VK WK XK YK ZK `K  L .L +L @L #L $L Ah %L =< &< 2_ 1_ q: L< L< L< L< L< L< L< L< L< L< L< L< L< L< L< L< L< L< L< 1_ 2_ n: Ci &L *L =L -L ;L >L ,L 'L )L !L ~L {L ]L ^L /L (L _L :L <L [L }L NK |L 4+ 1L 2L 3L 4L 5L    ",
"6L 7L 8L 9L 0L aL bL cL dL eL fL gL hL iL jL kL lL Mg ]H mL 7} 2_ 1_ L< L< L< L< L< L< 1_ 2_ K< ao /g Th nL oL pL qL rL sL tL uL vL wL xL yL zL AL BL CL DL EL FL GL HL IL c> JL KL Qf LL ML NL OL PL QL RL SL ia TL UL 7} `f 1_ 1_ L< L< L< L< L< L< L< L< L< L< L< L< L< L< L< L< L< L< 1_ 2_ #h Yv VL WL Kt XL YL ZL `L  M .M +M @M #M $M %M &M *M =M -M ;M >M ,M 'M )M !M ~M {M ]M ^M /M    ",
"(M _M :M <M Jv [M }M |M 1M 2M 3M 4M 5M 6M 7M 8M 9M 0M aM bM cM o: 1_ p: L< L< L< L< 1_ 1_ 2_ K< J< OH Zv dM eM fM gM hM iM jM kM lM mM nM oM pM qM rM sM tM uM vM wM xM yM zM 6H AM BM CM 1g DM EM FM GM HM IM JM KM LM eG wh o: 1_ 1_ L< L< L< L< L< L< L< L< L< L< L< L< L< L< L< L< L< 1_ o: ]w MM NM OM PM QM RM SM TM UM VM WM XM YM ZM `M  N .N +N @N #N $N nM %N &N *N =N -N ;N >N ,N    ",
"'N )N !N ~N {N ]N ^N /N (N _N :N <N [N }N |N 1N 2N 3N 4N @h bv o: 1_ q: L< L< L< L< L< 1_ 2_ [_ n: av Zm 3N Dx 5N 6N 7N 8N 9N 0N aN bN cN dN eN fN gN hN iN jN kN lN mN nN oN pN qN rN sN tN uN vN wN xN yN zN AN BN 4e ^m d| &< 2_ 1_ L< L< L< L< L< L< L< L< L< L< L< L< L< L< L< L< L< 1_ o: d| TL =3 Og CN DN EN FN GN HN IN JN KN LN MN NN ON PN QN RN SN TN UN VN WN XN YN ZN `N  O .O    ",
"+O @O #O $O %O &O *O =O -O ;O >O ,O 'O )O !O ~O {O ]O @< ^O =< }_ 1_ q: L< L< L< L< L< L< 1_ }_ ;1 ^O /O (O _O :O <O [O }O |O 1O 2O 3O 4O 5O 6O 7O 8O 9O 0O aO bO cO dO eO fO gO hO iO jO kO lO mO nO oO pO qO rO sO /_ tO uO <_ k2 -( q: L< L< L< L< L< L< L< L< L< L< L< L< L< L< L< L< 1_ [_ uh vO ]g 8| wO xO yO zO AO BO CO DO EO FO GO HO IO JO KO LO MO NO OO PO QO RO SO TO UO VO WO    ",
"XO YO ZO `O  P .P +P @P #P $P %P &P *P =P -P ;P >P ,P }I ki TD ;( 1_ q: L< L< L< L< L< L< q: -( k2 ki 'P )P !P ~P {P ]P ^P /P (P _P :P <P [P }P |P Z@ 1P 2P 3P 4P 5P 6P 7P 8P 9P 0P aP bP cP dP eP fP gP hP qi iP jP kP lP Rm *p =( -( q: L< L< L< L< L< L< L< L< L< L< L< L< L< L< L< L< q: -( TD BF mP nP oP pP ~K qP rP sP tP uP vP wP xP yP zP AP BP CP DP EP FP GP HP IP JP KP LP MP a-    ",
"NP OP PP QP RP }] SP TP UP VP WP XP R' YP ZP `P ms m2  l Lk ,2 ;( p: q: L< L< L< L< L< L< q: q: =( >(  Q AF .Q dG +Q @Q #Q $Q %Q &Q *Q =Q -Q ;Q >Q ,Q 'Q )Q !Q ~Q {Q ]Q ^Q /Q 8d (Q _Q :Q <Q 1- [Q }Q |Q 1Q 2Q 3Q 4Q 5Q .Q 6Q l2 Z4 =( N6 q: q: L< L< L< L< L< L< L< L< L< L< L< L< L< L< q: -( ne 7Q pe !P 8Q 9Q 0Q aQ bQ cQ dQ eQ fQ gQ hQ iQ jQ kQ lQ mQ (J nQ oQ S( 0P pQ qQ (, rQ T1 sQ    ",
"tQ uQ vQ wQ cE xQ yQ zQ AQ BQ CQ DQ EQ ;D K' -! 6~ /k la (m =( N6 q: q: L< L< L< L< L< L< q: q: ;( Y4 ^6 =C +d <c FQ GQ HQ IQ JQ KQ M= LQ MQ NQ OQ PQ QQ RQ m7 SQ TQ UQ I; VQ WQ XQ YQ ZQ _- `Q WH  R .R z] +R @R #R a~ $R %R e/ #p (6 %4 N6 q: q: L< L< L< L< L< L< L< L< L< L< L< L< L< q: -( &R =p f/ *R =R -R tA ;R >R ,R 'R LF )R !R ~R {R ]R ^R /R /R (R _R :R <R [R }R |R 1R 2R 3R 4R    ",
"[A g5 5R 6R 7R 8R 9R ;A 0R aR bR cR dR eR fR '] gR hR Bp ^6 Y4 ;( q: q: L< L< L< L< L< L< q: q: }5 Y4 T5 TE iR jR kR lR mR nR oR pR qR 3u rR h% sR tR uR 7n vR wR xR yR `2 #B xR zR AR ]b ^b BR CR DR ER FR GR HR Ma IR JR KR LR MR NR &4 %4 -( q: q: L< L< L< L< L< L< L< L< L< L< L< L< q: =( W^ J] OR Q7 PR QR RR SR `7 TR UR g; VR WR XR YR ZR `R  S .S +S @S +m ~R gm gm #S $S %S &S *S    ",
"Jb =S -S ;S >S ,S 'S TA )S !S ~S hD {S }K ]S ^S VE /S (S _S x7 =( d3 q: L< L< L< L< L< L< q: q: ;( Y4 T5 TE :S <S kR [S }S |S oR 1S 2S 3S 4S 5S 4' 6S 7S 8S s& 9S o] 0S aS 0S #G bS cS dS eS fS gS hS iS =0 jS  C kS lS 0m mS nS oS MR M] &4 %4 ;( d3 q: L< L< L< L< L< L< L< L< L< L< q: -( Y4 br ./ pS Dd /5 qS rS sS tS uS vS wS xS yS zS AS BS CS DS CS ZR y4 y4 $8 ES WR !R FS GS FS #o    ",
"=l `b HS IS JS KS 68 LS MS NS .] OS PS QS RS SS TS /S US #p g8 %4 N6 q: q: L< L< L< L< L< q: N6 /6 c3 VS e/ iR WS XS YS ZS `S  T .T +T @T #T $T 4] %T U= &T *T =T -T ;T >T ,T 80 FS 9( 'T )T a6 !T ~T {T ]T 3> ^T /T (T _T :T <T [T }T nd la T5 Y4 =( N6 q: q: q: L< L< L< L< q: L< q: -( $4 Hd M] |T 1T 2T 3T 4T 5T 6T 7T 8T 9T 0T aT bT cT dT eT fT gT x6 9R hT hT iT jT kT lT mT L8 nT oT    ",
"pT p& qT rT sT tT uT vT wT xT (b yT zT AT BT CT DT ET Dn _t ^6 [5 =( d3 q: L< L< L< L< L< q: N6 %4 Z4 M] ,k `c WS FT ]! GT HT IT JT KT LT MT NT Dr OT PT QT RT ST TT UT VT WT XT YT %m Ar ZT U- `T  U .U }G +U @U #U $U P' 7q }~ %U j9 vs fG J] `^ c3 %4 ;( -( d3 q: q: 1_ 2_ 2_ -( -( /6 _0 &U h9 iR [t *U =U -U ;U >U ,U 'U <- )U !U ~U {U ]U '- 9E ^U /U (U _F _U :U <U [U }U |U 1U 2U 3U    ",
"4U 5U 6U .9 7U 8U 9U 0U aU .' bU JF Jn cU dU eU ,n fU Cn =C .0 Z4 %4 ;( q: q: L< L< L< q: q: ;( %4 &4 G0 gU hU E] iU jU kU lU mU nU oU pU qU rU Dr sU tU uU vU wU xU yU vU zU AU BU CU DU EU w^ ]{ FU GU HU IU JU @U KU $U LU MU NU %U OU PU P] QU L] W^ X^ %4 =( ;( ;( o: 7} r: k2 *( RU SU TU UU !G VU WU XU YU ZU `U  V .V +V @V #V $V %V &V Sl rr *V =V -V ;V >V ,V 'V )V => !V ~V {V ]V    ",
"^V /V (V _V :V D5 <V [V .G }V |V 1V 2V 3V 4V 5V 6V 7V P6 Yk Zk T5 e3 =( N6 q: q: L< L< q: q: ;( Y4 T5 OB 8V 9V ]G 0V aV bV cV dV eV fV gV hV iV 8- H, gk x^ ]{ jV kV lV mV nV oV pV qV 5# rV sV tV uV Z{ vV wV xV yV sC zV AV BV CV ]G DV EV Kd FV xA U^ Ha br l( c3 ne i1 GV m: ki V^ HV IV JV Ja KV !6 LV MV NV @c OV PV QV RV SV TV UV VV ^l WV XV Nn YV ZV `V  W .W +W D4 @W #W $W L4 %W    ",
"&W *W =W -W +W ;W >W ,W 'W )W !W ~W {W ]W ^W /W 'n (W gR _W bJ zA Z4 %4 ;( d3 q: L< L< q: d3 =( [5 `^ -7 ;7 j9 w{ :W <W [W }W |W 1W 2W 3W 4W 5W y^ 6W 7W 8W 9W 0W S& aW bW cW dW dW H; eW fW gW w^ U& hW iW jW kW B' lW mW ^T nW oW YP pW qW `0 hU Fa rW sW yn QU tW uW #| vW *h 7F |I wW xW yW 93 zW @J +J 3c AW BW CW DW EW FW 9a X) GW _U (U 'V HW IW JW KW !F LW MW (F @W NW OW {R PW F*    ",
"QW RW SW RW TW UW VW WW XW `, YW ZW `W  X .X +X @X #X >! $X %X  a y7 [5 =( N6 q: L< L< q: -( %4 x7 M] Ia An &X JR QR *X fd =X -X ;X >X ,X 'X )X !X }C ~X {X ]X ^X /X (X _X :X <X [X }X |X >d 1X 2X 3X 4X 5X 6X 7X  3 Y3 K~ 8X 9X 0X aX bX cX dX eX ^0 fX gX Ed .n g/ hX iX jX dM kX lX mX nX oX 'E pX qX #c rX sX tX uX vX wX xX W* yX Zb zX AX BX CX DX EX FX GX HX IX @b JX KX LX MX jo NX    ",
"OX PX QX QX RX 7a SX oG TX b{ UX VX WX XX YX ZX `X K'  Y }m $n .a la T5 X^ =( N6 q: q: d3 =( c3 `^ _t .Y !G ~k +Y @Y #Y :1 $Y %Y &Y *Y =Y -Y ;Y 5! -> >Y ,Y 'Y )Y !Y ~Y {Y {Y 'Y ]Y v3 ^Y /Y b= (Y _Y 5! 7, $D :Y ^- K8 <Y [Y }Y |Y 1Y 2Y 3Y 4Y 5Y 6Y !k Az Zc 7Y is 8Y 9Y 0Y aY bY cY dY eY fY gY hY iY t, jY IU kY lY mY nY oY pY r~ #G qY rY  o sY tY uY vY vY wY c; xY )R yY zY AY BY CY    ",
"5a DY g7 g7 v6 h7 ]U Mn EY FY GY HY IY JY KY LY MY NY OY PY tI t{ :5 5b `^ c3 %4 =( ;( =( [5 T5 zA H0 UE KV QY RY SY TY UY VY WY XY YY =Y ZY `Y 8,  Z YR _Y lD .Z +Z @Z #Z qY $Z %Z &Z *Z =Z -Z !# ;Z =Z >Z {$ ,Z 'Z )Z !Z ~Z {Z ]Z ^Z /Z (Z _Z :Z <Z [Z }Z |Z 1Z ]1 oP 2Z 3Z 4Z 5Z 6Z 7Z 8Z 9Z 0Z aZ j, bZ cZ dZ eZ fZ gZ xR hZ iZ jZ kZ lZ mZ 1l nZ !I <A @b oZ <A )~ !V lZ EG mZ pZ pZ FG    ",
"qZ rZ sZ tZ uZ {l vZ wZ xZ yZ zZ AZ BZ {4 CZ &' DZ EZ FZ GZ HZ tI Cn q{ TE G0 R7 ^6 &4 (m <5 Jc &n $n IZ JZ KZ sb LZ MZ NZ OZ PZ QZ RZ SZ TZ b, WC UZ VZ WZ xB XZ YZ yB |C ZZ `Z  ` .` +` @` E3 #` $` !# %` @m &` *` =` -` ;` >` ,` '` )` !` ~` {` ]` ^` /` (` _` w( :` <` [` }` |` 1` 2` 3` 4` 5` 6` >R 7` 8` I> r9 9` uq 0` a` b` c` h6 d` e` f` g` g` h` /n i` AJ j` 9E k` k` k` l` *r ur    ",
"m` n` o` p` q` r` s` t` u` v` w` x` y` z` A` B` C` D` E` F` G` H` I` J` ma K` 5b zA .0 .0 L` M` N` O` P` Q` R` S` T` U` V` W` X` Y` Z` ``   .. .+ .@ .>r # .$ .% .& . @ * .= .- .; .> ., .' .2{ ) .! .~ .{ .yR ] .5A ^ .^ ./ .n7 ( ._ .{T : .< .[ .} .| .1 .2 .3 .4 .5 .6 .7 .8 .9 .0 .a .b .c .d .e .+c Cs f .g .;a vz hk i& h$ h .i .j .k .l .m .n .Gs o .p ./s (n lm q .r .s .t .f5 -W u .   ",
"Yn v .oZ w .58 x .!- A2 y .z .A .B .C .D .E .F .G .H .:~ MU I .j{ J .K .N` U7 .Y .a Ia nd L .M .N .)m O .P .Q .R .yd S .T .U .V .W .X .Y .Z .` . .....+..@..#..$..%..&..$..*..=..-..;..>..,..'..)..!..~..{..]..^../..(.._..:..<..[..}..|..1..2..3..4..5..6.._( 7..8..9..0..a..b..c..d..e..f..g..h..i..j..U@ k..X3 l..CJ m..n..0c o..p..q..r..s..t..u..v..yJ w..x..OI 1l ;> y..nZ z..w .A..'Z    ",
"B..C..D..E..F..G..H..I..J..K..L..M..N..O..P..Q..R..S..T..U..V..W..X..ej Y..fj le Z..`.. +..+.++.@+.#+.$+.%+.&+.*+.=+.-+.;+.>+.,+.'+.)+.!+.~+.{+.]+.^+./+.mK (+._+.:+.<+.[+.}+.|+.1+.2+.3+.4+.5+.6+.7+.8+.9+.0+.a+.b+.c+.d+.e+.f+.g+.h+.i+.j+.k+.l+.m+.n+.o+.p+.q+.r+.s+.t+.u+.v+.w+.x+.y+.z+.A+.B+.C+.D+.E+.F+.G+.H+.I+.J+.K+.L+.M+.N+.O+.P+.Q+.R+.S+.T+.U+.V+.W+.X+.Y+.Z+.`+. @..@.+@.@@.#@.   ",
"$@.%@.%@.&@.*@.=@.-@.;@.>@.,@.'@.)@.!@.~@.{@.]@.^@./@.(@._@.:@.<@.[@.}@.|@.1@.8^ 1@.2@.3@.4@.5@.6@.7@.8@.9@.0@.a@.b@.c@.d@.e@.f@.g@.h@.i@.j@.@: k@.l@.m@.n@.o@.p@.q@.r@.s@.t@.u@.}< v@.w@.x@.y@.z@.A@.B@.C@.D@.E@.^N F@.G@.H@.=. I@.J@.K@.L@.L@.M@.N@.O@.P@.Q@.R@.S@.T@.U@.V@.W@.X@.Y@.Z@.`@. #..#.+#.@#.##.$#.%#.&#.*#.=#.-#.c  H: ;#.>#.%v L: ,#.'#.)#.!#.~#.{#.]#.^#./#.(#._#.:#.<#.[#.}#.   ",
"|#.1#.2#.3#.4#.5#.6#.S} J[ 7#.8#.9#.0#.a#.b#.c#.d#.e#.f#.g#.9@.h#.i#.j#.k#.l#.m#.k#.j#.n#.o#.p#.q#.r#.s#.t#.u#.v#.w#.x#.y#.z#.A#.B#.C#.D#.E#.F#.G#.H#.I#.J#.K#.L#.M#.N#.O#.P#.Q#.R#.*F S#.T#.U#.V#.W#.X#.Y#.<L Z#.`#. $..$.+$.@$.#$.$$.%$.&$.*$.=$.-$.;$.>$.,$.'$.)$.!$.~$.{$.]$.^$./$.($._$.:$.<$.[$.}$./N |$.1$.2$.3$.4$.5$.6$.7$.8$.9$.B@ 0$.a$.b$.c$.d$.e$.f$.g$.h$.i$.j$.k$.l$.m$.n$.o$.   ",
"p$.q$.r$.s$.t$.u$.v$.w$.x$.y$.z$.j* A$.B$.C$.D$.E$.F$.G$.H$.I$.J$.K$.L$.M$.N$.Dw O$.P$.Q$.R$.S$.T$.U$.V$.W$.X$.Y$.Z$.`$. %..%.+%.@%.+%.#%.$%.%%.&%.*%.=%.-%.;%.>%.,%.'%.)%.!%.~%.{%.]%.^%./%.(%._%.:%.<%.[%.}%.|%.1%.2%.3%.4%.5%.6%.7%.8%.9%.0%.a%.b%.c%.d%. %.e%.f%.g%.h%.i%.j%.k%.l%.m%.n%.o%.p%.q%.r%.s%.t%.u%.v%.w%.x%.y%.z%.A%.B%.C%.D%.E%.F%.G%.H%.hN I%.J%.K%.L%.M%.N%.O%.P%.Q%.R%.S%.   ",
"T%.U%.V%.W%.X%.Y%.Z%.`%. &..&.hN +&.@&.#&.$&.%&.&&.*&.=&.-&.;&.>&.,&.'&.)&.!&.~&.{&.]&.^&./&.(&._&.:&.<&.[&.}&.Kv |&.1&.2&.3&.4&.5&.6&.7&.8&.9&.0&.a&.b&.c&.d&.e&.f&.g&.h&.i&.j&.k&.l&.m&.n&.o&.p&.q&.r&.s&.B#.t&.u&.v&.w&.x&.y&.t$.z&.A&.B&.C&.D&.E&.F&.G&.H&.3&.I&.J&.K&.L&.M&.N&.O&.P&.}L Q&.R&.S&.T&.U&.V&.W&.X&.Y&.Z&.@&.^N `&. *..*.+*.@*.#*.$*.%*.&*.**.=*.-*.;*.>*.,*.'*.)*.!*.~*.{*.   ",
"]*.^*./: -: /*.(*._*.:*.<*.[*.z} pv }*.|*.1*.2*.3*.4*.5*.6*.7*.8*.9*.0*.a*.b*.c*.d*.e*.f*.g*.h*.i*.j*.k*.9#.l*.m*.n*.o*.p*.q*.r*.s*.t*.u*.v*.w*.x*.y*.z*.A*.B*.C*.D*.E*.F*.G*.H*.I*.J*.K*.L*.M*.N*.O*.P*.Q*.R*.S*.T*.U*.V*.W*.X*.Y*.Z*.`*. =..=.+=.@=.#=.$=.%=.&=.*=.==.$i -=.;=.>=.,=.'=.)=.!=.~=.{=.]=.^=./=.(=._=.:=.<=.[=.}=.|=.1=.2=.3=.4=.5=.6=.7=.8=.9=.0=.a=.b=.c=.d=.e=.f=.g=.h=.i=.   ",
"(; j=.x^ k=.l=.m=.n=.o=.p=.q=.r=.s=.t=.u=.v=.w=.x=.y=.z=.A=.B=.C=.D=.E=.F=.G=.H=.I=.J=.K=.L=.M=.N=.O=.P=.Q=.Q=.R=.S=.T=.U=.V=.W=.X=.Y=.Z=.Lo `=. -..-.+-.@-.#-.$-.%-.&-.*-.g% =-.--.;-.>-.,-.'-.)-.!-.~-.{-.]-.^-./-.(-._-.:-.<-.[-.}-.(X q% |-.1-.2-.3-.4-.5-.6-.Yj 7-.8-.9-.0-.a-.b-.c-.d-.&e 8s e-.f-.g-.h-.i-.j-.k-.l-.m-.n-.i-.5-.o-.p-.q-.r-.s-.t-.u-.v-.w-.x-.y-.z-.A-.B-.C-.D-.E-.F-.   ",
"G-.H-.I-.J-.u~ K-.6; L-.M-.N-.O-.P-.Q-.R-.S-.T-.U-.V-.W-.X-.Y-.Z-.`-. ;..;.+;.@;.#;.^e $;.%;.&;.*;.=;.-;.;;.>;.C. ,;.';.);.!;.}D ~;.{;.];.^;./;.(;._;.&o 0n 3R OQ :;.WT <;.[;.};.|;.1;.2;.3;.4;.5;.6;.7;.8;.9;.0;.a;.b;.c;.d;.QQ sr e;.f;.g;.h;.i;.j;.k;.l;.m;.n;.o;.p;.q;.r;.s;.t;.u;.v;.w;.x;.$~ y;.z;.A;.B;.C;.D;.E;.F;.fQ G;.H;.I;.J;.K;.L;.M;.N;.|P 2U u] b* 7C 6n ]$ O;.P;.Q;.~- F> xS    ",
"R;.S;.T;.U;.V;.W;.X;.Y;.*# Z;.`;. >..>.+>.@>.#>.$>.%>.&>.*>.=>.->.;>.>>.,>.'>.F;.)>.!>.~>.{>.]>.^>./>.(>._>.:>.<>.[>.pV }>.J; T# I; |>.NF (R 1>.2>.;T 3>.4>.5>.6>.7>.8>.9>.0>.a>.b>.c>.d>.e>.f>.g>.h>.i>.j>.k>.l>.m>.n>.o>.|, p>.q>.r>.^V s>.t>.u>.v>.w>.x>.S2 y>.z>.A>.B>.C>.D>.E>.F>.G>.H>.I>.J>.K>.L>.M>.};.N>.,, O>.P>.Q>.R>.S>.T>.U>.V>.W>.X>.Y>.Z>.u0 `>. ,._U ec .,.+,.@,.#,.'S $,.(F    ",
"%,.&,.*,.=,.aW -,.;,.IG }# >,.,,.',.),.!,.0% e# ~,.{,.],.^,./,.(,._,.X# :,.<,.[,.},.KY |,.1,.2,.3,.4,.5,.6,.7,.8,.8,.9,.0,.a,.b,.@8 c,.d,.)- BS ]U ^U e,.u4 f,.g,.h,.i,.2s j,.D4 k,.B# l,.m,.n,.o,.p,.q,.r,.s,.t,.u,.5n v,.^a .9 s$ w,.x,.y,.z,.A,.B,.C,.D,.E,.F,.G,.H,.I,.J,.K,.L,.M,.N,.O,.P,.Q,.R,.S,.T,.U,.V,.W,.X,.Y,.Z,.`,. '..'.s/ +'.@'.#'.NK s- b; $'.%'.&'.*'.='.YT -'.;'.>'.,'.''.   ",
")'.!'.~'.{'.]'.3{ ^'.7C /'.('._'.:'.|] <'.['.}'.|'.1'.2'.3'.4'.5'.6'.7'.8'.9'.0'.a'.b'.c'.d'.e'.pz f'.g'.h'.i'.j'.k'.l'.m'.n'.o'.p'.q'.0; x .r'.YR qT s'.;& HW t'.u'.v'.'V w'.o> j,.p> x'.y'.z'.A'.B'.C'.D'.E'.F'.G'.H'.I'.J'.K'.L'.M'.N'.O'.P'.Q'.R'.S'.T'.U'.V'.W'.X'.Y'.Z'.`'. )..).+).@).#).$).%).&).*).{- qz =).-).;).>).,).').)).!).W: ~).{).]).^)./).)8 ()._).:).<).[).I; }).9W '$ G'.   ",
"|).1).0d f- 2).3).!{ 4).5).6).7).8)..+ 9).0).a).b).x=.c).ow d).e).f).g).h).i).j).k).l).m).n).o).p).q).r).s).t).u).v).w).m'.x).y).z).A).B).8@ vY c,.<A C).9{ [U D).D).[/ E).F).[/ G).H).I).J).K).L).M).N).O).P).Q).R).S).T).U).Yl V).W).X).Y).Z).`). !..!.+!.@!.#!.$!.J).%!.&!.*!.=!.-!.;!.O,.>!.,!.'!.)!.uz !!.l4 ~!.{!.]!.^!./!.Y,.(!._!.:!.<!.[!.l} }!.!^ |!.1!.2!.3!.4!..~ 5!.3H 6!.g- 7!.   ",
"8!.KG Q{ 9!.zr 0!.vD a!.z$ >d b!.c!.d!.e!.f!.g!.e@ h!.i!.j!.k!.l!.m!.n!.o!.Db p!.q!.r!.j; s!.t!.#, u!.v!.g! w!.x!.y!.z!.Y, D).A!.B!.C!.k'.o= C!.[/ g5 D!.E!.F!.G!.G!.H!.H!.%* I!.J!.K!.L!.M!.N!.O!.P!.Q!.R!.S!.T!.U!.wJ 0, t' Z= J; V!.W!.X!.Y!.Z!.(3 `!. ~..~.q& +~.^% @~.#~.$~.2U lD %~.&~.*~.=~.-~.4A ;~.>~.E~ X+ ,~.'~.)~.!~.~~.{~.]~.^~./~.(~._~.:~.<~.%& u$ [~.}~.|~.)$ 1~.Dm 9!.|C $B    ",
"IG D$ 2~.3~.3~.4~.8, 5~.6~.7~.x^ 1' Z! = .f!.8~.9~.0~.a~.b~.c~.d~.~r e~.f~.g~.Xa h~.i~.j~.k~.l~.%m T{ =).m~.w$ %^ :d n~.yX o~.p~.q~.r~.s~.t~.Yn u~.v~.D!.w~.1n 0, gH w' L* G!.1n x~.y~.]b z~.A~.B~.C~.D~.E~.p_ E; F~.eH ;Z G~.H~.I~.J~.K~.L~.M~.N~.O~.P~.Q~.R~.^4 S~.T~.hZ U~.V~.W~.X~.Y~.Z~.`~. {.PW vc yr .{.B% +{.@{.#{.${.%{.~~.&{.*{.h< ={.-{.9$.;{.uU l~.>{.,{.'{.){.!{.~{.)$ Q{ S{ {{.   ",
"]{.OI ^{./{.({._{.>> x' :{.<{.[{.}{.|{.1{.2{.3{.4{.5{.6{.7{.8{.9{.0{.a{.b{.c{.b] d{.e{.f{.g{.cW h{.G; i{.j{.J$ k{.!V l{.m{.n{.o{.p{.OW q{.r{..B 6t #!.{b @m V3 E3 E3 s{.t{.u{.0l v{.BU w{._A x{.y{.z{.A{.B{.C{.IG D{.E{.F{.G{.H{.Xb I{.,8 UV .9 J{.=` _X K{.L{.M{.N{.9# O{.P{.Q{.R{.S{.x>.T{.U{.V{.W{.X{.p% Y{.Z{.e-.`{. ]..].E~ ]> +].@].#].$].%].&].*].=].h{.-].;].K2 >].,].~U '].t> ='.,].   ",
")].!].~].{].T% j= ]].Wa d{.I~.|C ^].s) qV U- /'./].(]._].:].<].[].7- }].|].1].2].3].4].5].6].7].8].J/ .{.9].0].D$ ]% a].b].hT 48 c].d].e].NW f].>- g].h].)~ i].D% D% EG j].k].>'.l].XQ p= O;.m].n].z%.o].p].q].r].9l tc s].t].u].v].w].R2 x].y].z].zY =- A].B].C].wU D].2].E].3].F].G].H].I].J].K].L].|{ |{ M].Y{.O; N].3{ $e O].f] P].Q].R].S].T].U].V].W].X].3H N; Y].qY Z].qY qY j].)R qY    ",
"Yl [; `]. ^.j= (* $^ @D .^.d{.m7 S{ =- %~ {>.[% q~ +^.@^.#^.$^.%^.U& &^.4; *^.Q) wU J].=^.-^.;^.o>.v^ >^.h] ,^.5~.'^.)^.!^.hT 48 c].~^.{^.,V +9 ]^.B!.^^.!^./^.(^.JX z~.FS xU _^.:^.<^.[^./& }^.|^.1^.2^.3^./u Q/ BD `C 4^.5^.6^.]A 7^.8^.WT VT WT 9^.0^.a^.b^.gB W~.YT c^.G'.v{.G].KA d^.e^.f^.g^.-,.4!.h^.M].i^.i^.M].j^.#@ O].k^.l^.m^.n^.o^.p^.q^.r^.s^.a^.t^.>'.u^.`A v^.G].w^.~V qY wU    ",
"w .U).x^.y^.z^.A^.B^.%, HG v' a! xr C^.D^.E^.F^.G^.H^.I^.J^.K^.L^.M^.4A a, IG aS N^.y6 S~.O^.P^.Q^.v' R^.S^.2X T^.UA J).)- U^.&'.V^.W^.c].@W X^.Y^.Z^.`^.~p  /._F a].|U )R JG ;,.{{.Wa ./.U% m7 +/.@/.#/.$/.%/.S,.&/.*/.=/.|R -/.M4 AU z6 .D z6 AU ;/.>/.,/.'/.)/.`A v{.!/.~/.P) b^.KA {/.]/.F, ^/.|# //.(/._/.:/.]>.</.[/.}/.W).|/.1/.Q>.2/.3/.4/.5/.6/.7/.8/.9/.0/.a/.e^.G].b/.c/.W~.G].KC    ",
"d/.n~.x^._d e/.f/.B^.D^.xr xr xr D^.v' HG !S g/.zR h/.i/.j/.k/.k_ l/.7C m/.n/.o/.p/.dH zY q/.8S P^.xr r/.s/.t/.$D %* u/.v/.w/.^a {^.W^.^a e].'F x/.y/.y!.z/.A/.;& B/.'].T~.C/.;'.5t 0E D/.E/.F/.G/.H/.I/.J/.K/.=S L/.M/.M/.N/.O/.P2 uU ^/.sR P/.<~.N) Q/.!{ R/.S/.G].>'.!/.~/.T/.b^.b/.vU AU z6 U/.z/ V/.:/.]>.V/.W/.V/.X/.=@ Y/.Z/.7= Q>.`/. (.4/..(.+(.*I |~.@(.'9 #(.g^.sB b/.$(.W~.wU sB    ",
"<U Jb x^._d 4n f/.%(.xr &(.C^.*(.=(.-(.;(.>(.,(.{~ h/.'(.)(.!(.~(.{(.*(.a! 6' j].](.^(.H~./(.((.n/._(.3n :(.<(.)> 6, *I _).Xl :U mr W^.[(.;F 'F q~.zo 9c }(.'~ |(.yS  B #G O^.!/.I~.v' 1(.2(.I> 3(.z#.I/.4(.5(.58 6(.7(.8(.VT 9(.P) uU 0(.Y= *^.<~.-'.8W I; a(.uD ZA >'.!/.~/.T/.b^.f^.KC KA KA b(.s) c(.</.V/.pV ]{ //.u- d(.e(.Db f(.g(.h(.i(.j(.k(.l(.m(.~/.n(.o(.kD b^.p(.b/.sB sB W~.KA    "};
