/* XPM */
static char * South_xpm[] = {
"128 128 11021 3",
"   	c None",
".  	c #BCA3A7",
"+  	c #AA9195",
"@  	c #AF979B",
"#  	c #B7A0A3",
"$  	c #A0888B",
"%  	c #A79093",
"&  	c #AD989B",
"*  	c #9C9294",
"=  	c #A0999A",
"-  	c #958F90",
";  	c #8B8485",
">  	c #897E82",
",  	c #97858B",
"'  	c #AA9198",
")  	c #B0969B",
"!  	c #A4908E",
"~  	c #A79290",
"{  	c #A28D8B",
"]  	c #A69290",
"^  	c #A48F8E",
"/  	c #A5908E",
"(  	c #937A7B",
"_  	c #9B7C80",
":  	c #9E8484",
"<  	c #917A79",
"[  	c #7D6565",
"}  	c #B89D9C",
"|  	c #C0A6A4",
"1  	c #C4ABA9",
"2  	c #C4ADAA",
"3  	c #BCA7A4",
"4  	c #BAA6A3",
"5  	c #B9A29E",
"6  	c #B89F99",
"7  	c #B89D96",
"8  	c #B99D96",
"9  	c #B89C95",
"0  	c #B69A93",
"a  	c #BEA29C",
"b  	c #B29790",
"c  	c #BFA7A0",
"d  	c #BDA59D",
"e  	c #BBA39B",
"f  	c #C5ADA5",
"g  	c #BBA49C",
"h  	c #AF978F",
"i  	c #AD958D",
"j  	c #BDA19C",
"k  	c #B1928F",
"l  	c #A58582",
"m  	c #A1827F",
"n  	c #A28380",
"o  	c #A68784",
"p  	c #AC8D8A",
"q  	c #AD8E8B",
"r  	c #B39694",
"s  	c #B19795",
"t  	c #AF9494",
"u  	c #B59A99",
"v  	c #BFA4A3",
"w  	c #C0A6A5",
"x  	c #AA8F8E",
"y  	c #B79D9F",
"z  	c #B09298",
"A  	c #A5878D",
"B  	c #96797B",
"C  	c #8C7272",
"D  	c #8B7978",
"E  	c #847E7C",
"F  	c #747573",
"G  	c #7A7E7D",
"H  	c #888889",
"I  	c #8D8081",
"J  	c #A58E8B",
"K  	c #B1A098",
"L  	c #B7AEA4",
"M  	c #B6ABA1",
"N  	c #B1A0A0",
"O  	c #C0B0B2",
"P  	c #C5B3B5",
"Q  	c #C0ADAE",
"R  	c #C4B0B0",
"S  	c #C8B5B4",
"T  	c #C8B3B1",
"U  	c #C7B2B1",
"V  	c #C3ADAC",
"W  	c #C3AAAE",
"X  	c #B0979B",
"Y  	c #B79EA2",
"Z  	c #BFA7AB",
"`  	c #A99093",
" . 	c #B1989B",
".. 	c #B7A1A3",
"+. 	c #A59B9E",
"@. 	c #A9A2A3",
"#. 	c #9E999A",
"$. 	c #948C8E",
"%. 	c #92878A",
"&. 	c #A28F94",
"*. 	c #B59AA2",
"=. 	c #BBA0A6",
"-. 	c #AF9998",
";. 	c #B19B99",
">. 	c #AB9694",
",. 	c #B19B9A",
"'. 	c #AD9796",
"). 	c #AF9997",
"!. 	c #9B8182",
"~. 	c #A38386",
"{. 	c #A68A8A",
"]. 	c #987F7E",
"^. 	c #836969",
"/. 	c #A88F95",
"(. 	c #AE9BA4",
"_. 	c #969099",
":. 	c #7E838D",
"<. 	c #83808D",
"[. 	c #8D8590",
"}. 	c #8C8289",
"|. 	c #8C7E7E",
"1. 	c #877878",
"2. 	c #887878",
"3. 	c #988889",
"4. 	c #988B8E",
"5. 	c #9C9095",
"6. 	c #9E9297",
"7. 	c #AB9DA2",
"8. 	c #AB9DA3",
"9. 	c #A9989E",
"0. 	c #A7969C",
"a. 	c #A7959B",
"b. 	c #A8969B",
"c. 	c #A9979C",
"d. 	c #AA989D",
"e. 	c #8E7C81",
"f. 	c #A49297",
"g. 	c #AB999E",
"h. 	c #C2ADAF",
"i. 	c #C1ABAD",
"j. 	c #B6A3A4",
"k. 	c #C1AEAE",
"l. 	c #B8A6A6",
"m. 	c #BAA9A9",
"n. 	c #C1B1B0",
"o. 	c #BBABA9",
"p. 	c #B2A4A0",
"q. 	c #B1A29D",
"r. 	c #B09F9A",
"s. 	c #AD9A96",
"t. 	c #B39C9A",
"u. 	c #B39A99",
"v. 	c #AE9493",
"w. 	c #956565",
"x. 	c #A07070",
"y. 	c #A67878",
"z. 	c #A27675",
"A. 	c #A47978",
"B. 	c #A27876",
"C. 	c #A17471",
"D. 	c #9D6E69",
"E. 	c #986862",
"F. 	c #92635D",
"G. 	c #8D5E59",
"H. 	c #8A5B56",
"I. 	c #8C5E58",
"J. 	c #895A55",
"K. 	c #865B56",
"L. 	c #825752",
"M. 	c #7C524C",
"N. 	c #865B55",
"O. 	c #815650",
"P. 	c #885C56",
"Q. 	c #875A55",
"R. 	c #8B5B59",
"S. 	c #8D5C59",
"T. 	c #8F5E5B",
"U. 	c #92615E",
"V. 	c #946361",
"W. 	c #976663",
"X. 	c #986765",
"Y. 	c #906160",
"Z. 	c #936463",
"`. 	c #966665",
" + 	c #996A69",
".+ 	c #9C6C6B",
"++ 	c #7D4E4E",
"@+ 	c #906364",
"#+ 	c #926768",
"$+ 	c #885D5D",
"%+ 	c #845B5A",
"&+ 	c #876462",
"*+ 	c #866C6C",
"=+ 	c #817778",
"-+ 	c #918E90",
";+ 	c #98989A",
">+ 	c #A18F90",
",+ 	c #987879",
"'+ 	c #966A68",
")+ 	c #916964",
"!+ 	c #805F58",
"~+ 	c #83605A",
"{+ 	c #8C6462",
"]+ 	c #8C6661",
"^+ 	c #845E5A",
"/+ 	c #7F5954",
"(+ 	c #7D5752",
"_+ 	c #7F5851",
":+ 	c #845B54",
"<+ 	c #7E554F",
"[+ 	c #78504B",
"}+ 	c #764C48",
"|+ 	c #744C47",
"1+ 	c #79524D",
"2+ 	c #7A514C",
"3+ 	c #714944",
"4+ 	c #78514C",
"5+ 	c #6A4945",
"6+ 	c #73544F",
"7+ 	c #7A5C58",
"8+ 	c #83655F",
"9+ 	c #7F605A",
"0+ 	c #785451",
"a+ 	c #76504E",
"b+ 	c #744D4C",
"c+ 	c #6B4847",
"d+ 	c #62403F",
"e+ 	c #634040",
"f+ 	c #6D4948",
"g+ 	c #765150",
"h+ 	c #7B5655",
"i+ 	c #7D5656",
"j+ 	c #7E5758",
"k+ 	c #765453",
"l+ 	c #7B5A57",
"m+ 	c #7E5B59",
"n+ 	c #826164",
"o+ 	c #A0868C",
"p+ 	c #A3959B",
"q+ 	c #94929A",
"r+ 	c #A29DA6",
"s+ 	c #A99FA6",
"t+ 	c #9F9093",
"u+ 	c #9B8382",
"v+ 	c #9C8180",
"w+ 	c #A28482",
"x+ 	c #957575",
"y+ 	c #8D6B6A",
"z+ 	c #8B6965",
"A+ 	c #8E6B68",
"B+ 	c #8D6765",
"C+ 	c #8C6564",
"D+ 	c #845D5C",
"E+ 	c #825A5A",
"F+ 	c #805757",
"G+ 	c #7B5351",
"H+ 	c #7D5552",
"I+ 	c #825956",
"J+ 	c #78504E",
"K+ 	c #784D4A",
"L+ 	c #825A58",
"M+ 	c #7A524F",
"N+ 	c #865D5F",
"O+ 	c #7A5355",
"P+ 	c #7D5657",
"Q+ 	c #7E595A",
"R+ 	c #8F696A",
"S+ 	c #846161",
"T+ 	c #856262",
"U+ 	c #886565",
"V+ 	c #8A6665",
"W+ 	c #84605F",
"X+ 	c #835B5B",
"Y+ 	c #8B6062",
"Z+ 	c #855A5B",
"`+ 	c #885A5C",
" @ 	c #935C5D",
".@ 	c #9B6565",
"+@ 	c #A26D6E",
"@@ 	c #9C6A69",
"#@ 	c #A27170",
"$@ 	c #A06F6D",
"%@ 	c #9D6A67",
"&@ 	c #99645F",
"*@ 	c #955F59",
"=@ 	c #915B55",
"-@ 	c #8C5651",
";@ 	c #88524D",
">@ 	c #89534D",
",@ 	c #8A534E",
"'@ 	c #8C5852",
")@ 	c #85514C",
"!@ 	c #79453F",
"~@ 	c #824E48",
"{@ 	c #804B46",
"]@ 	c #89554F",
"^@ 	c #87534E",
"/@ 	c #87524E",
"(@ 	c #8B5553",
"_@ 	c #905A57",
":@ 	c #935D59",
"<@ 	c #945E5B",
"[@ 	c #955F5C",
"}@ 	c #965F5E",
"|@ 	c #8D5755",
"1@ 	c #915A59",
"2@ 	c #925C5B",
"3@ 	c #945E5D",
"4@ 	c #935C5B",
"5@ 	c #996261",
"6@ 	c #864F4E",
"7@ 	c #915D5D",
"8@ 	c #91605F",
"9@ 	c #865655",
"0@ 	c #845755",
"a@ 	c #86605E",
"b@ 	c #856A6A",
"c@ 	c #867B7D",
"d@ 	c #999699",
"e@ 	c #A09FA2",
"f@ 	c #A28D8E",
"g@ 	c #977374",
"h@ 	c #936361",
"i@ 	c #8F605C",
"j@ 	c #805650",
"k@ 	c #825451",
"l@ 	c #895A56",
"m@ 	c #855851",
"n@ 	c #7E514A",
"o@ 	c #7A4C45",
"p@ 	c #74463D",
"q@ 	c #72443A",
"r@ 	c #76473D",
"s@ 	c #76483E",
"t@ 	c #72433A",
"u@ 	c #6A3D34",
"v@ 	c #6A3C34",
"w@ 	c #683A31",
"x@ 	c #6B3E36",
"y@ 	c #6F423A",
"z@ 	c #64372F",
"A@ 	c #673D35",
"B@ 	c #5F362F",
"C@ 	c #623D36",
"D@ 	c #6A4740",
"E@ 	c #73524A",
"F@ 	c #6F4D46",
"G@ 	c #68413B",
"H@ 	c #653B37",
"I@ 	c #653A36",
"J@ 	c #643B3B",
"K@ 	c #5C3432",
"L@ 	c #562E2C",
"M@ 	c #613837",
"N@ 	c #6A4140",
"O@ 	c #6F4644",
"P@ 	c #744A4A",
"Q@ 	c #744B4B",
"R@ 	c #6D4846",
"S@ 	c #704E4A",
"T@ 	c #74504E",
"U@ 	c #735053",
"V@ 	c #8B7177",
"W@ 	c #95868C",
"X@ 	c #908C93",
"Y@ 	c #A09BA2",
"Z@ 	c #A59A9E",
"`@ 	c #948486",
" # 	c #957A79",
".# 	c #977877",
"+# 	c #9A7977",
"@# 	c #916D6D",
"## 	c #8A625D",
"$# 	c #88605C",
"%# 	c #895D59",
"&# 	c #885A57",
"*# 	c #835451",
"=# 	c #82524F",
"-# 	c #7E4D4A",
";# 	c #794742",
"># 	c #7C4B45",
",# 	c #82504A",
"'# 	c #76443F",
")# 	c #71413B",
"!# 	c #7A4B47",
"~# 	c #75433D",
"{# 	c #7E4D4F",
"]# 	c #774548",
"^# 	c #7C4D4E",
"/# 	c #7A4B4D",
"(# 	c #885C5E",
"_# 	c #815657",
":# 	c #815556",
"<# 	c #835858",
"[# 	c #805453",
"}# 	c #7C4E4E",
"|# 	c #835353",
"1# 	c #815153",
"2# 	c #7F4D4F",
"3# 	c #875255",
"4# 	c #995A5A",
"5# 	c #995B5B",
"6# 	c #A06363",
"7# 	c #975C5B",
"8# 	c #A56968",
"9# 	c #A26967",
"0# 	c #995E5B",
"a# 	c #965853",
"b# 	c #975953",
"c# 	c #985A54",
"d# 	c #93554F",
"e# 	c #93534F",
"f# 	c #995955",
"g# 	c #A96D66",
"h# 	c #9F635D",
"i# 	c #884B44",
"j# 	c #8D514A",
"k# 	c #90544E",
"l# 	c #965A54",
"m# 	c #945851",
"n# 	c #985C59",
"o# 	c #995D5A",
"p# 	c #9E635F",
"q# 	c #A16662",
"r# 	c #9C615D",
"s# 	c #955A56",
"t# 	c #965956",
"u# 	c #8E504D",
"v# 	c #925250",
"w# 	c #915250",
"x# 	c #8E4F4D",
"y# 	c #9A5B59",
"z# 	c #9C5D5B",
"A# 	c #A66765",
"B# 	c #A06461",
"C# 	c #985E5A",
"D# 	c #8B524E",
"E# 	c #895552",
"F# 	c #865957",
"G# 	c #846767",
"H# 	c #94888A",
"I# 	c #ABA6AB",
"J# 	c #B1AEB1",
"K# 	c #9F8685",
"L# 	c #916A6A",
"M# 	c #955F5D",
"N# 	c #96605C",
"O# 	c #93615B",
"P# 	c #8E5956",
"Q# 	c #8E5854",
"R# 	c #88544D",
"S# 	c #88554C",
"T# 	c #855148",
"U# 	c #7A463D",
"V# 	c #703C32",
"W# 	c #6F3B31",
"X# 	c #703C31",
"Y# 	c #723F35",
"Z# 	c #69362B",
"`# 	c #68362C",
" $ 	c #66342A",
".$ 	c #66362C",
"+$ 	c #693930",
"@$ 	c #623229",
"#$ 	c #5C2D24",
"$$ 	c #5D2D24",
"%$ 	c #55251C",
"&$ 	c #53261C",
"*$ 	c #582D22",
"=$ 	c #552A20",
"-$ 	c #54271D",
";$ 	c #58291F",
">$ 	c #5E312B",
",$ 	c #6E4342",
"'$ 	c #693F3D",
")$ 	c #562B29",
"!$ 	c #613634",
"~$ 	c #653A38",
"{$ 	c #663B38",
"]$ 	c #704242",
"^$ 	c #6E4341",
"/$ 	c #69423F",
"($ 	c #66403C",
"_$ 	c #663E3D",
":$ 	c #5A3536",
"<$ 	c #614246",
"[$ 	c #746367",
"}$ 	c #898388",
"|$ 	c #9B969B",
"1$ 	c #9B8F90",
"2$ 	c #786565",
"3$ 	c #856463",
"4$ 	c #896362",
"5$ 	c #825757",
"6$ 	c #8A5F5F",
"7$ 	c #8D5E5B",
"8$ 	c #915F59",
"9$ 	c #834F49",
"0$ 	c #89524E",
"a$ 	c #8B534F",
"b$ 	c #8F5551",
"c$ 	c #8D5450",
"d$ 	c #854A45",
"e$ 	c #80453D",
"f$ 	c #8B4F47",
"g$ 	c #8F544C",
"h$ 	c #662C25",
"i$ 	c #6E322B",
"j$ 	c #773B34",
"k$ 	c #7F4546",
"l$ 	c #874D51",
"m$ 	c #8D5657",
"n$ 	c #885153",
"o$ 	c #855052",
"p$ 	c #8C5859",
"q$ 	c #8B5859",
"r$ 	c #845151",
"s$ 	c #7E4A4A",
"t$ 	c #824D4D",
"u$ 	c #8E5757",
"v$ 	c #733B3A",
"w$ 	c #7E4545",
"x$ 	c #8F5556",
"y$ 	c #90504B",
"z$ 	c #975853",
"A$ 	c #965953",
"B$ 	c #945852",
"C$ 	c #9C615B",
"D$ 	c #9E645D",
"E$ 	c #9F645B",
"F$ 	c #9B5F54",
"G$ 	c #995D52",
"H$ 	c #93574C",
"I$ 	c #8F5347",
"J$ 	c #8E5247",
"K$ 	c #975A4F",
"L$ 	c #9F6358",
"M$ 	c #985B50",
"N$ 	c #8F5247",
"O$ 	c #92574B",
"P$ 	c #9F6357",
"Q$ 	c #9E6156",
"R$ 	c #9C6054",
"S$ 	c #995E54",
"T$ 	c #93574F",
"U$ 	c #90554C",
"V$ 	c #935850",
"W$ 	c #965B53",
"X$ 	c #945950",
"Y$ 	c #965B52",
"Z$ 	c #995D54",
"`$ 	c #95574E",
" % 	c #8F4F48",
".% 	c #915149",
"+% 	c #9B5B52",
"@% 	c #95554D",
"#% 	c #8D4D46",
"$% 	c #9F6058",
"%% 	c #A2625A",
"&% 	c #97554C",
"*% 	c #915047",
"=% 	c #915650",
"-% 	c #7C4C49",
";% 	c #6F5659",
">% 	c #988B92",
",% 	c #AFA8AF",
"'% 	c #B2AEB3",
")% 	c #A8928C",
"!% 	c #A17D77",
"~% 	c #8C574F",
"{% 	c #855249",
"]% 	c #8A584F",
"^% 	c #8A554E",
"/% 	c #88514E",
"(% 	c #814D4A",
"_% 	c #83504B",
":% 	c #7C4945",
"<% 	c #6D3A36",
"[% 	c #693530",
"}% 	c #6C3832",
"|% 	c #67342D",
"1% 	c #62322B",
"2% 	c #61322B",
"3% 	c #60322B",
"4% 	c #5D2F28",
"5% 	c #5E3029",
"6% 	c #5E302A",
"7% 	c #582B25",
"8% 	c #51241E",
"9% 	c #56251F",
"0% 	c #54241D",
"a% 	c #4F2019",
"b% 	c #562921",
"c% 	c #572A22",
"d% 	c #542820",
"e% 	c #552A23",
"f% 	c #582E27",
"g% 	c #5E3630",
"h% 	c #5B342E",
"i% 	c #562D28",
"j% 	c #572E29",
"k% 	c #5A312B",
"l% 	c #5C332D",
"m% 	c #5B2F2A",
"n% 	c #5E302D",
"o% 	c #5A2E2A",
"p% 	c #653934",
"q% 	c #673B37",
"r% 	c #542B29",
"s% 	c #543031",
"t% 	c #705A5B",
"u% 	c #887C7D",
"v% 	c #8E8789",
"w% 	c #928382",
"x% 	c #755C5B",
"y% 	c #835856",
"z% 	c #8B5A58",
"A% 	c #8F5C5B",
"B% 	c #8B5656",
"C% 	c #885453",
"D% 	c #8B5653",
"E% 	c #8B5453",
"F% 	c #864E4D",
"G% 	c #783E3D",
"H% 	c #6C3433",
"I% 	c #7B4040",
"J% 	c #864948",
"K% 	c #7F4140",
"L% 	c #723533",
"M% 	c #6F3431",
"N% 	c #814240",
"O% 	c #874847",
"P% 	c #8C4C4C",
"Q% 	c #8B4B4A",
"R% 	c #824746",
"S% 	c #854A4A",
"T% 	c #925B58",
"U% 	c #8C5553",
"V% 	c #935E5A",
"W% 	c #8F5B56",
"X% 	c #8D5A57",
"Y% 	c #885451",
"Z% 	c #834E4A",
"`% 	c #844E4B",
" & 	c #8D5654",
".& 	c #945D5A",
"+& 	c #895351",
"@& 	c #88524F",
"#& 	c #96615E",
"$& 	c #94564F",
"%& 	c #9A5F57",
"&& 	c #9D635A",
"*& 	c #9F645A",
"=& 	c #9B6054",
"-& 	c #995E51",
";& 	c #985D50",
">& 	c #905548",
",& 	c #8C5244",
"'& 	c #8C5044",
")& 	c #94594C",
"!& 	c #9B6053",
"~& 	c #95594C",
"{& 	c #905447",
"]& 	c #92574A",
"^& 	c #A06457",
"/& 	c #9F6256",
"(& 	c #9D6154",
"_& 	c #985D52",
":& 	c #92564C",
"<& 	c #8D5248",
"[& 	c #90564B",
"}& 	c #94594F",
"|& 	c #92584D",
"1& 	c #955B50",
"2& 	c #995D53",
"3& 	c #97594F",
"4& 	c #915249",
"5& 	c #93534A",
"6& 	c #9D5E54",
"7& 	c #93544A",
"8& 	c #8A4A41",
"9& 	c #9C5D54",
"0& 	c #A16157",
"a& 	c #955146",
"b& 	c #914F44",
"c& 	c #8D524B",
"d& 	c #744340",
"e& 	c #695054",
"f& 	c #998B91",
"g& 	c #ADA6AD",
"h& 	c #B0ABB0",
"i& 	c #A48F88",
"j& 	c #9D7B74",
"k& 	c #85534A",
"l& 	c #7E4D43",
"m& 	c #815349",
"n& 	c #824F48",
"o& 	c #7E4A48",
"p& 	c #784745",
"q& 	c #7A4946",
"r& 	c #72413F",
"s& 	c #653532",
"t& 	c #62322D",
"u& 	c #63332E",
"v& 	c #5C2E2A",
"w& 	c #572B26",
"x& 	c #592E29",
"y& 	c #562C26",
"z& 	c #522924",
"A& 	c #522925",
"B& 	c #4C2520",
"C& 	c #461E19",
"D& 	c #4C201B",
"E& 	c #4A1F19",
"F& 	c #441B15",
"G& 	c #4C231D",
"H& 	c #4D241E",
"I& 	c #4B231D",
"J& 	c #4C251F",
"K& 	c #4E2922",
"L& 	c #502D27",
"M& 	c #4E2B25",
"N& 	c #4C2722",
"O& 	c #4B2722",
"P& 	c #4F2B24",
"Q& 	c #502B25",
"R& 	c #4D2520",
"S& 	c #512622",
"T& 	c #502521",
"U& 	c #5A312C",
"V& 	c #5E342F",
"W& 	c #4D2523",
"X& 	c #4D292A",
"Y& 	c #685152",
"Z& 	c #7F7272",
"`& 	c #847D7D",
" * 	c #6E5452",
".* 	c #7D514F",
"+* 	c #865452",
"@* 	c #8C5857",
"#* 	c #865251",
"$* 	c #855151",
"%* 	c #895352",
"&* 	c #824B4B",
"** 	c #753C3D",
"=* 	c #632B2D",
"-* 	c #74393A",
";* 	c #824445",
">* 	c #7B3E3F",
",* 	c #6F3132",
"'* 	c #692C2C",
")* 	c #814242",
"!* 	c #8C4D4D",
"~* 	c #915152",
"{* 	c #8E4E4E",
"]* 	c #824845",
"^* 	c #844947",
"/* 	c #925C57",
"(* 	c #8D5652",
"_* 	c #95615B",
":* 	c #905C56",
"<* 	c #8E5B56",
"[* 	c #895551",
"}* 	c #844F4B",
"|* 	c #854F4B",
"1* 	c #8C5653",
"2* 	c #8D5855",
"3* 	c #8A5551",
"4* 	c #98635F",
"5* 	c #874B43",
"6* 	c #884D45",
"7* 	c #925950",
"8* 	c #945B52",
"9* 	c #986257",
"0* 	c #9A645A",
"a* 	c #966054",
"b* 	c #955E4F",
"c* 	c #965E4F",
"d* 	c #905849",
"e* 	c #824A3B",
"f* 	c #834C3D",
"g* 	c #7F4738",
"h* 	c #874F41",
"i* 	c #955C4E",
"j* 	c #905748",
"k* 	c #8B5243",
"l* 	c #8E5546",
"m* 	c #935A4C",
"n* 	c #965C4E",
"o* 	c #965D4F",
"p* 	c #92584C",
"q* 	c #93594E",
"r* 	c #945A4F",
"s* 	c #90574C",
"t* 	c #91584D",
"u* 	c #92594E",
"v* 	c #985E52",
"w* 	c #9F6458",
"x* 	c #9C6055",
"y* 	c #9D6156",
"z* 	c #8E5348",
"A* 	c #8D5246",
"B* 	c #91574C",
"C* 	c #9A5C52",
"D* 	c #8E4C43",
"E* 	c #904E45",
"F* 	c #743A33",
"G* 	c #471311",
"H* 	c #634E52",
"I* 	c #9C8C92",
"J* 	c #ACA5AC",
"K* 	c #AFABB0",
"L* 	c #948079",
"M* 	c #8A6B63",
"N* 	c #81544B",
"O* 	c #7C5046",
"P* 	c #754D42",
"Q* 	c #72463E",
"R* 	c #6D413F",
"S* 	c #683D3D",
"T* 	c #693F3E",
"U* 	c #633939",
"V* 	c #5F3635",
"W* 	c #5E3532",
"X* 	c #58302D",
"Y* 	c #522927",
"Z* 	c #4F2926",
"`* 	c #522D2B",
" = 	c #482522",
".= 	c #452321",
"+= 	c #401E1C",
"@= 	c #442321",
"#= 	c #401F1D",
"$= 	c #3A1A16",
"%= 	c #401E1A",
"&= 	c #391613",
"*= 	c #391713",
"== 	c #3F1C19",
"-= 	c #401D1A",
";= 	c #3E1D19",
">= 	c #40211C",
",= 	c #462722",
"'= 	c #432520",
")= 	c #41231D",
"!= 	c #3D1F1A",
"~= 	c #3B1D17",
"{= 	c #462822",
"]= 	c #44241E",
"^= 	c #411E19",
"/= 	c #431C19",
"(= 	c #451F1B",
"_= 	c #49241E",
":= 	c #4E2723",
"<= 	c #492120",
"[= 	c #4E2C2D",
"}= 	c #5F4848",
"|= 	c #706565",
"1= 	c #7C7575",
"2= 	c #766766",
"3= 	c #604645",
"4= 	c #724747",
"5= 	c #7B4D4A",
"6= 	c #81504D",
"7= 	c #7E4E4D",
"8= 	c #845556",
"9= 	c #815354",
"0= 	c #804F51",
"a= 	c #7F4C4F",
"b= 	c #875154",
"c= 	c #703A3E",
"d= 	c #662C32",
"e= 	c #64292E",
"f= 	c #6A2F32",
"g= 	c #7F4548",
"h= 	c #793E41",
"i= 	c #824648",
"j= 	c #874A4D",
"k= 	c #8B4E51",
"l= 	c #884C4E",
"m= 	c #7F4744",
"n= 	c #7F4943",
"o= 	c #8E5A54",
"p= 	c #88564F",
"q= 	c #93615A",
"r= 	c #91615A",
"s= 	c #8D5D55",
"t= 	c #895852",
"u= 	c #87544F",
"v= 	c #87534F",
"w= 	c #895752",
"x= 	c #8D5C57",
"y= 	c #8A5954",
"z= 	c #885752",
"A= 	c #946560",
"B= 	c #82433E",
"C= 	c #844741",
"D= 	c #935751",
"E= 	c #955953",
"F= 	c #955C54",
"G= 	c #965D55",
"H= 	c #945B51",
"I= 	c #8E5649",
"J= 	c #895143",
"K= 	c #884F42",
"L= 	c #8A5144",
"M= 	c #8C5447",
"N= 	c #8C5446",
"O= 	c #91584C",
"P= 	c #9A5F53",
"Q= 	c #975A4E",
"R= 	c #965A4E",
"S= 	c #94584B",
"T= 	c #975B4F",
"U= 	c #995D51",
"V= 	c #9D5F57",
"W= 	c #9E6057",
"X= 	c #9C5D55",
"Y= 	c #985A51",
"Z= 	c #93554D",
"`= 	c #8B4D45",
" - 	c #894B43",
".- 	c #8D4E46",
"+- 	c #8C4F45",
"@- 	c #92564A",
"#- 	c #925449",
"$- 	c #8D5045",
"%- 	c #95584E",
"&- 	c #915449",
"*- 	c #8F5249",
"=- 	c #874C46",
"-- 	c #884E48",
";- 	c #784440",
">- 	c #5D3432",
",- 	c #6C5759",
"'- 	c #998D92",
")- 	c #A9A4AA",
"!- 	c #ADAAAD",
"~- 	c #886F6A",
"{- 	c #84625E",
"]- 	c #794B44",
"^- 	c #734941",
"/- 	c #68443A",
"(- 	c #664139",
"_- 	c #633B38",
":- 	c #603A38",
"<- 	c #5D3734",
"[- 	c #56312E",
"}- 	c #512D29",
"|- 	c #4F2B27",
"1- 	c #4B2924",
"2- 	c #472521",
"3- 	c #40201D",
"4- 	c #432423",
"5- 	c #402321",
"6- 	c #3F2322",
"7- 	c #3C2120",
"8- 	c #3D2220",
"9- 	c #3A201F",
"0- 	c #371E1C",
"a- 	c #37201A",
"b- 	c #331B16",
"c- 	c #311612",
"d- 	c #321612",
"e- 	c #341714",
"f- 	c #341915",
"g- 	c #341916",
"h- 	c #371D19",
"i- 	c #381D19",
"j- 	c #361C17",
"k- 	c #331814",
"l- 	c #371C17",
"m- 	c #351915",
"n- 	c #361714",
"o- 	c #371613",
"p- 	c #3B1B17",
"q- 	c #3E1E1A",
"r- 	c #43211D",
"s- 	c #3F1D1B",
"t- 	c #432525",
"u- 	c #53403F",
"v- 	c #635B5A",
"w- 	c #6A6766",
"x- 	c #6E6261",
"y- 	c #5D4746",
"z- 	c #66413F",
"A- 	c #6E4441",
"B- 	c #724745",
"C- 	c #734E4A",
"D- 	c #7D5553",
"E- 	c #7D5351",
"F- 	c #7E504F",
"G- 	c #7D4E4D",
"H- 	c #814F4F",
"I- 	c #7A4746",
"J- 	c #7A4544",
"K- 	c #7D4847",
"L- 	c #824B49",
"M- 	c #854B4A",
"N- 	c #804846",
"O- 	c #814947",
"P- 	c #8A5150",
"Q- 	c #8E5553",
"R- 	c #8B5251",
"S- 	c #834A47",
"T- 	c #8D5854",
"U- 	c #8D5954",
"V- 	c #8A5752",
"W- 	c #83524D",
"X- 	c #804E4A",
"Y- 	c #824C4A",
"Z- 	c #8B5554",
"`- 	c #8D5957",
" ; 	c #8A5855",
".; 	c #8B5B58",
"+; 	c #956663",
"@; 	c #7F3F3B",
"#; 	c #83443F",
"$; 	c #945652",
"%; 	c #955853",
"&; 	c #935853",
"*; 	c #92584F",
"=; 	c #8B5146",
"-; 	c #834A3D",
";; 	c #844A3F",
">; 	c #8E5448",
",; 	c #90574B",
"'; 	c #92594C",
"); 	c #955C50",
"!; 	c #9A5C51",
"~; 	c #9B5E53",
"{; 	c #9D6055",
"]; 	c #95574C",
"^; 	c #A3635B",
"/; 	c #A4635C",
"(; 	c #A05E57",
"_; 	c #9B5A53",
":; 	c #95544D",
"<; 	c #884640",
"[; 	c #85433C",
"}; 	c #8A4842",
"|; 	c #87473E",
"1; 	c #8C4E43",
"2; 	c #8C4D42",
"3; 	c #85473D",
"4; 	c #98594F",
"5; 	c #93554B",
"6; 	c #834D47",
"7; 	c #824D48",
"8; 	c #784844",
"9; 	c #663F3E",
"0; 	c #705B5D",
"a; 	c #958B90",
"b; 	c #A29EA3",
"c; 	c #A7A3A7",
"d; 	c #7D635F",
"e; 	c #7D5A57",
"f; 	c #6F433E",
"g; 	c #68413A",
"h; 	c #5D3D33",
"i; 	c #5B3A33",
"j; 	c #583531",
"k; 	c #563531",
"l; 	c #51302C",
"m; 	c #4A2926",
"n; 	c #442420",
"o; 	c #41221E",
"p; 	c #3E211C",
"q; 	c #3B1F1A",
"r; 	c #361D1B",
"s; 	c #361D1C",
"t; 	c #351E1D",
"u; 	c #341D1C",
"v; 	c #331D1B",
"w; 	c #311B1A",
"x; 	c #2E1A18",
"y; 	c #2C1A15",
"z; 	c #291612",
"A; 	c #26120E",
"B; 	c #260F0C",
"C; 	c #28110E",
"D; 	c #29120F",
"E; 	c #291310",
"F; 	c #2A1411",
"G; 	c #2B1411",
"H; 	c #2A1410",
"I; 	c #2A1310",
"J; 	c #2A110E",
"K; 	c #2B110E",
"L; 	c #2B100D",
"M; 	c #301512",
"N; 	c #331914",
"O; 	c #371B18",
"P; 	c #351816",
"Q; 	c #371E1E",
"R; 	c #473737",
"S; 	c #564F4E",
"T; 	c #5B5958",
"U; 	c #645958",
"V; 	c #574442",
"W; 	c #5C3A39",
"X; 	c #633D3A",
"Y; 	c #66413E",
"Z; 	c #6C4C47",
"`; 	c #76524E",
" > 	c #79514D",
".> 	c #7B504C",
"+> 	c #7B4E4B",
"@> 	c #7D4D4B",
"#> 	c #7E4B49",
"$> 	c #804C49",
"%> 	c #86504E",
"&> 	c #8A5450",
"*> 	c #874F4B",
"=> 	c #844C48",
"-> 	c #814A46",
";> 	c #8C5451",
">> 	c #905854",
",> 	c #8D5552",
"'> 	c #864B49",
")> 	c #804745",
"!> 	c #8F5855",
"~> 	c #905956",
"{> 	c #8A5652",
"]> 	c #86534F",
"^> 	c #7F4C48",
"/> 	c #7C4846",
"(> 	c #7F4848",
"_> 	c #854C4D",
":> 	c #8B5455",
"<> 	c #8C5757",
"[> 	c #8A5856",
"}> 	c #8C5C5A",
"|> 	c #956664",
"1> 	c #813D3B",
"2> 	c #864241",
"3> 	c #935250",
"4> 	c #92524F",
"5> 	c #8F504D",
"6> 	c #8D504C",
"7> 	c #8E514B",
"8> 	c #8C5047",
"9> 	c #874B41",
"0> 	c #86493F",
"a> 	c #8E5147",
"b> 	c #905349",
"c> 	c #94574D",
"d> 	c #96594F",
"e> 	c #9C5C53",
"f> 	c #995950",
"g> 	c #9D5D54",
"h> 	c #A16057",
"i> 	c #9E5E55",
"j> 	c #AB6661",
"k> 	c #AC6661",
"l> 	c #A6605B",
"m> 	c #A15A56",
"n> 	c #97514D",
"o> 	c #833C38",
"p> 	c #823B37",
"q> 	c #8D4642",
"r> 	c #934D47",
"s> 	c #8C4941",
"t> 	c #914E47",
"u> 	c #98564E",
"v> 	c #96544C",
"w> 	c #92514A",
"x> 	c #904F47",
"y> 	c #8A514A",
"z> 	c #8A5754",
"A> 	c #845451",
"B> 	c #7F5451",
"C> 	c #866361",
"D> 	c #978080",
"E> 	c #A09699",
"F> 	c #908D91",
"G> 	c #949194",
"H> 	c #775858",
"I> 	c #744F50",
"J> 	c #683D3A",
"K> 	c #5D3732",
"L> 	c #593832",
"M> 	c #53322E",
"N> 	c #502E2A",
"O> 	c #4F302A",
"P> 	c #442721",
"Q> 	c #3B1F19",
"R> 	c #361A14",
"S> 	c #331811",
"T> 	c #301610",
"U> 	c #2F1611",
"V> 	c #2C1410",
"W> 	c #2B1512",
"X> 	c #2D1816",
"Y> 	c #281513",
"Z> 	c #291614",
"`> 	c #271412",
" , 	c #23110F",
"., 	c #21100E",
"+, 	c #20120D",
"@, 	c #1E0F0B",
"#, 	c #1D0D09",
"$, 	c #1D0A08",
"%, 	c #1C0A07",
"&, 	c #1E0C09",
"*, 	c #1C0908",
"=, 	c #1D0908",
"-, 	c #220E0C",
";, 	c #220D0B",
">, 	c #1E0807",
",, 	c #210B09",
"', 	c #210D0A",
"), 	c #281310",
"!, 	c #2D1512",
"~, 	c #2B1312",
"{, 	c #2D1818",
"], 	c #3D3131",
"^, 	c #4D4747",
"/, 	c #504E4F",
"(, 	c #564E4E",
"_, 	c #4D3B3B",
":, 	c #543534",
"<, 	c #583836",
"[, 	c #5D3C3A",
"}, 	c #664B48",
"|, 	c #6F4D47",
"1, 	c #734C45",
"2, 	c #794F48",
"3, 	c #7B4E47",
"4, 	c #73443D",
"5, 	c #78453F",
"6, 	c #7F4A43",
"7, 	c #844D46",
"8, 	c #8A5149",
"9, 	c #8F554D",
"0, 	c #895048",
"a, 	c #874D44",
"b, 	c #8C5249",
"c, 	c #90564D",
"d, 	c #8D534A",
"e, 	c #8E5050",
"f, 	c #88494A",
"g, 	c #965A5A",
"h, 	c #985D5D",
"i, 	c #955C5B",
"j, 	c #834B4A",
"k, 	c #7D4144",
"l, 	c #83464B",
"m, 	c #8A4D52",
"n, 	c #894F53",
"o, 	c #8D5558",
"p, 	c #915C5E",
"q, 	c #976465",
"r, 	c #803D39",
"s, 	c #864340",
"t, 	c #904F4B",
"u, 	c #93524E",
"v, 	c #8F4F4B",
"w, 	c #8D4E49",
"x, 	c #8C4E48",
"y, 	c #8D5048",
"z, 	c #8A4D44",
"A, 	c #884B43",
"B, 	c #90534A",
"C, 	c #92564D",
"D, 	c #965950",
"E, 	c #975A51",
"F, 	c #9B5951",
"G, 	c #9C5A52",
"H, 	c #9A5951",
"I, 	c #9A5A51",
"J, 	c #9F5F56",
"K, 	c #9B5C53",
"L, 	c #A5635C",
"M, 	c #A7635D",
"N, 	c #A25E58",
"O, 	c #9D5953",
"P, 	c #93504A",
"Q, 	c #7E3933",
"R, 	c #7D3833",
"S, 	c #8A453F",
"T, 	c #8E4B44",
"U, 	c #925149",
"V, 	c #94544B",
"W, 	c #8E5148",
"X, 	c #864941",
"Y, 	c #834A45",
"Z, 	c #804F4D",
"`, 	c #754D4A",
" ' 	c #785857",
".' 	c #887374",
"+' 	c #938A8D",
"@' 	c #88868A",
"#' 	c #8A868A",
"$' 	c #684B4B",
"%' 	c #664343",
"&' 	c #5B3331",
"*' 	c #55312C",
"=' 	c #4F312C",
"-' 	c #492C29",
";' 	c #452824",
">' 	c #432721",
",' 	c #381E19",
"'' 	c #301712",
")' 	c #2C140F",
"!' 	c #29120D",
"~' 	c #26110C",
"{' 	c #26120D",
"]' 	c #220F0B",
"^' 	c #200E0B",
"/' 	c #22100E",
"(' 	c #1D0D0B",
"_' 	c #1E0E0C",
":' 	c #1B0C0A",
"<' 	c #180908",
"[' 	c #180A08",
"}' 	c #150A06",
"|' 	c #140806",
"1' 	c #140805",
"2' 	c #140705",
"3' 	c #130604",
"4' 	c #120504",
"5' 	c #130605",
"6' 	c #140605",
"7' 	c #130504",
"8' 	c #140604",
"9' 	c #160605",
"0' 	c #150504",
"a' 	c #170604",
"b' 	c #170705",
"c' 	c #1C0B08",
"d' 	c #200D0A",
"e' 	c #200D0C",
"f' 	c #200F0F",
"g' 	c #2C2323",
"h' 	c #3C3838",
"i' 	c #444243",
"j' 	c #4C4545",
"k' 	c #443534",
"l' 	c #4C312F",
"m' 	c #523431",
"n' 	c #573835",
"o' 	c #5F4543",
"p' 	c #694945",
"q' 	c #6F4944",
"r' 	c #714A45",
"s' 	c #7C514C",
"t' 	c #774B46",
"u' 	c #7D4E4A",
"v' 	c #82514C",
"w' 	c #824F49",
"x' 	c #854E48",
"y' 	c #8B524D",
"z' 	c #844A45",
"A' 	c #854B46",
"B' 	c #8B514B",
"C' 	c #925751",
"D' 	c #8E4F50",
"E' 	c #844547",
"F' 	c #975A5B",
"G' 	c #985C5D",
"H' 	c #945959",
"I' 	c #8A5050",
"J' 	c #844B4B",
"K' 	c #7D4143",
"L' 	c #824649",
"M' 	c #8C5053",
"N' 	c #8E5355",
"O' 	c #8B5254",
"P' 	c #8D5557",
"Q' 	c #976062",
"R' 	c #803D38",
"S' 	c #874540",
"T' 	c #8D4C46",
"U' 	c #94534D",
"V' 	c #904F49",
"W' 	c #8C4C46",
"X' 	c #8B4C45",
"Y' 	c #8B4E46",
"Z' 	c #92554D",
"`' 	c #94574F",
" ) 	c #975A52",
".) 	c #985B53",
"+) 	c #99574F",
"@) 	c #9E5B53",
"#) 	c #97564E",
"$) 	c #94534A",
"%) 	c #A06057",
"&) 	c #995A51",
"*) 	c #9F5F57",
"=) 	c #A16159",
"-) 	c #9D5D55",
";) 	c #995850",
">) 	c #8E4E46",
",) 	c #78362F",
"') 	c #86443C",
")) 	c #89473F",
"!) 	c #94554C",
"~) 	c #91534B",
"{) 	c #844840",
"]) 	c #894E46",
"^) 	c #7C4239",
"/) 	c #774746",
"() 	c #714544",
"_) 	c #6A4442",
":) 	c #6B4D4C",
"<) 	c #796667",
"[) 	c #857F81",
"}) 	c #7E7E81",
"|) 	c #7F7C7E",
"1) 	c #593F3E",
"2) 	c #573737",
"3) 	c #4E2A29",
"4) 	c #4A2A26",
"5) 	c #432A26",
"6) 	c #3E2623",
"7) 	c #3B211E",
"8) 	c #351D18",
"9) 	c #2C1611",
"0) 	c #25100B",
"a) 	c #220E09",
"b) 	c #200D08",
"c) 	c #1D0C08",
"d) 	c #190A07",
"e) 	c #160806",
"f) 	c #170A07",
"g) 	c #130706",
"h) 	c #110605",
"i) 	c #0E0403",
"j) 	c #0F0504",
"k) 	c #0C0403",
"l) 	c #0D0403",
"m) 	c #0B0302",
"n) 	c #090202",
"o) 	c #090302",
"p) 	c #0A0302",
"q) 	c #0C0303",
"r) 	c #0C0302",
"s) 	c #0D0302",
"t) 	c #0C0202",
"u) 	c #0E0302",
"v) 	c #160705",
"w) 	c #170707",
"x) 	c #160909",
"y) 	c #1F1818",
"z) 	c #2C2A2A",
"A) 	c #383738",
"B) 	c #413B3B",
"C) 	c #3A2E2C",
"D) 	c #432C28",
"E) 	c #4A2F2B",
"F) 	c #4F3431",
"G) 	c #573F3E",
"H) 	c #614442",
"I) 	c #6A4642",
"J) 	c #6B4542",
"K) 	c #7A524E",
"L) 	c #7A504C",
"M) 	c #805551",
"N) 	c #845752",
"O) 	c #80504C",
"P) 	c #814B47",
"Q) 	c #874F4C",
"R) 	c #7F4543",
"S) 	c #8A4E4B",
"T) 	c #945855",
"U) 	c #995C5A",
"V) 	c #8E4E4F",
"W) 	c #814144",
"X) 	c #985A5C",
"Y) 	c #995B5D",
"Z) 	c #925657",
"`) 	c #884D4E",
" ! 	c #854B4C",
".! 	c #804647",
"+! 	c #834748",
"@! 	c #8E5254",
"#! 	c #925658",
"$! 	c #894F4F",
"%! 	c #884E4F",
"&! 	c #965C5E",
"*! 	c #905451",
"=! 	c #8A4F4B",
"-! 	c #834644",
";! 	c #894D4A",
">! 	c #8B4F4C",
",! 	c #894D49",
"'! 	c #864842",
")! 	c #915148",
"!! 	c #8E4F45",
"~! 	c #915147",
"{! 	c #95554B",
"]! 	c #96564D",
"^! 	c #97574D",
"/! 	c #975149",
"(! 	c #944E46",
"_! 	c #803C33",
":! 	c #8C4940",
"<! 	c #96544B",
"[! 	c #925248",
"}! 	c #905046",
"|! 	c #915349",
"1! 	c #975950",
"2! 	c #8B4A42",
"3! 	c #803D35",
"4! 	c #7E3C34",
"5! 	c #89453E",
"6! 	c #88463D",
"7! 	c #84463C",
"8! 	c #83463C",
"9! 	c #83463E",
"0! 	c #82463D",
"a! 	c #7B4138",
"b! 	c #7B423A",
"c! 	c #754039",
"d! 	c #6F3E3A",
"e! 	c #6E3F3C",
"f! 	c #68413F",
"g! 	c #5F403E",
"h! 	c #685658",
"i! 	c #7E767A",
"j! 	c #77757A",
"k! 	c #6E6D70",
"l! 	c #4C3834",
"m! 	c #4B322F",
"n! 	c #462824",
"o! 	c #3F2621",
"p! 	c #37231E",
"q! 	c #321F1B",
"r! 	c #311D1A",
"s! 	c #2A1715",
"t! 	c #210F0D",
"u! 	c #1C0C0A",
"v! 	c #1A0C0A",
"w! 	c #190B09",
"x! 	c #170A08",
"y! 	c #140807",
"z! 	c #0B0403",
"A! 	c #090303",
"B! 	c #070202",
"C! 	c #070302",
"D! 	c #060202",
"E! 	c #060201",
"F! 	c #050101",
"G! 	c #060101",
"H! 	c #070101",
"I! 	c #080201",
"J! 	c #0A0201",
"K! 	c #0F0404",
"L! 	c #110707",
"M! 	c #181312",
"N! 	c #222020",
"O! 	c #2C2A2B",
"P! 	c #373031",
"Q! 	c #312323",
"R! 	c #39221F",
"S! 	c #422723",
"T! 	c #492C28",
"U! 	c #503333",
"V! 	c #563736",
"W! 	c #5E3B38",
"X! 	c #6D4644",
"Y! 	c #7A4F4D",
"Z! 	c #7C4F4D",
"`! 	c #7D4E4C",
" ~ 	c #7E4F4B",
".~ 	c #80514C",
"+~ 	c #84534E",
"@~ 	c #86534E",
"#~ 	c #804C46",
"$~ 	c #8D5452",
"%~ 	c #935956",
"&~ 	c #864B4A",
"*~ 	c #8C5250",
"=~ 	c #905856",
"-~ 	c #915A58",
";~ 	c #905C58",
">~ 	c #8D5955",
",~ 	c #915C59",
"'~ 	c #925B57",
")~ 	c #8F5754",
"!~ 	c #8D5553",
"~~ 	c #87514C",
"{~ 	c #854F4A",
"]~ 	c #945D59",
"^~ 	c #8E5350",
"/~ 	c #894F4B",
"(~ 	c #854A49",
"_~ 	c #8B504D",
":~ 	c #8C504E",
"<~ 	c #884D4B",
"[~ 	c #854842",
"}~ 	c #8D4D44",
"|~ 	c #8E4D43",
"1~ 	c #904F45",
"2~ 	c #935248",
"3~ 	c #95544A",
"4~ 	c #954E46",
"5~ 	c #964F47",
"6~ 	c #823E35",
"7~ 	c #8E4A41",
"8~ 	c #97544A",
"9~ 	c #935348",
"0~ 	c #925147",
"a~ 	c #8E4F46",
"b~ 	c #91544B",
"c~ 	c #94564D",
"d~ 	c #925249",
"e~ 	c #8A4840",
"f~ 	c #7F3C35",
"g~ 	c #7F3B34",
"h~ 	c #894640",
"i~ 	c #88473E",
"j~ 	c #84453C",
"k~ 	c #82453B",
"l~ 	c #81453B",
"m~ 	c #7D4239",
"n~ 	c #763E35",
"o~ 	c #763E36",
"p~ 	c #6E3A33",
"q~ 	c #693A35",
"r~ 	c #663A36",
"s~ 	c #563937",
"t~ 	c #5E4D4F",
"u~ 	c #70696D",
"v~ 	c #67656A",
"w~ 	c #616063",
"x~ 	c #42312C",
"y~ 	c #402A27",
"z~ 	c #39201B",
"A~ 	c #331E19",
"B~ 	c #2C1B16",
"C~ 	c #261714",
"D~ 	c #251412",
"E~ 	c #1E0F0E",
"F~ 	c #100605",
"G~ 	c #0D0504",
"H~ 	c #050202",
"I~ 	c #040101",
"J~ 	c #050201",
"K~ 	c #040201",
"L~ 	c #030101",
"M~ 	c #030100",
"N~ 	c #070201",
"O~ 	c #080202",
"P~ 	c #0D0606",
"Q~ 	c #130E0E",
"R~ 	c #191818",
"S~ 	c #212021",
"T~ 	c #2B2525",
"U~ 	c #261B1A",
"V~ 	c #2F1B18",
"W~ 	c #39201D",
"X~ 	c #422623",
"Y~ 	c #492D2C",
"Z~ 	c #523332",
"`~ 	c #583633",
" { 	c #6C4441",
".{ 	c #764D4A",
"+{ 	c #794D4A",
"@{ 	c #7E504B",
"#{ 	c #82544D",
"${ 	c #855650",
"%{ 	c #85534D",
"&{ 	c #83504A",
"*{ 	c #87524C",
"={ 	c #915853",
"-{ 	c #874D4B",
";{ 	c #8A514E",
">{ 	c #89524F",
",{ 	c #8E5754",
"'{ 	c #905B57",
"){ 	c #915E59",
"!{ 	c #8B5955",
"~{ 	c #8C5954",
"{{ 	c #8F5A55",
"]{ 	c #8D5752",
"^{ 	c #86524B",
"/{ 	c #85504A",
"({ 	c #945E58",
"_{ 	c #894F4D",
":{ 	c #884E4C",
"<{ 	c #8B5150",
"[{ 	c #8D5352",
"}{ 	c #874E4D",
"|{ 	c #8C4B41",
"1{ 	c #8F4C41",
"2{ 	c #8C4A3F",
"3{ 	c #8E4C40",
"4{ 	c #8F4D41",
"5{ 	c #904E43",
"6{ 	c #914E43",
"7{ 	c #924940",
"8{ 	c #9B5249",
"9{ 	c #8A443B",
"0{ 	c #914C42",
"a{ 	c #98554A",
"b{ 	c #975549",
"c{ 	c #965449",
"d{ 	c #894A40",
"e{ 	c #8B4C44",
"f{ 	c #905047",
"g{ 	c #8E4D45",
"h{ 	c #86443D",
"i{ 	c #7F3933",
"j{ 	c #7E3B34",
"k{ 	c #8B4742",
"l{ 	c #894940",
"m{ 	c #86483D",
"n{ 	c #82463C",
"o{ 	c #7F443A",
"p{ 	c #753D32",
"q{ 	c #733D33",
"r{ 	c #6F3A31",
"s{ 	c #64322A",
"t{ 	c #633731",
"u{ 	c #5E3430",
"v{ 	c #573230",
"w{ 	c #4F3231",
"x{ 	c #544546",
"y{ 	c #5F595D",
"z{ 	c #545257",
"A{ 	c #555356",
"B{ 	c #372925",
"C{ 	c #33221E",
"D{ 	c #2B1712",
"E{ 	c #281712",
"F{ 	c #21140F",
"G{ 	c #1D110D",
"H{ 	c #190C0A",
"I{ 	c #140908",
"J{ 	c #0F0605",
"K{ 	c #0A0303",
"L{ 	c #080303",
"M{ 	c #020101",
"N{ 	c #020100",
"O{ 	c #010000",
"P{ 	c #010101",
"Q{ 	c #010100",
"R{ 	c #020000",
"S{ 	c #090504",
"T{ 	c #0F0B0B",
"U{ 	c #111111",
"V{ 	c #191718",
"W{ 	c #211B1C",
"X{ 	c #1D1313",
"Y{ 	c #261412",
"Z{ 	c #2F1916",
"`{ 	c #3A201D",
" ] 	c #412523",
".] 	c #4E302E",
"+] 	c #51312D",
"@] 	c #603B38",
"#] 	c #6B4340",
"$] 	c #744A47",
"%] 	c #774C48",
"&] 	c #7A4C48",
"*] 	c #80524C",
"=] 	c #855A51",
"-] 	c #895B54",
";] 	c #82524B",
">] 	c #89584F",
",] 	c #88554D",
"'] 	c #8B554F",
")] 	c #8D5750",
"!] 	c #8A514D",
"~] 	c #844D49",
"{] 	c #7A4740",
"]] 	c #8B5651",
"^] 	c #8E5C56",
"/] 	c #916059",
"(] 	c #8D5C55",
"_] 	c #895851",
":] 	c #89564E",
"<] 	c #8A564F",
"[] 	c #8A564E",
"}] 	c #85524A",
"|] 	c #935F57",
"1] 	c #995D57",
"2] 	c #985D57",
"3] 	c #834943",
"4] 	c #894F48",
"5] 	c #8B4F49",
"6] 	c #884D47",
"7] 	c #864A43",
"8] 	c #83473E",
"9] 	c #80443A",
"0] 	c #82453C",
"a] 	c #894C43",
"b] 	c #894D43",
"c] 	c #8D5047",
"d] 	c #965651",
"e] 	c #965550",
"f] 	c #844540",
"g] 	c #8B4E48",
"h] 	c #90544D",
"i] 	c #935A52",
"j] 	c #905753",
"k] 	c #8E5551",
"l] 	c #8E5552",
"m] 	c #8F5552",
"n] 	c #8A4E4C",
"o] 	c #844846",
"p] 	c #7F4340",
"q] 	c #7E4643",
"r] 	c #7C4740",
"s] 	c #7B4840",
"t] 	c #73403A",
"u] 	c #673933",
"v] 	c #613530",
"w] 	c #5F3530",
"x] 	c #582F2A",
"y] 	c #532E29",
"z] 	c #4F2F2D",
"A] 	c #462D2C",
"B] 	c #453739",
"C] 	c #4D484C",
"D] 	c #49474C",
"E] 	c #3B393C",
"F] 	c #2E1F1D",
"G] 	c #261513",
"H] 	c #241310",
"I] 	c #1E100D",
"J] 	c #170C09",
"K] 	c #110706",
"L] 	c #080302",
"M] 	c #000000",
"N] 	c #050404",
"O] 	c #0D0B0C",
"P] 	c #121012",
"Q] 	c #161113",
"R] 	c #140C0D",
"S] 	c #1C0D0D",
"T] 	c #241211",
"U] 	c #2C1615",
"V] 	c #361C1A",
"W] 	c #3E2320",
"X] 	c #4A2D2A",
"Y] 	c #573734",
"Z] 	c #613E3C",
"`] 	c #684340",
" ^ 	c #714A47",
".^ 	c #764B48",
"+^ 	c #774B47",
"@^ 	c #7B4D47",
"#^ 	c #80504A",
"$^ 	c #87534C",
"%^ 	c #8C5650",
"&^ 	c #8C534F",
"*^ 	c #965C57",
"=^ 	c #965B59",
"-^ 	c #874E4C",
";^ 	c #935C59",
">^ 	c #8C5753",
",^ 	c #8F5A56",
"'^ 	c #8C5854",
")^ 	c #8A544F",
"!^ 	c #8B544F",
"~^ 	c #8C5550",
"{^ 	c #915A55",
"]^ 	c #925C56",
"^^ 	c #945D58",
"/^ 	c #9A5E57",
"(^ 	c #975D56",
"_^ 	c #834941",
":^ 	c #884E46",
"<^ 	c #894E47",
"[^ 	c #874C45",
"}^ 	c #854A43",
"|^ 	c #824840",
"1^ 	c #7F463E",
"2^ 	c #81473F",
"3^ 	c #864C44",
"4^ 	c #8C524A",
"5^ 	c #915551",
"6^ 	c #915350",
"7^ 	c #834743",
"8^ 	c #874D49",
"9^ 	c #8F5853",
"0^ 	c #905A54",
"a^ 	c #8C5754",
"b^ 	c #8B5654",
"c^ 	c #8E5755",
"d^ 	c #8D5655",
"e^ 	c #88504E",
"f^ 	c #7F4847",
"g^ 	c #794140",
"h^ 	c #764240",
"i^ 	c #73433E",
"j^ 	c #72433E",
"k^ 	c #6B3D38",
"l^ 	c #693E39",
"m^ 	c #5F3631",
"n^ 	c #58322D",
"o^ 	c #57312D",
"p^ 	c #4E2B26",
"q^ 	c #492925",
"r^ 	c #442927",
"s^ 	c #3B2525",
"t^ 	c #392D2F",
"u^ 	c #403B3E",
"v^ 	c #3B3A3E",
"w^ 	c #2D2B2E",
"x^ 	c #231715",
"y^ 	c #1C0E0D",
"z^ 	c #150A08",
"A^ 	c #0F0705",
"B^ 	c #0C0504",
"C^ 	c #020202",
"D^ 	c #060606",
"E^ 	c #0B090B",
"F^ 	c #0F0B0D",
"G^ 	c #0F0809",
"H^ 	c #150909",
"I^ 	c #1C0D0C",
"J^ 	c #241110",
"K^ 	c #2E1816",
"L^ 	c #371F1D",
"M^ 	c #432928",
"N^ 	c #503331",
"O^ 	c #5A3B39",
"P^ 	c #62403E",
"Q^ 	c #6C4745",
"R^ 	c #734A45",
"S^ 	c #794B45",
"T^ 	c #86514C",
"U^ 	c #8C5551",
"V^ 	c #8C5350",
"W^ 	c #975E5A",
"X^ 	c #854B4B",
"Y^ 	c #864D4D",
"Z^ 	c #935B5A",
"`^ 	c #8D5756",
" / 	c #8F5A58",
"./ 	c #8B5755",
"+/ 	c #895451",
"@/ 	c #895350",
"#/ 	c #89534F",
"$/ 	c #8F5955",
"%/ 	c #935D58",
"&/ 	c #955C53",
"*/ 	c #8C544A",
"=/ 	c #864D44",
"-/ 	c #854C42",
";/ 	c #82493F",
">/ 	c #814840",
",/ 	c #7E4740",
"'/ 	c #814E49",
")/ 	c #7C4A45",
"!/ 	c #7F4D47",
"~/ 	c #8B5953",
"{/ 	c #7C4947",
"]/ 	c #7E4948",
"^/ 	c #7A4845",
"// 	c #794845",
"(/ 	c #92635F",
"_/ 	c #865854",
":/ 	c #845656",
"</ 	c #845756",
"[/ 	c #845655",
"}/ 	c #835454",
"|/ 	c #815252",
"1/ 	c #754546",
"2/ 	c #6B3A3C",
"3/ 	c #633635",
"4/ 	c #603734",
"5/ 	c #5F3937",
"6/ 	c #5B3835",
"7/ 	c #563431",
"8/ 	c #4D2D2B",
"9/ 	c #482B29",
"0/ 	c #442825",
"a/ 	c #3E2421",
"b/ 	c #351F1D",
"c/ 	c #2A1919",
"d/ 	c #292021",
"e/ 	c #2F2C2E",
"f/ 	c #2C2B2E",
"g/ 	c #212022",
"h/ 	c #1C1111",
"i/ 	c #120807",
"j/ 	c #030303",
"k/ 	c #050505",
"l/ 	c #090607",
"m/ 	c #080405",
"n/ 	c #0C0404",
"o/ 	c #110606",
"p/ 	c #1A0C0B",
"q/ 	c #251312",
"r/ 	c #33201F",
"s/ 	c #3A2523",
"t/ 	c #442D2B",
"u/ 	c #4F3534",
"v/ 	c #5A3E3C",
"w/ 	c #5F413F",
"x/ 	c #664544",
"y/ 	c #6E4846",
"z/ 	c #754947",
"A/ 	c #7F514F",
"B/ 	c #814F4E",
"C/ 	c #7F4B4A",
"D/ 	c #895353",
"E/ 	c #8E5758",
"F/ 	c #986060",
"G/ 	c #874E52",
"H/ 	c #7B4446",
"I/ 	c #7A4345",
"J/ 	c #8C5558",
"K/ 	c #905B5E",
"L/ 	c #915E60",
"M/ 	c #885556",
"N/ 	c #845051",
"O/ 	c #855150",
"P/ 	c #85514F",
"Q/ 	c #834E4D",
"R/ 	c #834D4D",
"S/ 	c #85524F",
"T/ 	c #8F5C59",
"U/ 	c #905A5A",
"V/ 	c #795656",
"W/ 	c #886667",
"X/ 	c #8C6C6D",
"Y/ 	c #947474",
"Z/ 	c #947475",
"`/ 	c #8F7174",
" ( 	c #8E7274",
".( 	c #8D7274",
"+( 	c #896E70",
"@( 	c #83696A",
"#( 	c #846A6B",
"$( 	c #896D6F",
"%( 	c #907476",
"&( 	c #8C7179",
"*( 	c #8E7279",
"=( 	c #A78D94",
"-( 	c #A28A90",
";( 	c #9C858B",
">( 	c #A48D92",
",( 	c #A79398",
"'( 	c #A99699",
")( 	c #A89598",
"!( 	c #A69396",
"~( 	c #A79396",
"{( 	c #A28E91",
"]( 	c #978084",
"^( 	c #978284",
"/( 	c #978286",
"(( 	c #8E7C80",
"_( 	c #847377",
":( 	c #736366",
"<( 	c #716165",
"[( 	c #635357",
"}( 	c #57494C",
"|( 	c #5A4D50",
"1( 	c #564A4D",
"2( 	c #4D4142",
"3( 	c #473B3C",
"4( 	c #3C3132",
"5( 	c #312828",
"6( 	c #2C2728",
"7( 	c #2C2B2D",
"8( 	c #262628",
"9( 	c #1D1D1E",
"0( 	c #151112",
"a( 	c #0D0809",
"b( 	c #080505",
"c( 	c #070404",
"d( 	c #030202",
"e( 	c #060506",
"f( 	c #0B090A",
"g( 	c #130F11",
"h( 	c #1B1718",
"i( 	c #241E1F",
"j( 	c #2E2829",
"k( 	c #3D3536",
"l( 	c #473D40",
"m( 	c #544A4D",
"n( 	c #5D5154",
"o( 	c #675A5E",
"p( 	c #74666A",
"q( 	c #7D6E73",
"r( 	c #867478",
"s( 	c #8F7A7D",
"t( 	c #927C80",
"u( 	c #957D81",
"v( 	c #997F84",
"w( 	c #816167",
"x( 	c #8D6C72",
"y( 	c #7E5C65",
"z( 	c #82616C",
"A( 	c #92757E",
"B( 	c #8F727B",
"C( 	c #8C6F78",
"D( 	c #92767E",
"E( 	c #9F868E",
"F( 	c #9B8288",
"G( 	c #91767C",
"H( 	c #8E7276",
"I( 	c #8B6F74",
"J( 	c #8A6E73",
"K( 	c #896D71",
"L( 	c #876B6F",
"M( 	c #8A6D73",
"N( 	c #735C60",
"O( 	c #775E63",
"P( 	c #8B7176",
"Q( 	c #91787C",
"R( 	c #9B8285",
"S( 	c #9C8387",
"T( 	c #978085",
"U( 	c #948084",
"V( 	c #937E82",
"W( 	c #8F7A7E",
"X( 	c #897579",
"Y( 	c #887579",
"Z( 	c #8D787D",
"`( 	c #958084",
" _ 	c #95808A",
"._ 	c #96818A",
"+_ 	c #B19CA4",
"@_ 	c #AC99A2",
"#_ 	c #A8969F",
"$_ 	c #AB9AA2",
"%_ 	c #B0A1A9",
"&_ 	c #B4A7AB",
"*_ 	c #B2A6A9",
"=_ 	c #AFA3A6",
"-_ 	c #AEA0A3",
";_ 	c #A89A9D",
">_ 	c #9C8C90",
",_ 	c #9D8C91",
"'_ 	c #93868A",
")_ 	c #877A80",
"!_ 	c #75696F",
"~_ 	c #71666B",
"{_ 	c #60575C",
"]_ 	c #544B4E",
"^_ 	c #574E52",
"/_ 	c #524A4E",
"(_ 	c #494042",
"__ 	c #42393B",
":_ 	c #372F30",
"<_ 	c #2C2627",
"[_ 	c #262223",
"}_ 	c #232224",
"|_ 	c #151617",
"1_ 	c #0E0C0D",
"2_ 	c #080606",
"3_ 	c #040303",
"4_ 	c #040404",
"5_ 	c #090808",
"6_ 	c #110E10",
"7_ 	c #1A1718",
"8_ 	c #231F21",
"9_ 	c #2E2A2B",
"0_ 	c #3D3739",
"a_ 	c #484245",
"b_ 	c #564F53",
"c_ 	c #6B6166",
"d_ 	c #796E74",
"e_ 	c #83787F",
"f_ 	c #8D8187",
"g_ 	c #97888C",
"h_ 	c #9B8A8F",
"i_ 	c #9D8C92",
"j_ 	c #A39095",
"k_ 	c #A18E94",
"l_ 	c #836F77",
"m_ 	c #8E777F",
"n_ 	c #826C75",
"o_ 	c #8B737F",
"p_ 	c #9E8992",
"q_ 	c #96828B",
"r_ 	c #917E87",
"s_ 	c #97858E",
"t_ 	c #A4929A",
"u_ 	c #99868D",
"v_ 	c #948187",
"w_ 	c #927E84",
"x_ 	c #907C82",
"y_ 	c #8E7B81",
"z_ 	c #88757C",
"A_ 	c #8B777E",
"B_ 	c #978A96",
"C_ 	c #978B97",
"D_ 	c #9C8F9C",
"E_ 	c #A194A0",
"F_ 	c #AB9EAB",
"G_ 	c #AEA2AD",
"H_ 	c #ADA1AA",
"I_ 	c #A79BA3",
"J_ 	c #A2979E",
"K_ 	c #A3989F",
"L_ 	c #9E9299",
"M_ 	c #AC9FA7",
"N_ 	c #AFA2AA",
"O_ 	c #B1A5B2",
"P_ 	c #B1A4B2",
"Q_ 	c #A79BA9",
"R_ 	c #ABA2AE",
"S_ 	c #BCB4C0",
"T_ 	c #B5AEB9",
"U_ 	c #AEA9B4",
"V_ 	c #BEBCC1",
"W_ 	c #C2C0C4",
"X_ 	c #BAB7BA",
"Y_ 	c #AEAAAD",
"Z_ 	c #A4A0A3",
"`_ 	c #A19B9F",
" : 	c #9C959A",
".: 	c #999197",
"+: 	c #89828A",
"@: 	c #807C85",
"#: 	c #827D85",
"$: 	c #726D75",
"%: 	c #67646B",
"&: 	c #5A575D",
"*: 	c #58555B",
"=: 	c #504D52",
"-: 	c #474346",
";: 	c #3E393B",
">: 	c #363233",
",: 	c #2D2829",
"': 	c #232122",
"): 	c #1C1C1D",
"!: 	c #121314",
"~: 	c #0F1011",
"{: 	c #080809",
"]: 	c #010001",
"^: 	c #070607",
"/: 	c #0F0E10",
"(: 	c #161617",
"_: 	c #222123",
":: 	c #2D2E2F",
"<: 	c #403F42",
"[: 	c #4F4D51",
"}: 	c #605D62",
"|: 	c #6C696E",
"1: 	c #78757B",
"2: 	c #848087",
"3: 	c #938E95",
"4: 	c #9F9BA1",
"5: 	c #A5A2A8",
"6: 	c #ABA8AD",
"7: 	c #B3AFB5",
"8: 	c #B9B3BA",
"9: 	c #B6B0B7",
"0: 	c #B3AAB2",
"a: 	c #B0A7AF",
"b: 	c #B4A9B4",
"c: 	c #B7ADB8",
"d: 	c #C3BAC5",
"e: 	c #BBB5BF",
"f: 	c #B9B5BE",
"g: 	c #BCB9C1",
"h: 	c #BAB6BF",
"i: 	c #B7B3BB",
"j: 	c #B6B2B9",
"k: 	c #B4AFB6",
"l: 	c #AEA8AF",
"m: 	c #ACA6AE",
"n: 	c #AEA9B1",
"o: 	c #A49FA7",
"p: 	c #9F99A0",
"q: 	c #AA9A9D",
"r: 	c #B8A8AB",
"s: 	c #C3B2B5",
"t: 	c #C8B7B9",
"u: 	c #C8B8BA",
"v: 	c #C1B0B4",
"w: 	c #BEAEB3",
"x: 	c #C3B5B9",
"y: 	c #CABCBF",
"z: 	c #C6BABC",
"A: 	c #C4B7BB",
"B: 	c #C2B6BA",
"C: 	c #C7BCBD",
"D: 	c #C6B6B9",
"E: 	c #C6B7BE",
"F: 	c #BCB7C0",
"G: 	c #BABDC8",
"H: 	c #C7C7D0",
"I: 	c #C8C0C7",
"J: 	c #CAC0C2",
"K: 	c #C6BEBE",
"L: 	c #BBB2B1",
"M: 	c #B2A9A9",
"N: 	c #B3AAA9",
"O: 	c #B6ABAB",
"P: 	c #ABA2A1",
"Q: 	c #93898A",
"R: 	c #999191",
"S: 	c #958D8D",
"T: 	c #7C7475",
"U: 	c #706869",
"V: 	c #66605F",
"W: 	c #625B5A",
"X: 	c #524C4B",
"Y: 	c #433D3E",
"Z: 	c #403A3B",
"`: 	c #393434",
" < 	c #2E2929",
".< 	c #252121",
"+< 	c #1E1B1B",
"@< 	c #161515",
"#< 	c #100F0F",
"$< 	c #0B0A0A",
"%< 	c #070606",
"&< 	c #0D0A0B",
"*< 	c #161313",
"=< 	c #242020",
"-< 	c #3E3738",
";< 	c #4C4444",
">< 	c #5E5555",
",< 	c #655B5C",
"'< 	c #746969",
")< 	c #7D7172",
"!< 	c #877A7C",
"~< 	c #9A8B8C",
"{< 	c #AD9C9B",
"]< 	c #B3A2A1",
"^< 	c #B9ABAA",
"/< 	c #C0B3B3",
"(< 	c #CEC3C3",
"_< 	c #A8A3A9",
":< 	c #ABA8B0",
"<< 	c #D0C9CB",
"[< 	c #CEC2C4",
"}< 	c #D1BABD",
"|< 	c #CCB5B7",
"1< 	c #BDACAC",
"2< 	c #C0AFB1",
"3< 	c #C0ABAF",
"4< 	c #C3B1B5",
"5< 	c #C8BCBC",
"6< 	c #CBC2C0",
"7< 	c #CEC3C1",
"8< 	c #C8BCB9",
"9< 	c #CDBFBD",
"0< 	c #CABAB8",
"a< 	c #AA9A98",
"b< 	c #B4A2A0",
"c< 	c #C9B7B5",
"d< 	c #D5C2C1",
"e< 	c #DAC6C5",
"f< 	c #D5C3C1",
"g< 	c #CCB9B8",
"h< 	c #CAB7B8",
"i< 	c #C9B7B9",
"j< 	c #CBBABC",
"k< 	c #D2C2C4",
"l< 	c #DBCCCE",
"m< 	c #D9CBCC",
"n< 	c #CFC2C3",
"o< 	c #CBC0C0",
"p< 	c #D1C7C2",
"q< 	c #D0BEBB",
"r< 	c #D5C5C8",
"s< 	c #C6C3CA",
"t< 	c #B7C2CB",
"u< 	c #D1D3DC",
"v< 	c #D4CACE",
"w< 	c #CEBFBF",
"x< 	c #C6B8B6",
"y< 	c #B8ACA9",
"z< 	c #B1A5A2",
"A< 	c #B6AAA8",
"B< 	c #BAAEAC",
"C< 	c #AEA2A0",
"D< 	c #8A807E",
"E< 	c #9A918E",
"F< 	c #988D89",
"G< 	c #726966",
"H< 	c #695F5D",
"I< 	c #5F5652",
"J< 	c #5D5552",
"K< 	c #47403D",
"L< 	c #36302E",
"M< 	c #36312F",
"N< 	c #2F2B2A",
"O< 	c #24201F",
"P< 	c #1C1918",
"Q< 	c #161413",
"R< 	c #100E0D",
"S< 	c #0C0A0A",
"T< 	c #060505",
"U< 	c #000101",
"V< 	c #0C0909",
"W< 	c #161111",
"X< 	c #261F1E",
"Y< 	c #2F2625",
"Z< 	c #3D3331",
"`< 	c #4B3F3C",
" [ 	c #5E504D",
".[ 	c #61514E",
"+[ 	c #71605C",
"@[ 	c #796663",
"#[ 	c #7F6B67",
"$[ 	c #967E7A",
"%[ 	c #AF9691",
"&[ 	c #B59C96",
"*[ 	c #BCA6A0",
"=[ 	c #C3B2AC",
"-[ 	c #D9CBC8",
";[ 	c #A29FA4",
">[ 	c #A8A8B1",
",[ 	c #DFD9D7",
"'[ 	c #D9CCC9",
")[ 	c #D7B8B6",
"![ 	c #D3B4B0",
"~[ 	c #BEA49E",
"{[ 	c #C0A7A3",
"][ 	c #C1A1A2",
"^[ 	c #C9AEAE",
"/[ 	c #D0BFBB",
"([ 	c #D6CAC4",
"_[ 	c #DECFC9",
":[ 	c #D5C5BE",
"<[ 	c #DCC9C1",
"[[ 	c #DBC7C0",
"}[ 	c #AF9891",
"|[ 	c #A48383",
"1[ 	c #AD8E8C",
"2[ 	c #A07E7E",
"3[ 	c #967474",
"4[ 	c #866464",
"5[ 	c #876465",
"6[ 	c #8A6868",
"7[ 	c #8D6D6C",
"8[ 	c #8E6F6D",
"9[ 	c #8A6C69",
"0[ 	c #886B69",
"a[ 	c #8C716E",
"b[ 	c #7A615D",
"c[ 	c #806763",
"d[ 	c #967F7A",
"e[ 	c #967876",
"f[ 	c #B09598",
"g[ 	c #C4B9C1",
"h[ 	c #B4B7C1",
"i[ 	c #C4C2CB",
"j[ 	c #B3A3A6",
"k[ 	c #8E7574",
"l[ 	c #8C6F6F",
"m[ 	c #826766",
"n[ 	c #765C5B",
"o[ 	c #705757",
"p[ 	c #6C5453",
"q[ 	c #6F5857",
"r[ 	c #654F4E",
"s[ 	c #593E3E",
"t[ 	c #6E5455",
"u[ 	c #4C3334",
"v[ 	c #4C3434",
"w[ 	c #362120",
"x[ 	c #2B1817",
"y[ 	c #221110",
"z[ 	c #1A0E0D",
"A[ 	c #150C0C",
"B[ 	c #100909",
"C[ 	c #0B0606",
"D[ 	c #090605",
"E[ 	c #070505",
"F[ 	c #040302",
"G[ 	c #060303",
"H[ 	c #130908",
"I[ 	c #1E100F",
"J[ 	c #2B1B1A",
"K[ 	c #3D2B28",
"L[ 	c #432E2B",
"M[ 	c #442B28",
"N[ 	c #503430",
"O[ 	c #5F423E",
"P[ 	c #674643",
"Q[ 	c #6A4844",
"R[ 	c #6E4944",
"S[ 	c #714C47",
"T[ 	c #795853",
"U[ 	c #80645E",
"V[ 	c #8C7472",
"W[ 	c #A4989F",
"X[ 	c #B5AFB8",
"Y[ 	c #B2A6A6",
"Z[ 	c #927B79",
"`[ 	c #805553",
" } 	c #845754",
".} 	c #6F4743",
"+} 	c #714043",
"@} 	c #734246",
"#} 	c #794C4E",
"$} 	c #8D6263",
"%} 	c #A37778",
"&} 	c #956666",
"*} 	c #855452",
"=} 	c #875554",
"-} 	c #844D4C",
";} 	c #976B6B",
">} 	c #9A7171",
",} 	c #926666",
"'} 	c #8D5F5F",
")} 	c #875757",
"!} 	c #895858",
"~} 	c #8A5B5A",
"{} 	c #8E605D",
"]} 	c #90635E",
"^} 	c #8F625D",
"/} 	c #8D625D",
"(} 	c #8F6560",
"_} 	c #875E57",
":} 	c #8C635D",
"<} 	c #96726E",
"[} 	c #956B6A",
"}} 	c #A68487",
"|} 	c #C0AEB5",
"1} 	c #B6B4BD",
"2} 	c #C3BDC3",
"3} 	c #B19D9E",
"4} 	c #8E6C6B",
"5} 	c #865F5E",
"6} 	c #7E5857",
"7} 	c #724E4C",
"8} 	c #684544",
"9} 	c #644442",
"0} 	c #654645",
"a} 	c #5C3F3E",
"b} 	c #533233",
"c} 	c #583D3D",
"d} 	c #412626",
"e} 	c #3E2525",
"f} 	c #2C1715",
"g} 	c #261110",
"h} 	c #1D0B0A",
"i} 	c #150807",
"j} 	c #100606",
"k} 	c #0B0404",
"l} 	c #070303",
"m} 	c #040202",
"n} 	c #020201",
"o} 	c #0B0303",
"p} 	c #160908",
"q} 	c #200F0D",
"r} 	c #2C1716",
"s} 	c #3C2421",
"t} 	c #482724",
"u} 	c #542F2C",
"v} 	c #613A37",
"w} 	c #673D3A",
"x} 	c #6E413D",
"y} 	c #754641",
"z} 	c #754741",
"A} 	c #7E524D",
"B} 	c #815A56",
"C} 	c #876966",
"D} 	c #AB9CA1",
"E} 	c #B8B1B8",
"F} 	c #B7A0A1",
"G} 	c #896868",
"H} 	c #854C4A",
"I} 	c #804B47",
"J} 	c #844748",
"K} 	c #87484B",
"L} 	c #874D4E",
"M} 	c #8E5858",
"N} 	c #965C5C",
"O} 	c #8B4E4B",
"P} 	c #8B4E4C",
"Q} 	c #8B4B48",
"R} 	c #844141",
"S} 	c #7F3D3D",
"T} 	c #823F3F",
"U} 	c #834040",
"V} 	c #894747",
"W} 	c #8C4A4A",
"X} 	c #8D4C49",
"Y} 	c #905149",
"Z} 	c #94554D",
"`} 	c #965850",
" | 	c #94584F",
".| 	c #975E53",
"+| 	c #9B6258",
"@| 	c #986160",
"#| 	c #965A5B",
"$| 	c #9A6C70",
"%| 	c #BBA1A6",
"&| 	c #B8B0B8",
"*| 	c #C2B7BB",
"=| 	c #AE9796",
"-| 	c #906360",
";| 	c #7D4746",
">| 	c #703D3B",
",| 	c #602F2E",
"'| 	c #5E302F",
")| 	c #5C3230",
"!| 	c #532B2B",
"~| 	c #4E2828",
"{| 	c #3F1C1B",
"]| 	c #381817",
"^| 	c #301514",
"/| 	c #230D0B",
"(| 	c #210D0B",
"_| 	c #180706",
":| 	c #110404",
"<| 	c #090809",
"[| 	c #050203",
"}| 	c #100403",
"|| 	c #1D0A09",
"1| 	c #240E0C",
"2| 	c #2E1310",
"3| 	c #3A1816",
"4| 	c #451E1D",
"5| 	c #4E2120",
"6| 	c #5B2B29",
"7| 	c #65302E",
"8| 	c #69312E",
"9| 	c #743936",
"0| 	c #80453E",
"a| 	c #7E433C",
"b| 	c #84524E",
"c| 	c #845B59",
"d| 	c #B3A0A3",
"e| 	c #BCB2B9",
"f| 	c #BD9B9D",
"g| 	c #804E50",
"h| 	c #8B4646",
"i| 	c #88423F",
"j| 	c #95554F",
"k| 	c #94544F",
"l| 	c #9A5152",
"m| 	c #9C5255",
"n| 	c #995253",
"o| 	c #924D4D",
"p| 	c #914C4A",
"q| 	c #995451",
"r| 	c #934C48",
"s| 	c #924B46",
"t| 	c #934C46",
"u| 	c #89433F",
"v| 	c #7B3532",
"w| 	c #7D3735",
"x| 	c #823B39",
"y| 	c #914A47",
"z| 	c #944E4B",
"A| 	c #98534E",
"B| 	c #9B5752",
"C| 	c #9D5A54",
"D| 	c #9D5A55",
"E| 	c #9B5B54",
"F| 	c #975750",
"G| 	c #985A52",
"H| 	c #A2655D",
"I| 	c #935756",
"J| 	c #995959",
"K| 	c #9D7070",
"L| 	c #B69EA0",
"M| 	c #BBB7BB",
"N| 	c #BDB7B8",
"O| 	c #9F8C88",
"P| 	c #865954",
"Q| 	c #7E4641",
"R| 	c #7A423D",
"S| 	c #733E39",
"T| 	c #693833",
"U| 	c #5F302C",
"V| 	c #522824",
"W| 	c #48221F",
"X| 	c #43221F",
"Y| 	c #3D221D",
"Z| 	c #301714",
"`| 	c #26110E",
" 1 	c #281713",
".1 	c #190907",
"+1 	c #110503",
"@1 	c #050303",
"#1 	c #0D0C0C",
"$1 	c #080404",
"%1 	c #100504",
"&1 	c #190807",
"*1 	c #220E0B",
"=1 	c #29100D",
"-1 	c #311210",
";1 	c #3A1613",
">1 	c #481E1B",
",1 	c #532421",
"'1 	c #632F2C",
")1 	c #692E2A",
"!1 	c #71342E",
"~1 	c #7E4137",
"{1 	c #81443C",
"]1 	c #7D453D",
"^1 	c #7B4942",
"/1 	c #784F4A",
"(1 	c #A79A9B",
"_1 	c #ACA8AD",
":1 	c #C6A2A3",
"<1 	c #8A5858",
"[1 	c #995351",
"}1 	c #904A44",
"|1 	c #924A46",
"11 	c #944C49",
"21 	c #8D4A45",
"31 	c #85453F",
"41 	c #874841",
"51 	c #905249",
"61 	c #83443A",
"71 	c #894A3F",
"81 	c #88493D",
"91 	c #84403B",
"01 	c #793430",
"a1 	c #813C37",
"b1 	c #833E39",
"c1 	c #8F4A46",
"d1 	c #924D49",
"e1 	c #934F4A",
"f1 	c #985551",
"g1 	c #9C5956",
"h1 	c #9C5A57",
"i1 	c #9B5B57",
"j1 	c #965753",
"k1 	c #955852",
"l1 	c #9C5F59",
"m1 	c #925655",
"n1 	c #985A5A",
"o1 	c #976C6B",
"p1 	c #B09B9C",
"q1 	c #B8B8B9",
"r1 	c #B9B6B6",
"s1 	c #AA9996",
"t1 	c #865D57",
"u1 	c #7A443D",
"v1 	c #744039",
"w1 	c #6D3B35",
"x1 	c #63352F",
"y1 	c #582E28",
"z1 	c #421F1B",
"A1 	c #3A1D18",
"B1 	c #341B17",
"C1 	c #1F0C09",
"D1 	c #1E0F0C",
"E1 	c #0C0808",
"F1 	c #151515",
"G1 	c #0F0707",
"H1 	c #140706",
"I1 	c #120605",
"J1 	c #110504",
"K1 	c #0F0403",
"L1 	c #0A0202",
"M1 	c #170806",
"N1 	c #1F0D0B",
"O1 	c #28120F",
"P1 	c #2E130F",
"Q1 	c #361613",
"R1 	c #3F1A16",
"S1 	c #4B201C",
"T1 	c #552622",
"U1 	c #63302B",
"V1 	c #69332D",
"W1 	c #6B312B",
"X1 	c #71362E",
"Y1 	c #7A3F34",
"Z1 	c #7E4238",
"`1 	c #7A4239",
" 2 	c #76453E",
".2 	c #744D48",
"+2 	c #A79B9C",
"@2 	c #ABABAF",
"#2 	c #BA9999",
"$2 	c #825252",
"%2 	c #975350",
"&2 	c #924F48",
"*2 	c #8E5045",
"=2 	c #87493E",
"-2 	c #944C47",
";2 	c #8E4A43",
">2 	c #87453E",
",2 	c #88463F",
"'2 	c #834237",
")2 	c #89493C",
"!2 	c #894A3C",
"~2 	c #77372E",
"{2 	c #75342C",
"]2 	c #8A483F",
"^2 	c #8B4942",
"/2 	c #84433F",
"(2 	c #8D4D4C",
"_2 	c #965657",
":2 	c #99595A",
"<2 	c #995C5C",
"[2 	c #955959",
"}2 	c #8F5353",
"|2 	c #8C5150",
"12 	c #915755",
"22 	c #995C5B",
"32 	c #84615E",
"42 	c #A29795",
"52 	c #B0B8B8",
"62 	c #B3B4B2",
"72 	c #C6B7B2",
"82 	c #8A6760",
"92 	c #734237",
"02 	c #6D3E33",
"a2 	c #63382D",
"b2 	c #593127",
"c2 	c #502B22",
"d2 	c #46241C",
"e2 	c #3D1F19",
"f2 	c #321510",
"g2 	c #290F0C",
"h2 	c #210B08",
"i2 	c #190705",
"j2 	c #110403",
"k2 	c #0E0504",
"l2 	c #191514",
"m2 	c #202122",
"n2 	c #222223",
"o2 	c #170E0D",
"p2 	c #160B09",
"q2 	c #1C0D09",
"r2 	c #1C0D0A",
"s2 	c #1D0E0B",
"t2 	c #1A0C09",
"u2 	c #160704",
"v2 	c #130503",
"w2 	c #0F0402",
"x2 	c #0C0402",
"y2 	c #190B08",
"z2 	c #1E0E0B",
"A2 	c #2C1511",
"B2 	c #311610",
"C2 	c #3E1E18",
"D2 	c #46211B",
"E2 	c #4C241D",
"F2 	c #67342B",
"G2 	c #6E382E",
"H2 	c #6E392D",
"I2 	c #6F3A2B",
"J2 	c #733D2E",
"K2 	c #703A31",
"L2 	c #6A3B33",
"M2 	c #6F4946",
"N2 	c #A49E9E",
"O2 	c #AAB0B3",
"P2 	c #947B7A",
"Q2 	c #6A3E3C",
"R2 	c #8F514C",
"S2 	c #874F3F",
"T2 	c #844B3B",
"U2 	c #8D4C40",
"V2 	c #944D45",
"W2 	c #954B44",
"X2 	c #8F443E",
"Y2 	c #8E443C",
"Z2 	c #964C43",
"`2 	c #853F33",
" 3 	c #8B4537",
".3 	c #8F4C3C",
"+3 	c #7F3E36",
"@3 	c #814037",
"#3 	c #834138",
"$3 	c #824038",
"%3 	c #844239",
"&3 	c #834239",
"*3 	c #8B4A45",
"=3 	c #945350",
"-3 	c #945452",
";3 	c #90514F",
">3 	c #905450",
",3 	c #8B504C",
"'3 	c #844A46",
")3 	c #854B47",
"!3 	c #874C4D",
"~3 	c #935656",
"{3 	c #825E5D",
"]3 	c #9F9393",
"^3 	c #AAB0B4",
"/3 	c #BAB5B6",
"(3 	c #B5A2A0",
"_3 	c #89625C",
":3 	c #75453A",
"<3 	c #683C31",
"[3 	c #60372D",
"}3 	c #5A342B",
"|3 	c #4D2A22",
"13 	c #40211A",
"23 	c #31160F",
"33 	c #2A100C",
"43 	c #220A08",
"53 	c #190604",
"63 	c #120303",
"73 	c #0B0201",
"83 	c #120604",
"93 	c #150C0B",
"03 	c #292323",
"a3 	c #2B2C2D",
"b3 	c #313133",
"c3 	c #211514",
"d3 	c #211210",
"e3 	c #241411",
"f3 	c #281612",
"g3 	c #281511",
"h3 	c #271410",
"i3 	c #261410",
"j3 	c #22100C",
"k3 	c #200D09",
"l3 	c #200E0A",
"m3 	c #1F0D0A",
"n3 	c #1E0D09",
"o3 	c #1E0D0A",
"p3 	c #1A0A08",
"q3 	c #160907",
"r3 	c #150806",
"s3 	c #150805",
"t3 	c #180907",
"u3 	c #1A0B08",
"v3 	c #24100C",
"w3 	c #2B1410",
"x3 	c #3E201A",
"y3 	c #43201B",
"z3 	c #4B241E",
"A3 	c #532922",
"B3 	c #5C2F27",
"C3 	c #64342D",
"D3 	c #6E3B32",
"E3 	c #733E34",
"F3 	c #753F33",
"G3 	c #774232",
"H3 	c #7A4335",
"I3 	c #783E36",
"J3 	c #703C36",
"K3 	c #653B3B",
"L3 	c #AFA2A8",
"M3 	c #ADAEB5",
"N3 	c #A98D8F",
"O3 	c #764849",
"P3 	c #8C4D4A",
"Q3 	c #8C4C45",
"R3 	c #884E3F",
"S3 	c #864D3C",
"T3 	c #954B43",
"U3 	c #974944",
"V3 	c #934440",
"W3 	c #8E3F39",
"X3 	c #944740",
"Y3 	c #8D4237",
"Z3 	c #8E4439",
"`3 	c #924A3C",
" 4 	c #803E36",
".4 	c #84423A",
"+4 	c #823F38",
"@4 	c #844139",
"#4 	c #834139",
"$4 	c #8C4A45",
"%4 	c #94534E",
"&4 	c #94534F",
"*4 	c #90514C",
"=4 	c #8F524D",
"-4 	c #894E48",
";4 	c #824842",
">4 	c #854A44",
",4 	c #85494B",
"'4 	c #905354",
")4 	c #835D5D",
"!4 	c #A19394",
"~4 	c #AAACB2",
"{4 	c #B7B0B2",
"]4 	c #A69292",
"^4 	c #835B55",
"/4 	c #714338",
"(4 	c #65392F",
"_4 	c #5D352C",
":4 	c #563129",
"<4 	c #46261E",
"[4 	c #3C1E18",
"}4 	c #2B120D",
"|4 	c #250D0A",
"14 	c #1D0806",
"24 	c #140504",
"34 	c #080101",
"44 	c #090201",
"54 	c #1B0A07",
"64 	c #1D0C09",
"74 	c #231717",
"84 	c #362F2E",
"94 	c #373839",
"04 	c #3F3F42",
"a4 	c #2C1D1C",
"b4 	c #2C1917",
"c4 	c #331D19",
"d4 	c #341D18",
"e4 	c #321C17",
"f4 	c #301A15",
"g4 	c #2C1612",
"h4 	c #2A140F",
"i4 	c #2A1510",
"j4 	c #29130F",
"k4 	c #2A1511",
"l4 	c #28130F",
"m4 	c #26110F",
"n4 	c #25110F",
"o4 	c #21100D",
"p4 	c #1F0F0B",
"q4 	c #1F0E0A",
"r4 	c #220F0C",
"s4 	c #24100E",
"t4 	c #2D1511",
"u4 	c #341814",
"v4 	c #3B1D18",
"w4 	c #47241F",
"x4 	c #4B2520",
"y4 	c #522923",
"z4 	c #5A2D27",
"A4 	c #6A3830",
"B4 	c #723F36",
"C4 	c #774138",
"D4 	c #794338",
"E4 	c #7B4536",
"F4 	c #7F463A",
"G4 	c #7D423B",
"H4 	c #773F3C",
"I4 	c #6A3C3D",
"J4 	c #B1A2A9",
"K4 	c #B1AFB8",
"L4 	c #B29397",
"M4 	c #794A4B",
"N4 	c #8D4C4B",
"O4 	c #8A4F41",
"P4 	c #884E3E",
"Q4 	c #964C44",
"R4 	c #974A44",
"S4 	c #934640",
"T4 	c #8D413A",
"U4 	c #92473F",
"V4 	c #8D453A",
"W4 	c #8E4639",
"X4 	c #914B3D",
"Y4 	c #7D3733",
"Z4 	c #88423E",
"`4 	c #88413D",
" 5 	c #86403C",
".5 	c #8D4643",
"+5 	c #8E4643",
"@5 	c #8A453E",
"#5 	c #8C483E",
"$5 	c #955247",
"%5 	c #9A574C",
"&5 	c #945347",
"*5 	c #8F4F43",
"=5 	c #844539",
"-5 	c #8A4A3F",
";5 	c #8A474A",
">5 	c #8E4A4F",
",5 	c #885C62",
"'5 	c #AD979F",
")5 	c #ADA6B1",
"!5 	c #A997A0",
"~5 	c #6A4B51",
"{5 	c #75443E",
"]5 	c #6B3A32",
"^5 	c #63352C",
"/5 	c #5E342C",
"(5 	c #512A23",
"_5 	c #3D1A15",
":5 	c #2D1410",
"<5 	c #110604",
"[5 	c #030000",
"}5 	c #100302",
"|5 	c #130403",
"15 	c #180604",
"25 	c #1D0A07",
"35 	c #1F0A07",
"45 	c #250E0C",
"55 	c #2A1311",
"65 	c #3A2A2B",
"75 	c #362B2D",
"85 	c #434044",
"95 	c #4C494C",
"05 	c #3A2526",
"a5 	c #3A2221",
"b5 	c #3E211E",
"c5 	c #40231E",
"d5 	c #3D211C",
"e5 	c #381B17",
"f5 	c #3B201B",
"g5 	c #3C221D",
"h5 	c #391E1A",
"i5 	c #3E231F",
"j5 	c #381E1A",
"k5 	c #371D1A",
"l5 	c #351B19",
"m5 	c #331918",
"n5 	c #331A19",
"o5 	c #2F1817",
"p5 	c #2D1715",
"q5 	c #2B1513",
"r5 	c #2C1512",
"s5 	c #301816",
"t5 	c #321917",
"u5 	c #2F1514",
"v5 	c #2F1413",
"w5 	c #381B1A",
"x5 	c #3B1C19",
"y5 	c #411F1C",
"z5 	c #47211E",
"A5 	c #4D2320",
"B5 	c #592C28",
"C5 	c #5F312C",
"D5 	c #663530",
"E5 	c #6E3832",
"F5 	c #7B423C",
"G5 	c #834942",
"H5 	c #844941",
"I5 	c #84483E",
"J5 	c #8D4C45",
"K5 	c #934D4B",
"L5 	c #904C4F",
"M5 	c #874D53",
"N5 	c #B599A6",
"O5 	c #C4B6C6",
"P5 	c #C9A2A9",
"Q5 	c #7C484C",
"R5 	c #924C4E",
"S5 	c #974F4E",
"T5 	c #955248",
"U5 	c #904E42",
"V5 	c #944C43",
"W5 	c #985047",
"X5 	c #945047",
"Y5 	c #8B4B42",
"Z5 	c #8B5042",
"`5 	c #864C3B",
" 6 	c #89503F",
".6 	c #7B332E",
"+6 	c #803933",
"@6 	c #853D37",
"#6 	c #87403A",
"$6 	c #8B443E",
"%6 	c #89423D",
"&6 	c #88413C",
"*6 	c #8C4743",
"=6 	c #934E49",
"-6 	c #944F4A",
";6 	c #8D4944",
">6 	c #86443E",
",6 	c #894641",
"'6 	c #8B4A4A",
")6 	c #894A4B",
"!6 	c #886165",
"~6 	c #A28E95",
"{6 	c #A59CA9",
"]6 	c #AD9AA2",
"^6 	c #886C6E",
"/6 	c #6D423E",
"(6 	c #63322C",
"_6 	c #592E28",
":6 	c #4A2420",
"<6 	c #3A1814",
"[6 	c #311411",
"}6 	c #270F0C",
"|6 	c #1E0B08",
"16 	c #120403",
"26 	c #1B0805",
"36 	c #210B07",
"46 	c #250F0A",
"56 	c #27110C",
"66 	c #2F1412",
"76 	c #361B1A",
"86 	c #423132",
"96 	c #433838",
"06 	c #4E4D4F",
"a6 	c #5B5759",
"b6 	c #47312F",
"c6 	c #462928",
"d6 	c #482725",
"e6 	c #4C2C27",
"f6 	c #4A2B26",
"g6 	c #482723",
"h6 	c #472622",
"i6 	c #492924",
"j6 	c #462823",
"k6 	c #452622",
"l6 	c #432621",
"m6 	c #422520",
"n6 	c #442622",
"o6 	c #422422",
"p6 	c #412222",
"q6 	c #422424",
"r6 	c #3B1F1E",
"s6 	c #3A1E1D",
"t6 	c #381D1C",
"u6 	c #381D1B",
"v6 	c #391C1B",
"w6 	c #3A1C1B",
"x6 	c #3B1D1A",
"y6 	c #3D1E1C",
"z6 	c #442220",
"A6 	c #492523",
"B6 	c #4D2824",
"C6 	c #532A27",
"D6 	c #562B27",
"E6 	c #592B27",
"F6 	c #663732",
"G6 	c #703E39",
"H6 	c #75413C",
"I6 	c #79433D",
"J6 	c #7A423B",
"K6 	c #7D433D",
"L6 	c #804740",
"M6 	c #874945",
"N6 	c #8C4A48",
"O6 	c #864F52",
"P6 	c #BBA1A8",
"Q6 	c #B7ADB5",
"R6 	c #BA9396",
"S6 	c #865353",
"T6 	c #915151",
"U6 	c #94514E",
"V6 	c #904D43",
"W6 	c #8D4B3F",
"X6 	c #8E4A3D",
"Y6 	c #8E493E",
"Z6 	c #8C493E",
"`6 	c #8A483D",
" 7 	c #8B493D",
".7 	c #8B493E",
"+7 	c #8D4D41",
"@7 	c #8B4C3F",
"#7 	c #8A4B3E",
"$7 	c #7A322C",
"%7 	c #7D342E",
"&7 	c #843B35",
"*7 	c #88403A",
"=7 	c #8A433D",
"-7 	c #8C4744",
";7 	c #924C4A",
">7 	c #904B49",
",7 	c #8A4542",
"'7 	c #86433F",
")7 	c #874440",
"!7 	c #874541",
"~7 	c #876366",
"{7 	c #9E8A92",
"]7 	c #A097A4",
"^7 	c #AB99A0",
"/7 	c #917676",
"(7 	c #6A413D",
"_7 	c #602F29",
":7 	c #5C2F29",
"<7 	c #532A25",
"[7 	c #45211D",
"}7 	c #2A0F0C",
"|7 	c #190805",
"17 	c #110402",
"27 	c #150503",
"37 	c #1A0704",
"47 	c #1F0A06",
"57 	c #250D08",
"67 	c #2A110B",
"77 	c #2E150F",
"87 	c #3A1A18",
"97 	c #422121",
"07 	c #4B3839",
"a7 	c #4D4242",
"b7 	c #5C5B5C",
"c7 	c #696565",
"d7 	c #543B38",
"e7 	c #52312F",
"f7 	c #532D2C",
"g7 	c #57342F",
"h7 	c #57342E",
"i7 	c #56302C",
"j7 	c #552E29",
"k7 	c #54312C",
"l7 	c #522F29",
"m7 	c #522F2A",
"n7 	c #4C2B26",
"o7 	c #4D2C27",
"p7 	c #4F2C2A",
"q7 	c #4D2B2A",
"r7 	c #4F2D2D",
"s7 	c #472625",
"t7 	c #462625",
"u7 	c #452423",
"v7 	c #432221",
"w7 	c #442120",
"x7 	c #4A2623",
"y7 	c #552D29",
"z7 	c #572F2B",
"A7 	c #5D312D",
"B7 	c #5C2D29",
"C7 	c #6C3B36",
"D7 	c #76433E",
"E7 	c #7C4742",
"F7 	c #7F4843",
"G7 	c #7B443E",
"H7 	c #783F39",
"I7 	c #804742",
"J7 	c #854844",
"K7 	c #894746",
"L7 	c #864848",
"M7 	c #855153",
"N7 	c #BDA6A9",
"O7 	c #B2A9AE",
"P7 	c #B28B8B",
"Q7 	c #8A5756",
"R7 	c #915352",
"S7 	c #92524D",
"T7 	c #8E4B41",
"U7 	c #8C4A3E",
"V7 	c #8C493B",
"W7 	c #8A4739",
"X7 	c #89463A",
"Y7 	c #8A473B",
"Z7 	c #8B483C",
"`7 	c #8C4B3F",
" 8 	c #7E3832",
".8 	c #87423B",
"+8 	c #88423B",
"@8 	c #8A443D",
"#8 	c #89443E",
"$8 	c #884540",
"%8 	c #884541",
"&8 	c #864440",
"*8 	c #8A4843",
"=8 	c #8C4945",
"-8 	c #8B4845",
";8 	c #8C504B",
">8 	c #814943",
",8 	c #826465",
"'8 	c #A19198",
")8 	c #9D96A1",
"!8 	c #9F9195",
"~8 	c #9A8682",
"{8 	c #734F49",
"]8 	c #61342F",
"^8 	c #582E2A",
"/8 	c #4F2925",
"(8 	c #2E100E",
"_8 	c #220908",
":8 	c #190504",
"<8 	c #150705",
"[8 	c #1A0A07",
"}8 	c #240E0A",
"|8 	c #28100B",
"18 	c #30150F",
"28 	c #371A14",
"38 	c #3C2019",
"48 	c #3E2019",
"58 	c #4A2422",
"68 	c #4D2727",
"78 	c #412C2C",
"88 	c #382E2E",
"98 	c #6F6F6F",
"08 	c #757171",
"a8 	c #604541",
"b8 	c #5C3736",
"c8 	c #5F3435",
"d8 	c #613B38",
"e8 	c #613B37",
"f8 	c #613834",
"g8 	c #5E332F",
"h8 	c #563029",
"i8 	c #5F3932",
"j8 	c #613B34",
"k8 	c #5A362F",
"l8 	c #57332C",
"m8 	c #593530",
"n8 	c #542F2D",
"o8 	c #502C2A",
"p8 	c #532F2C",
"q8 	c #563230",
"r8 	c #512D2C",
"s8 	c #4B2825",
"t8 	c #502C28",
"u8 	c #5B3530",
"v8 	c #59322D",
"w8 	c #59312C",
"x8 	c #592F2A",
"y8 	c #5D312C",
"z8 	c #61342E",
"A8 	c #673731",
"B8 	c #673630",
"C8 	c #67372F",
"D8 	c #6E3C34",
"E8 	c #78453C",
"F8 	c #7C473F",
"G8 	c #814A42",
"H8 	c #814942",
"I8 	c #854D46",
"J8 	c #834A43",
"K8 	c #80433F",
"L8 	c #864C4A",
"M8 	c #845453",
"N8 	c #B5A3A3",
"O8 	c #B2B0B0",
"P8 	c #A88380",
"Q8 	c #895953",
"R8 	c #8F564F",
"S8 	c #8C4E47",
"T8 	c #8C4C42",
"U8 	c #8C4C3F",
"V8 	c #8B4B3B",
"W8 	c #8C4B3C",
"X8 	c #8D4B3D",
"Y8 	c #8C4A3D",
"Z8 	c #8B483B",
"`8 	c #894639",
" 9 	c #7F3D2F",
".9 	c #803E30",
"+9 	c #8A483A",
"@9 	c #7A3730",
"#9 	c #7E3B33",
"$9 	c #85423A",
"%9 	c #86433C",
"&9 	c #85433B",
"*9 	c #83433B",
"=9 	c #84443C",
"-9 	c #86463F",
";9 	c #894A42",
">9 	c #8D4D45",
",9 	c #8C4C44",
"'9 	c #8D4F4B",
")9 	c #844C46",
"!9 	c #826362",
"~9 	c #908084",
"{9 	c #948E96",
"]9 	c #988E90",
"^9 	c #988882",
"/9 	c #6F4F4A",
"(9 	c #5F3632",
"_9 	c #572F2D",
":9 	c #4A2624",
"<9 	c #3C1C1A",
"[9 	c #2C1110",
"}9 	c #200A09",
"|9 	c #170606",
"19 	c #0E0303",
"29 	c #1B0906",
"39 	c #200C09",
"49 	c #260F0B",
"59 	c #2B110D",
"69 	c #311410",
"79 	c #381814",
"89 	c #3E1D18",
"99 	c #44221B",
"09 	c #48241C",
"a9 	c #542824",
"b9 	c #542928",
"c9 	c #442E2D",
"d9 	c #695D5D",
"e9 	c #777577",
"f9 	c #868183",
"g9 	c #664747",
"h9 	c #623A3A",
"i9 	c #643739",
"j9 	c #683B3B",
"k9 	c #6A403E",
"l9 	c #6C3F3D",
"m9 	c #6C3E3A",
"n9 	c #694036",
"o9 	c #6B4239",
"p9 	c #663E35",
"q9 	c #663F36",
"r9 	c #643E35",
"s9 	c #643D36",
"t9 	c #603933",
"u9 	c #5F3732",
"v9 	c #5D3632",
"w9 	c #5D3731",
"x9 	c #5F3733",
"y9 	c #5B3430",
"z9 	c #58312C",
"A9 	c #5A332D",
"B9 	c #623A33",
"C9 	c #60372E",
"D9 	c #5F362D",
"E9 	c #61362E",
"F9 	c #653830",
"G9 	c #683B32",
"H9 	c #6E3E35",
"I9 	c #6E3D34",
"J9 	c #744137",
"K9 	c #77433A",
"L9 	c #7A453B",
"M9 	c #7D463C",
"N9 	c #824A40",
"O9 	c #834A40",
"P9 	c #80483D",
"Q9 	c #824B41",
"R9 	c #895047",
"S9 	c #864D46",
"T9 	c #794F4C",
"U9 	c #B1A4A4",
"V9 	c #B5B6B8",
"W9 	c #A17C76",
"X9 	c #87564D",
"Y9 	c #90574E",
"Z9 	c #8B4E44",
"`9 	c #8E4F42",
" 0 	c #8E4F40",
".0 	c #8C4F3D",
"+0 	c #8D4F3E",
"@0 	c #8F4F3F",
"#0 	c #8F4E3F",
"$0 	c #8D4B3C",
"%0 	c #8C4A3B",
"&0 	c #8A4A3A",
"*0 	c #894939",
"=0 	c #8D4C3D",
"-0 	c #7D3D34",
";0 	c #83433A",
">0 	c #814138",
",0 	c #84433B",
"'0 	c #814238",
")0 	c #7F4137",
"!0 	c #804338",
"~0 	c #86483E",
"{0 	c #8C4F44",
"]0 	c #8B4F44",
"^0 	c #8C4F4A",
"/0 	c #864F49",
"(0 	c #82625F",
"_0 	c #7E7071",
":0 	c #8B868C",
"<0 	c #918B8A",
"[0 	c #978A83",
"}0 	c #6D504B",
"|0 	c #5E3735",
"10 	c #552F2E",
"20 	c #462523",
"30 	c #371A19",
"40 	c #2A1111",
"50 	c #1F0A0A",
"60 	c #160606",
"70 	c #190706",
"80 	c #200A08",
"90 	c #260D0B",
"00 	c #2C100E",
"a0 	c #331412",
"b0 	c #3A1815",
"c0 	c #401B18",
"d0 	c #451E1A",
"e0 	c #4C241C",
"f0 	c #53291D",
"g0 	c #5D2C26",
"h0 	c #5A2927",
"i0 	c #472F2D",
"j0 	c #8C7D7F",
"k0 	c #807C80",
"l0 	c #968F94",
"m0 	c #6A4A4B",
"n0 	c #663C3D",
"o0 	c #6A393C",
"p0 	c #6E3F3F",
"q0 	c #6F4341",
"r0 	c #734645",
"s0 	c #784643",
"t0 	c #7A4D41",
"u0 	c #774B3F",
"v0 	c #754A3E",
"w0 	c #693E33",
"x0 	c #71473C",
"y0 	c #72483D",
"z0 	c #6E443A",
"A0 	c #6B4139",
"B0 	c #683E36",
"C0 	c #694038",
"D0 	c #673E36",
"E0 	c #653C34",
"F0 	c #633B33",
"G0 	c #633931",
"H0 	c #683E34",
"I0 	c #653A30",
"J0 	c #65392E",
"K0 	c #693B31",
"L0 	c #6C3E33",
"M0 	c #704136",
"N0 	c #744438",
"O0 	c #764438",
"P0 	c #7F493E",
"Q0 	c #80493F",
"R0 	c #7D463A",
"S0 	c #7D453A",
"T0 	c #864B3F",
"U0 	c #80473A",
"V0 	c #81493C",
"W0 	c #8E5648",
"X0 	c #8C564C",
"Y0 	c #85544E",
"Z0 	c #704C47",
"`0 	c #AFA6A7",
" a 	c #B8BABF",
".a 	c #9B766D",
"+a 	c #865348",
"@a 	c #8A4E43",
"#a 	c #8F5142",
"$a 	c #8F5241",
"%a 	c #8D513F",
"&a 	c #8F5240",
"*a 	c #915241",
"=a 	c #915140",
"-a 	c #8F4E3E",
";a 	c #935342",
">a 	c #90503F",
",a 	c #904F3F",
"'a 	c #84413B",
")a 	c #84403C",
"!a 	c #884440",
"~a 	c #8E4A46",
"{a 	c #8C4844",
"]a 	c #8D4B43",
"^a 	c #8A4A40",
"/a 	c #87483E",
"(a 	c #894A41",
"_a 	c #8D4E44",
":a 	c #8B4C42",
"<a 	c #8B4C43",
"[a 	c #8A4C42",
"}a 	c #884846",
"|a 	c #8D514C",
"1a 	c #886561",
"2a 	c #685355",
"3a 	c #847B81",
"4a 	c #958C8D",
"5a 	c #91827E",
"6a 	c #6B4C47",
"7a 	c #5A332F",
"8a 	c #512C28",
"9a 	c #361A18",
"0a 	c #270F0D",
"aa 	c #160706",
"ba 	c #150604",
"ca 	c #1C0807",
"da 	c #230C09",
"ea 	c #2E100D",
"fa 	c #341310",
"ga 	c #3B1612",
"ha 	c #411A16",
"ia 	c #4A1F1B",
"ja 	c #532521",
"ka 	c #5B2D25",
"la 	c #5E3024",
"ma 	c #69342E",
"na 	c #693532",
"oa 	c #5F4445",
"pa 	c #877A7B",
"qa 	c #938F96",
"ra 	c #978E95",
"sa 	c #765250",
"ta 	c #764644",
"ua 	c #794443",
"va 	c #794543",
"wa 	c #7A4844",
"xa 	c #7D4D47",
"ya 	c #824C46",
"za 	c #835045",
"Aa 	c #804F45",
"Ba 	c #7C4A3F",
"Ca 	c #7A493E",
"Da 	c #77463C",
"Ea 	c #78473D",
"Fa 	c #75463C",
"Ga 	c #72443B",
"Ha 	c #6F4138",
"Ia 	c #70423A",
"Ja 	c #6C3F37",
"Ka 	c #6D3F36",
"La 	c #704138",
"Ma 	c #704137",
"Na 	c #724238",
"Oa 	c #744339",
"Pa 	c #7A483E",
"Qa 	c #7C493F",
"Ra 	c #7B463C",
"Sa 	c #7B4037",
"Ta 	c #7F443B",
"Ua 	c #905147",
"Va 	c #8F5046",
"Wa 	c #8B4F43",
"Xa 	c #91574B",
"Ya 	c #905A50",
"Za 	c #855E5B",
"`a 	c #B6ABAE",
" b 	c #B4B3BA",
".b 	c #A17770",
"+b 	c #885047",
"@b 	c #904F46",
"#b 	c #935145",
"$b 	c #925244",
"%b 	c #905242",
"&b 	c #905041",
"*b 	c #914F42",
"=b 	c #934F43",
"-b 	c #955145",
";b 	c #945145",
">b 	c #8C483C",
",b 	c #8F4B3F",
"'b 	c #884646",
")b 	c #8B4949",
"!b 	c #8E4D4C",
"~b 	c #8C4A49",
"{b 	c #8A4847",
"]b 	c #8D4D4A",
"^b 	c #8A4C47",
"/b 	c #864943",
"(b 	c #894B46",
"_b 	c #8D504B",
":b 	c #8C4F49",
"<b 	c #894C4D",
"[b 	c #855F5E",
"}b 	c #7A6265",
"|b 	c #91848B",
"1b 	c #998D91",
"2b 	c #8C7C7A",
"3b 	c #684945",
"4b 	c #58332D",
"5b 	c #4D2A25",
"6b 	c #41231E",
"7b 	c #1B0908",
"8b 	c #160604",
"9b 	c #301411",
"0b 	c #3F1B17",
"ab 	c #451F1A",
"bb 	c #4C221D",
"cb 	c #542722",
"db 	c #5D2D28",
"eb 	c #62322A",
"fb 	c #603228",
"gb 	c #6C3833",
"hb 	c #6A3736",
"ib 	c #7B6567",
"jb 	c #9B9092",
"kb 	c #9B98A0",
"lb 	c #A0969D",
"mb 	c #7D5955",
"nb 	c #7E4E4A",
"ob 	c #804946",
"pb 	c #825049",
"qb 	c #84524A",
"rb 	c #865049",
"sb 	c #885049",
"tb 	c #88524A",
"ub 	c #87514A",
"vb 	c #844F48",
"wb 	c #834E47",
"xb 	c #7F4B44",
"yb 	c #7C4B43",
"zb 	c #774640",
"Ab 	c #76453F",
"Bb 	c #76463F",
"Cb 	c #73433C",
"Db 	c #75453E",
"Eb 	c #74443E",
"Fb 	c #77463F",
"Gb 	c #794841",
"Hb 	c #784740",
"Ib 	c #7B4841",
"Jb 	c #7D4A43",
"Kb 	c #814D46",
"Lb 	c #824E46",
"Mb 	c #89524B",
"Nb 	c #814640",
"Ob 	c #864B46",
"Pb 	c #8E534C",
"Qb 	c #8F534C",
"Rb 	c #8E5049",
"Sb 	c #8C5149",
"Tb 	c #8A524A",
"Ub 	c #8C554D",
"Vb 	c #89554E",
"Wb 	c #865754",
"Xb 	c #8B6564",
"Yb 	c #BCADB4",
"Zb 	c #B9B2BC",
"`b 	c #936A64",
" c 	c #7C4640",
".c 	c #925752",
"+c 	c #93544D",
"@c 	c #90534B",
"#c 	c #8D5349",
"$c 	c #8B5046",
"%c 	c #8D4F47",
"&c 	c #91514A",
"*c 	c #94544D",
"=c 	c #8D4E48",
"-c 	c #8F514B",
";c 	c #985953",
">c 	c #8D4E52",
",c 	c #905155",
"'c 	c #8F5054",
")c 	c #935458",
"!c 	c #88494D",
"~c 	c #86484B",
"{c 	c #8D5052",
"]c 	c #8A4F4F",
"^c 	c #884D4D",
"/c 	c #905555",
"(c 	c #935858",
"_c 	c #905454",
":c 	c #8E5353",
"<c 	c #8D5156",
"[c 	c #8C5154",
"}c 	c #805558",
"|c 	c #91767B",
"1c 	c #A2919A",
"2c 	c #A09097",
"3c 	c #887477",
"4c 	c #654743",
"5c 	c #54332B",
"6c 	c #4A2A23",
"7c 	c #3E231D",
"8c 	c #311A15",
"9c 	c #0D0201",
"0c 	c #130301",
"ac 	c #1E0805",
"bc 	c #2F1511",
"cc 	c #42221D",
"dc 	c #4B2721",
"ec 	c #582D27",
"fc 	c #60312B",
"gc 	c #5A322A",
"hc 	c #653936",
"ic 	c #613636",
"jc 	c #9D8D8E",
"kc 	c #B3ADB0",
"lc 	c #9F9FA7",
"mc 	c #A59BA3",
"nc 	c #835F5A",
"oc 	c #865750",
"pc 	c #834C48",
"qc 	c #88574D",
"rc 	c #86564B",
"sc 	c #865046",
"tc 	c #8B524A",
"uc 	c #89514F",
"vc 	c #8A5250",
"wc 	c #8A5351",
"xc 	c #8A5350",
"yc 	c #87504F",
"zc 	c #854E4C",
"Ac 	c #814C4A",
"Bc 	c #784543",
"Cc 	c #7B4847",
"Dc 	c #7A4745",
"Ec 	c #7C4A48",
"Fc 	c #7B4946",
"Gc 	c #7B4846",
"Hc 	c #7D4A49",
"Ic 	c #82504D",
"Jc 	c #7D4C49",
"Kc 	c #7F4D4A",
"Lc 	c #84514E",
"Mc 	c #865350",
"Nc 	c #8F5958",
"Oc 	c #8F5654",
"Pc 	c #8D5250",
"Qc 	c #8D5351",
"Rc 	c #8A4F4C",
"Sc 	c #8B5250",
"Tc 	c #885351",
"Uc 	c #85504E",
"Vc 	c #7C4C4B",
"Wc 	c #805455",
"Xc 	c #926E70",
"Yc 	c #C4B0BB",
"Zc 	c #BFB1BF",
"`c 	c #764D4C",
" d 	c #8D5658",
".d 	c #8D5354",
"+d 	c #915858",
"@d 	c #895452",
"#d 	c #844F4D",
"$d 	c #8E5554",
"%d 	c #915857",
"&d 	c #8B5151",
"*d 	c #955D5D",
"=d 	c #A56B6B",
"-d 	c #7B484D",
";d 	c #87565B",
">d 	c #835156",
",d 	c #815054",
"'d 	c #825156",
")d 	c #764549",
"!d 	c #78484B",
"~d 	c #79494B",
"{d 	c #78474A",
"]d 	c #7D4D50",
"^d 	c #89595C",
"/d 	c #8E5E61",
"(d 	c #855558",
"_d 	c #815155",
":d 	c #825258",
"<d 	c #744649",
"[d 	c #7E5B5D",
"}d 	c #9B848A",
"|d 	c #9B8F99",
"1d 	c #9E929A",
"2d 	c #78686D",
"3d 	c #5E4643",
"4d 	c #503530",
"5d 	c #422A25",
"6d 	c #35201C",
"7d 	c #271512",
"8d 	c #090403",
"9d 	c #170907",
"0d 	c #170605",
"ad 	c #200C0A",
"bd 	c #311B19",
"cd 	c #3C2522",
"dd 	c #482C2A",
"ed 	c #4F302E",
"fd 	c #53322F",
"gd 	c #583631",
"hd 	c #613C38",
"id 	c #673F3C",
"jd 	c #6B4642",
"kd 	c #6A4B46",
"ld 	c #6C4747",
"md 	c #704F50",
"nd 	c #988D90",
"od 	c #ACAAAD",
"pd 	c #B7B6BD",
"qd 	c #BFB8C0",
"rd 	c #846A65",
"sd 	c #7A5450",
"td 	c #7F5250",
"ud 	c #835754",
"vd 	c #7F5751",
"wd 	c #7F5951",
"xd 	c #885D56",
"yd 	c #8B5D58",
"zd 	c #88595B",
"Ad 	c #8D5E5F",
"Bd 	c #8B5B5E",
"Cd 	c #8C5D60",
"Dd 	c #87585A",
"Ed 	c #845659",
"Fd 	c #885B5B",
"Gd 	c #825656",
"Hd 	c #794E4E",
"Id 	c #7B5150",
"Jd 	c #7C5151",
"Kd 	c #7C5251",
"Ld 	c #7D5253",
"Md 	c #7E5454",
"Nd 	c #7E5555",
"Od 	c #7B5353",
"Pd 	c #7E5656",
"Qd 	c #82595B",
"Rd 	c #855B5D",
"Sd 	c #8D6464",
"Td 	c #8C6363",
"Ud 	c #784E4D",
"Vd 	c #84585A",
"Wd 	c #8B5F60",
"Xd 	c #8B5F5F",
"Yd 	c #885C5D",
"Zd 	c #8B5E5F",
"`d 	c #8B6263",
" e 	c #8A6163",
".e 	c #8C6566",
"+e 	c #8B6768",
"@e 	c #856566",
"#e 	c #866B6E",
"$e 	c #C4B3BD",
"%e 	c #D0C5D1",
"&e 	c #B5989B",
"*e 	c #9D7C7D",
"=e 	c #8D6869",
"-e 	c #90696C",
";e 	c #906A6D",
">e 	c #8A6669",
",e 	c #846365",
"'e 	c #856365",
")e 	c #845E60",
"!e 	c #835B5E",
"~e 	c #8D6568",
"{e 	c #886164",
"]e 	c #835C5E",
"^e 	c #754E50",
"/e 	c #9B7375",
"(e 	c #89686B",
"_e 	c #927073",
":e 	c #8D6B6E",
"<e 	c #917073",
"[e 	c #856669",
"}e 	c #86676B",
"|e 	c #86676C",
"1e 	c #8A6B70",
"2e 	c #937377",
"3e 	c #977579",
"4e 	c #8E6D71",
"5e 	c #88686D",
"6e 	c #87676C",
"7e 	c #7B5D5F",
"8e 	c #816869",
"9e 	c #98888D",
"0e 	c #978F99",
"ae 	c #9B939C",
"be 	c #796D73",
"ce 	c #614F4E",
"de 	c #523F3D",
"ee 	c #443432",
"fe 	c #362827",
"ge 	c #291D1C",
"he 	c #1C1212",
"ie 	c #130C0C",
"je 	c #0C0706",
"ke 	c #030201",
"le 	c #110A0A",
"me 	c #191010",
"ne 	c #1F1515",
"oe 	c #24191A",
"pe 	c #2E2122",
"qe 	c #382828",
"re 	c #433131",
"se 	c #513D3D",
"te 	c #5B4546",
"ue 	c #614B4D",
"ve 	c #695254",
"we 	c #755C5D",
"xe 	c #7B6163",
"ye 	c #7F6466",
"ze 	c #826B6B",
"Ae 	c #876D70",
"Be 	c #8C7376",
"Ce 	c #A49FA2",
"De 	c #B1B2B6",
"Ee 	c #BFBFC5",
"Fe 	c #C4BEC7",
"Ge 	c #958687",
"He 	c #8C7477",
"Ie 	c #8F6F74",
"Je 	c #917374",
"Ke 	c #8D7374",
"Le 	c #8E7474",
"Me 	c #947675",
"Ne 	c #987575",
"Oe 	c #957274",
"Pe 	c #967275",
"Qe 	c #926F73",
"Re 	c #957174",
"Se 	c #937073",
"Te 	c #916F73",
"Ue 	c #937274",
"Ve 	c #917273",
"We 	c #896B6C",
"Xe 	c #8A6C6D",
"Ye 	c #8A6D6D",
"Ze 	c #8A6B6C",
"`e 	c #8A6A6C",
" f 	c #886B6B",
".f 	c #856869",
"+f 	c #876A6B",
"@f 	c #896C6C",
"#f 	c #8D7072",
"$f 	c #8F7274",
"%f 	c #967778",
"&f 	c #96797A",
"*f 	c #967B7B",
"=f 	c #8B7172",
"-f 	c #927778",
";f 	c #997D7E",
">f 	c #977C7C",
",f 	c #977B7C",
"'f 	c #9B7F80",
")f 	c #9B8183",
"!f 	c #998185",
"~f 	c #9D8687",
"{f 	c #988586",
"]f 	c #98898B",
"^f 	c #D4CDD8",
"/f 	c #C0AEB1",
"(f 	c #B19E9F",
"_f 	c #A08B8D",
":f 	c #A68F93",
"<f 	c #A59093",
"[f 	c #9E8B8F",
"}f 	c #968689",
"|f 	c #958386",
"1f 	c #937F82",
"2f 	c #9A8488",
"3f 	c #967F84",
"4f 	c #8E787C",
"5f 	c #836F72",
"6f 	c #9F8589",
"7f 	c #B0A3A4",
"8f 	c #AC9FA1",
"9f 	c #AEA2A3",
"0f 	c #B8ACAD",
"af 	c #AFA2A4",
"bf 	c #AB9FA3",
"cf 	c #ABA0A6",
"df 	c #ADA2A9",
"ef 	c #AFA4AB",
"ff 	c #B1A8AE",
"gf 	c #B0A6AC",
"hf 	c #A89FA5",
"if 	c #A299A0",
"jf 	c #9A9396",
"kf 	c #988E8D",
"lf 	c #8C8785",
"mf 	c #8D8D8F",
"nf 	c #8D9399",
"of 	c #979AA3",
"pf 	c #848188",
"qf 	c #696367",
"rf 	c #5B5457",
"sf 	c #4E484B",
"tf 	c #3F393C",
"uf 	c #302B2E",
"vf 	c #252122",
"wf 	c #110E0F",
"xf 	c #090708",
"yf 	c #040304",
"zf 	c #110E11",
"Af 	c #1F1B1D",
"Bf 	c #2E292C",
"Cf 	c #3B3538",
"Df 	c #4A4246",
"Ef 	c #453E43",
"Ff 	c #4D484D",
"Gf 	c #625C61",
"Hf 	c #716A71",
"If 	c #7F787F",
"Jf 	c #8D858D",
"Kf 	c #9D949C",
"Lf 	c #A79EA6",
"Mf 	c #A59BA2",
"Nf 	c #AFA4A8",
"Of 	c #BFADB4",
"Pf 	c #C2B3B9",
"Qf 	c #C1C4C8",
"Rf 	c #BBC3C6",
"Sf 	c #C6C8CF",
"Tf 	c #C3C2CA",
"Uf 	c #BCBEC7",
"Vf 	c #B6AFB9",
"Wf 	c #B4A7B3",
"Xf 	c #B0A5B0",
"Yf 	c #B1A9B2",
"Zf 	c #B1A5AE",
"`f 	c #B2A2A9",
" g 	c #B0A1A5",
".g 	c #A89A9E",
"+g 	c #A49699",
"@g 	c #A7989C",
"#g 	c #AFA0A5",
"$g 	c #AB9EA2",
"%g 	c #AFA6A9",
"&g 	c #ADA4A6",
"*g 	c #ABA0A2",
"=g 	c #ACA2A3",
"-g 	c #A99EA0",
";g 	c #A59A9D",
">g 	c #A19699",
",g 	c #9E9596",
"'g 	c #9C9697",
")g 	c #9C9495",
"!g 	c #958E8F",
"~g 	c #A59FA0",
"{g 	c #A79FA0",
"]g 	c #A79F9F",
"^g 	c #AEA6A6",
"/g 	c #B1ABAB",
"(g 	c #B9B4B4",
"_g 	c #B8B4B4",
":g 	c #BCB7B8",
"<g 	c #B7B3B4",
"[g 	c #BBB8B9",
"}g 	c #C1BDBD",
"|g 	c #C1BDC0",
"1g 	c #C0BCC3",
"2g 	c #BFBCC1",
"3g 	c #C4C1C2",
"4g 	c #C5C3C4",
"5g 	c #C8C8C9",
"6g 	c #C3C8CC",
"7g 	c #DADFE5",
"8g 	c #D0D4D7",
"9g 	c #D7DADC",
"0g 	c #CDCED1",
"ag 	c #D8D7DC",
"bg 	c #D6D7DC",
"cg 	c #CED1D5",
"dg 	c #C3C9CE",
"eg 	c #BAC0C5",
"fg 	c #BABDC2",
"gg 	c #BEC0C5",
"hg 	c #B8BBC0",
"ig 	c #AEB1B7",
"jg 	c #ADAFB4",
"kg 	c #ADB0B5",
"lg 	c #B1ADAE",
"mg 	c #AFABAC",
"ng 	c #B2AFB1",
"og 	c #B6B2B4",
"pg 	c #B6B3B3",
"qg 	c #B2B0B1",
"rg 	c #B3B0B3",
"sg 	c #B0ADB1",
"tg 	c #B4B1B6",
"ug 	c #BBB7BC",
"vg 	c #B6B5B9",
"wg 	c #B6B6BA",
"xg 	c #A7A7AB",
"yg 	c #A5A5A9",
"zg 	c #A9A7AC",
"Ag 	c #9F9C9F",
"Bg 	c #A09EA1",
"Cg 	c #A2A2A6",
"Dg 	c #A1A4AB",
"Eg 	c #94969E",
"Fg 	c #87868C",
"Gg 	c #797479",
"Hg 	c #6E676C",
"Ig 	c #5B565A",
"Jg 	c #484448",
"Kg 	c #39363A",
"Lg 	c #29272A",
"Mg 	c #1C1B1D",
"Ng 	c #100F11",
"Og 	c #030304",
"Pg 	c #060607",
"Qg 	c #0A0A0B",
"Rg 	c #131214",
"Sg 	c #1B1A1C",
"Tg 	c #272527",
"Ug 	c #333032",
"Vg 	c #423E42",
"Wg 	c #4E4B4F",
"Xg 	c #525054",
"Yg 	c #615F64",
"Zg 	c #706E72",
"`g 	c #807D82",
" h 	c #8D898E",
".h 	c #9B959B",
"+h 	c #A5A0A6",
"@h 	c #A9A1A9",
"#h 	c #B3ACB2",
"$h 	c #BFB6BC",
"%h 	c #CCC0C9",
"&h 	c #D2C8CF",
"*h 	c #BDBDC4",
"=h 	c #BDC0C6",
"-h 	c #CBCAD4",
";h 	c #C2C2C9",
">h 	c #C0BDC6",
",h 	c #BDB6C1",
"'h 	c #C0B9C3",
")h 	c #BDB6BF",
"!h 	c #BFB7C0",
"~h 	c #C5BBC4",
"{h 	c #BFB5BD",
"]h 	c #B2ABB0",
"^h 	c #B5AFB4",
"/h 	c #B2ACB3",
"(h 	c #B6B0B8",
"_h 	c #B2ADB6",
":h 	c #AFABB2",
"<h 	c #BEBBC3",
"[h 	c #B6B3BA",
"}h 	c #B6B4B6",
"|h 	c #C2C0C2",
"1h 	c #C0BFC2",
"2h 	c #B8B8BB",
"3h 	c #ABAFB1",
"4h 	c #A6AAA9",
"5h 	c #B4B2B3",
"6h 	c #BDB9BB",
"7h 	c #C3C0C0",
"8h 	c #D1CECB",
"9h 	c #CCC1BF",
"0h 	c #CEC3C6",
"ah 	c #D7CDD3",
"bh 	c #D4CCD2",
"ch 	c #D0C8CE",
"dh 	c #D0CAD0",
"eh 	c #D1CCD2",
"fh 	c #D0CDD1",
"gh 	c #CECBD0",
"hh 	c #D0C9D1",
"ih 	c #D6CFD5",
"jh 	c #CEC8CD",
"kh 	c #CEC9CC",
"lh 	c #D8D4D9",
"mh 	c #D1CDD4",
"nh 	c #DBDAE0",
"oh 	c #E0DCE2",
"ph 	c #E6E3E8",
"qh 	c #E3DDE2",
"rh 	c #DFD7DC",
"sh 	c #DED6DA",
"th 	c #D8D0D3",
"uh 	c #D3CCCE",
"vh 	c #D4CDD1",
"wh 	c #D4CDD3",
"xh 	c #D0C9D0",
"yh 	c #CBC6CC",
"zh 	c #C0BDC4",
"Ah 	c #C1C0C6",
"Bh 	c #B9BAC0",
"Ch 	c #BABCC3",
"Dh 	c #ADA9AA",
"Eh 	c #B7B4B6",
"Fh 	c #B6B3B4",
"Gh 	c #B2B1B2",
"Hh 	c #B2AEB2",
"Ih 	c #B7B3B8",
"Jh 	c #BDB9BD",
"Kh 	c #B8B6B9",
"Lh 	c #BABABD",
"Mh 	c #AFAEB1",
"Nh 	c #AEADB0",
"Oh 	c #B3AEB4",
"Ph 	c #A19CA0",
"Qh 	c #A5A1A5",
"Rh 	c #A5A3A7",
"Sh 	c #A2A3AA",
"Th 	c #929198",
"Uh 	c #87848B",
"Vh 	c #7E777C",
"Wh 	c #716A6E",
"Xh 	c #5E585C",
"Yh 	c #4C474B",
"Zh 	c #3C383C",
"`h 	c #2B292C",
" i 	c #1D1C1E",
".i 	c #070708",
"+i 	c #0C0B0D",
"@i 	c #151416",
"#i 	c #1E1C1F",
"$i 	c #292629",
"%i 	c #423E41",
"&i 	c #4E4A4F",
"*i 	c #555256",
"=i 	c #646165",
"-i 	c #6F6C70",
";i 	c #7D7A7F",
">i 	c #8B868B",
",i 	c #989297",
"'i 	c #A0999F",
")i 	c #A0989F",
"!i 	c #ACA4AB",
"~i 	c #B8AEB4",
"{i 	c #C6B8C0",
"]i 	c #C9BFC6",
"^i 	c #B5B2B8",
"/i 	c #BAB8BF",
"(i 	c #C5C0C9",
"_i 	c #C5BFC9",
":i 	c #B7B5BB",
"<i 	c #B8B3BB",
"[i 	c #B6AEB7",
"}i 	c #B9B1BA",
"|i 	c #B7AEB6",
"1i 	c #B9B0B7",
"2i 	c #C0B5BC",
"3i 	c #BAAFB7",
"4i 	c #B1A8AD",
"5i 	c #B5AEB3",
"6i 	c #B5ADB4",
"7i 	c #B7B0B7",
"8i 	c #B5ADB7",
"9i 	c #B3ADB5",
"0i 	c #C4C1C8",
"ai 	c #BBB7BD",
"bi 	c #C4BFC4",
"ci 	c #B5B2B4",
"di 	c #C4C1C3",
"ei 	c #C4C3C6",
"fi 	c #BCBDC1",
"gi 	c #B6B9BD",
"hi 	c #B0B6B8",
"ii 	c #ADB1B0",
"ji 	c #BDB9BA",
"ki 	c #C8C1C3",
"li 	c #BAB3B4",
"mi 	c #C8C4C4",
"ni 	c #D6D2CE",
"oi 	c #CCC0BD",
"pi 	c #CEC1C4",
"qi 	c #D7CAD1",
"ri 	c #D5C9D1",
"si 	c #CFC5CB",
"ti 	c #D1CAD0",
"ui 	c #CECACE",
"vi 	c #CBC6CB",
"wi 	c #CEC6CC",
"xi 	c #CDC3C9",
"yi 	c #C9C2C5",
"zi 	c #D5CDD2",
"Ai 	c #CFC7CD",
"Bi 	c #D5CFD5",
"Ci 	c #DCD4DA",
"Di 	c #E1DAE0",
"Ei 	c #E1D7DC",
"Fi 	c #D8CDD2",
"Gi 	c #D9CDCF",
"Hi 	c #D4C8C9",
"Ii 	c #D0C4C5",
"Ji 	c #D3C7CA",
"Ki 	c #D2C7CD",
"Li 	c #CEC3CA",
"Mi 	c #C9C0C6",
"Ni 	c #BFB8BF",
"Oi 	c #C4BFC5",
"Pi 	c #BDBABF",
"Qi 	c #9C7F83",
"Ri 	c #A5898B",
"Si 	c #A88E91",
"Ti 	c #B69DA0",
"Ui 	c #BEA6A8",
"Vi 	c #B29A9D",
"Wi 	c #B79CA1",
"Xi 	c #BDA2A7",
"Yi 	c #B69CA1",
"Zi 	c #BAA2A6",
"`i 	c #C8B0B4",
" j 	c #DCC7CA",
".j 	c #DEC7CB",
"+j 	c #DDC4CA",
"@j 	c #9B7F87",
"#j 	c #AA9097",
"$j 	c #957E85",
"%j 	c #937C83",
"&j 	c #8A7479",
"*j 	c #806C71",
"=j 	c #836F73",
"-j 	c #77666A",
";j 	c #645659",
">j 	c #463E41",
",j 	c #363133",
"'j 	c #252123",
")j 	c #141214",
"!j 	c #0C0A0B",
"~j 	c #030203",
"{j 	c #020102",
"]j 	c #1A1617",
"^j 	c #201B1B",
"/j 	c #221A19",
"(j 	c #2D2222",
"_j 	c #372D2C",
":j 	c #433736",
"<j 	c #544645",
"[j 	c #5A4A47",
"}j 	c #554240",
"|j 	c #54403E",
"1j 	c #6D5654",
"2j 	c #795F5D",
"3j 	c #6F5352",
"4j 	c #6D5251",
"5j 	c #6A4E4C",
"6j 	c #735656",
"7j 	c #907270",
"8j 	c #886A6A",
"9j 	c #AB8F8E",
"0j 	c #BFA3A3",
"aj 	c #B19596",
"bj 	c #AA908F",
"cj 	c #7C615F",
"dj 	c #806662",
"ej 	c #8F7470",
"fj 	c #8E716F",
"gj 	c #927471",
"hj 	c #967775",
"ij 	c #997876",
"jj 	c #A08280",
"kj 	c #BA9D9C",
"lj 	c #BA9E9D",
"mj 	c #C4A9A8",
"nj 	c #BAA1A0",
"oj 	c #CAB2B3",
"pj 	c #D1B6B9",
"qj 	c #DDC3C8",
"rj 	c #D9BCC3",
"sj 	c #CEB3B8",
"tj 	c #A68E90",
"uj 	c #AB9697",
"vj 	c #B5A5A7",
"wj 	c #BAAFB4",
"xj 	c #B6AFB6",
"yj 	c #B5B2B7",
"zj 	c #C4BFBE",
"Aj 	c #C8B2B4",
"Bj 	c #CBAEB1",
"Cj 	c #9F8587",
"Dj 	c #A9918F",
"Ej 	c #9C8380",
"Fj 	c #8D6664",
"Gj 	c #7C5453",
"Hj 	c #8D6564",
"Ij 	c #8B6462",
"Jj 	c #8F6C69",
"Kj 	c #997774",
"Lj 	c #9C7D79",
"Mj 	c #987A76",
"Nj 	c #967772",
"Oj 	c #A3827C",
"Pj 	c #B6948F",
"Qj 	c #AC8A84",
"Rj 	c #886762",
"Sj 	c #8B6963",
"Tj 	c #9B7A73",
"Uj 	c #9E7D78",
"Vj 	c #94716E",
"Wj 	c #8D6966",
"Xj 	c #9F7874",
"Yj 	c #89615C",
"Zj 	c #996D67",
"`j 	c #9D7169",
" k 	c #986B63",
".k 	c #8C6058",
"+k 	c #825852",
"@k 	c #89625D",
"#k 	c #9C7873",
"$k 	c #A3817E",
"%k 	c #B79994",
"&k 	c #C0A3A0",
"*k 	c #D0B6B4",
"=k 	c #835C5F",
"-k 	c #805C5E",
";k 	c #886567",
">k 	c #8E6D6F",
",k 	c #967677",
"'k 	c #8C6C6E",
")k 	c #89676A",
"!k 	c #926E73",
"~k 	c #977378",
"{k 	c #967277",
"]k 	c #967579",
"^k 	c #9B7C7F",
"/k 	c #A88B8E",
"(k 	c #B5979A",
"_k 	c #B8969D",
":k 	c #916D74",
"<k 	c #7E6067",
"[k 	c #75575D",
"}k 	c #705459",
"|k 	c #6B5054",
"1k 	c #674C51",
"2k 	c #5C474B",
"3k 	c #524143",
"4k 	c #3A2E31",
"5k 	c #32292C",
"6k 	c #2B2426",
"7k 	c #201A1C",
"8k 	c #0E0B0B",
"9k 	c #110C0C",
"0k 	c #17100F",
"ak 	c #170D0C",
"bk 	c #201312",
"ck 	c #271A19",
"dk 	c #2F211F",
"ek 	c #3E2D2B",
"fk 	c #45312E",
"gk 	c #462E2B",
"hk 	c #452B28",
"ik 	c #523634",
"jk 	c #5C3E3B",
"kk 	c #5B3936",
"lk 	c #593634",
"mk 	c #5C3835",
"nk 	c #5E3B37",
"ok 	c #73504C",
"pk 	c #674644",
"qk 	c #7A5B5A",
"rk 	c #886968",
"sk 	c #7C5E5D",
"tk 	c #765A58",
"uk 	c #6C4A45",
"vk 	c #6C4B46",
"wk 	c #6D4D48",
"xk 	c #6B4B46",
"yk 	c #714E4A",
"zk 	c #74504C",
"Ak 	c #734F4B",
"Bk 	c #765350",
"Ck 	c #826360",
"Dk 	c #836462",
"Ek 	c #846966",
"Fk 	c #856766",
"Gk 	c #8E7372",
"Hk 	c #927576",
"Ik 	c #A28486",
"Jk 	c #AB898A",
"Kk 	c #A07F7F",
"Lk 	c #856565",
"Mk 	c #8C6F6E",
"Nk 	c #A18B8D",
"Ok 	c #AE9CA1",
"Pk 	c #B4A7AE",
"Qk 	c #BEB4BA",
"Rk 	c #C7BCBC",
"Sk 	c #A08587",
"Tk 	c #A78489",
"Uk 	c #9A7676",
"Vk 	c #987775",
"Wk 	c #95726F",
"Xk 	c #8B5A59",
"Yk 	c #885652",
"Zk 	c #905E58",
"`k 	c #875751",
" l 	c #8C5E57",
".l 	c #8E625C",
"+l 	c #885F59",
"@l 	c #865F57",
"#l 	c #896058",
"$l 	c #90655D",
"%l 	c #9A7068",
"&l 	c #9F736A",
"*l 	c #92645A",
"=l 	c #8B5E55",
"-l 	c #92655C",
";l 	c #895E56",
">l 	c #966863",
",l 	c #91635D",
"'l 	c #94655E",
")l 	c #8B5952",
"!l 	c #925F56",
"~l 	c #925E55",
"{l 	c #935D54",
"]l 	c #925C52",
"^l 	c #8C594F",
"/l 	c #8C5C53",
"(l 	c #966860",
"_l 	c #AD857D",
":l 	c #B68F88",
"<l 	c #BA9791",
"[l 	c #723D3F",
"}l 	c #642E30",
"|l 	c #713F3F",
"1l 	c #714041",
"2l 	c #794A4A",
"3l 	c #704141",
"4l 	c #744245",
"5l 	c #774448",
"6l 	c #7C494E",
"7l 	c #804F53",
"8l 	c #7D4E51",
"9l 	c #7A4C4F",
"0l 	c #7F5457",
"al 	c #966E71",
"bl 	c #9E7279",
"cl 	c #8C6066",
"dl 	c #5E2F36",
"el 	c #603338",
"fl 	c #572C31",
"gl 	c #552D32",
"hl 	c #553034",
"il 	c #3C1C1F",
"jl 	c #311617",
"kl 	c #2A1315",
"ll 	c #231112",
"ml 	c #231618",
"nl 	c #231A1C",
"ol 	c #1C1517",
"pl 	c #161011",
"ql 	c #0A0809",
"rl 	c #0A0404",
"sl 	c #1B0806",
"tl 	c #1F0B08",
"ul 	c #2D1714",
"vl 	c #351C18",
"wl 	c #3A1C18",
"xl 	c #3A1914",
"yl 	c #3F1A15",
"zl 	c #47201A",
"Al 	c #4B221E",
"Bl 	c #491E19",
"Cl 	c #51251F",
"Dl 	c #4E241C",
"El 	c #4F2620",
"Fl 	c #552E28",
"Gl 	c #5D3733",
"Hl 	c #4E2620",
"Il 	c #5E372E",
"Jl 	c #5D352E",
"Kl 	c #532C23",
"Ll 	c #522821",
"Ml 	c #582D26",
"Nl 	c #5B2F27",
"Ol 	c #592A23",
"Pl 	c #572922",
"Ql 	c #50251E",
"Rl 	c #5D322C",
"Sl 	c #603631",
"Tl 	c #5D3430",
"Ul 	c #724B49",
"Vl 	c #875D5A",
"Wl 	c #7D524E",
"Xl 	c #6E4340",
"Yl 	c #754E4D",
"Zl 	c #937679",
"`l 	c #A48E93",
" m 	c #AE9FA6",
".m 	c #BFB3B9",
"+m 	c #C6B7B7",
"@m 	c #836064",
"#m 	c #8E6468",
"$m 	c #956A69",
"%m 	c #8C6461",
"&m 	c #8E6560",
"*m 	c #895150",
"=m 	c #8C544E",
"-m 	c #90584E",
";m 	c #844C42",
">m 	c #895348",
",m 	c #865247",
"'m 	c #7B473C",
")m 	c #7C493D",
"!m 	c #824F42",
"~m 	c #844F42",
"{m 	c #885346",
"]m 	c #976154",
"^m 	c #966154",
"/m 	c #8B5649",
"(m 	c #8B5548",
"_m 	c #7A4336",
":m 	c #966059",
"<m 	c #925C54",
"[m 	c #8D554B",
"}m 	c #8B5349",
"|m 	c #8A4F45",
"1m 	c #93574B",
"2m 	c #8D574A",
"3m 	c #925C50",
"4m 	c #935F54",
"5m 	c #A6766A",
"6m 	c #AF8076",
"7m 	c #AB8076",
"8m 	c #6F2826",
"9m 	c #732D2A",
"0m 	c #833F3D",
"am 	c #8A4846",
"bm 	c #864541",
"cm 	c #884845",
"dm 	c #894946",
"em 	c #80413E",
"fm 	c #7B3D3B",
"gm 	c #824542",
"hm 	c #884D49",
"im 	c #7C4641",
"jm 	c #814644",
"km 	c #814647",
"lm 	c #7B4342",
"mm 	c #834C4B",
"nm 	c #754140",
"om 	c #6C3B3B",
"pm 	c #532828",
"qm 	c #4A2323",
"rm 	c #3B1919",
"sm 	c #2C1010",
"tm 	c #200A0A",
"um 	c #150505",
"vm 	c #050405",
"wm 	c #0A0708",
"xm 	c #0D0303",
"ym 	c #150605",
"zm 	c #1F0A08",
"Am 	c #2A0F0D",
"Bm 	c #321210",
"Cm 	c #371210",
"Dm 	c #3C1412",
"Em 	c #431815",
"Fm 	c #451715",
"Gm 	c #461512",
"Hm 	c #4C1916",
"Im 	c #511E1B",
"Jm 	c #52211B",
"Km 	c #471711",
"Lm 	c #4B1A15",
"Mm 	c #552521",
"Nm 	c #552722",
"Om 	c #572824",
"Pm 	c #50211D",
"Qm 	c #52241D",
"Rm 	c #4D1E18",
"Sm 	c #4A1B14",
"Tm 	c #4F1E17",
"Um 	c #53201A",
"Vm 	c #57231D",
"Wm 	c #5B251F",
"Xm 	c #5A231E",
"Ym 	c #59221D",
"Zm 	c #58201C",
"`m 	c #58211D",
" n 	c #602926",
".n 	c #66302D",
"+n 	c #5C2623",
"@n 	c #511C16",
"#n 	c #592518",
"$n 	c #723C2F",
"%n 	c #7F4D44",
"&n 	c #805C59",
"*n 	c #927C7C",
"=n 	c #A99C9E",
"-n 	c #B9B0B3",
";n 	c #B8A9A8",
">n 	c #795150",
",n 	c #8B5857",
"'n 	c #8B554C",
")n 	c #8C594E",
"!n 	c #89564A",
"~n 	c #874A41",
"{n 	c #834238",
"]n 	c #924F44",
"^n 	c #813E33",
"/n 	c #7E3C30",
"(n 	c #99564A",
"_n 	c #9F5C4E",
":n 	c #9D5B4C",
"<n 	c #985546",
"[n 	c #955344",
"}n 	c #945243",
"|n 	c #7F3D2E",
"1n 	c #7D3C2D",
"2n 	c #7F3B33",
"3n 	c #87443D",
"4n 	c #924E48",
"5n 	c #8C4841",
"6n 	c #84413A",
"7n 	c #8B493F",
"8n 	c #8E4D41",
"9n 	c #8F4E42",
"0n 	c #945448",
"an 	c #945549",
"bn 	c #90544B",
"cn 	c #9D635B",
"dn 	c #712C28",
"en 	c #732E2A",
"fn 	c #85423E",
"gn 	c #894843",
"hn 	c #884842",
"in 	c #8A4A45",
"jn 	c #8C4D49",
"kn 	c #884C47",
"ln 	c #864A46",
"mn 	c #874C47",
"nn 	c #874D48",
"on 	c #89514B",
"pn 	c #76403A",
"qn 	c #824947",
"rn 	c #844E4C",
"sn 	c #794745",
"tn 	c #6F403E",
"un 	c #663938",
"vn 	c #5B302F",
"wn 	c #4D2626",
"xn 	c #3D1B1B",
"yn 	c #301313",
"zn 	c #250E0E",
"An 	c #100303",
"Bn 	c #080607",
"Cn 	c #1B0807",
"Dn 	c #200B0A",
"En 	c #250D0C",
"Fn 	c #2B0F0E",
"Gn 	c #311110",
"Hn 	c #371413",
"In 	c #3C1615",
"Jn 	c #3E1615",
"Kn 	c #3E1413",
"Ln 	c #431716",
"Mn 	c #481C1A",
"Nn 	c #471D18",
"On 	c #441915",
"Pn 	c #451B17",
"Qn 	c #4F2522",
"Rn 	c #512724",
"Sn 	c #4E2523",
"Tn 	c #491F1C",
"Un 	c #4A201A",
"Vn 	c #4B211C",
"Wn 	c #4D221C",
"Xn 	c #4E211C",
"Yn 	c #51231D",
"Zn 	c #53231E",
"`n 	c #501F1C",
" o 	c #501D19",
".o 	c #4F1C19",
"+o 	c #53201E",
"@o 	c #582523",
"#o 	c #5B2928",
"$o 	c #542221",
"%o 	c #501F1A",
"&o 	c #552519",
"*o 	c #683629",
"=o 	c #75473F",
"-o 	c #755452",
";o 	c #887373",
">o 	c #9E9496",
",o 	c #AFA9AC",
"'o 	c #ADA1A0",
")o 	c #734E4C",
"!o 	c #865553",
"~o 	c #89544A",
"{o 	c #89574A",
"]o 	c #865547",
"^o 	c #8A4B42",
"/o 	c #8D4C41",
"(o 	c #8A483E",
"_o 	c #8B483F",
":o 	c #935046",
"<o 	c #9A584B",
"[o 	c #99574A",
"}o 	c #955345",
"|o 	c #935144",
"1o 	c #925043",
"2o 	c #8B4A3E",
"3o 	c #87443E",
"4o 	c #88453E",
"5o 	c #894741",
"6o 	c #884742",
"7o 	c #874641",
"8o 	c #905248",
"9o 	c #8E524A",
"0o 	c #8D514B",
"ao 	c #975C55",
"bo 	c #74302A",
"co 	c #73302A",
"do 	c #88453F",
"eo 	c #874741",
"fo 	c #8A4C44",
"go 	c #8B4D46",
"ho 	c #8E524C",
"io 	c #91554F",
"jo 	c #8D534D",
"ko 	c #854D47",
"lo 	c #89534C",
"mo 	c #814E46",
"no 	c #6F3B33",
"oo 	c #844B48",
"po 	c #83504C",
"qo 	c #7D4B49",
"ro 	c #724441",
"so 	c #683D3B",
"to 	c #633937",
"uo 	c #522A29",
"vo 	c #411D1D",
"wo 	c #351717",
"xo 	c #2C1312",
"yo 	c #1E0A09",
"zo 	c #170706",
"Ao 	c #1A0807",
"Bo 	c #250C0C",
"Co 	c #2A0F0F",
"Do 	c #301212",
"Eo 	c #341414",
"Fo 	c #361314",
"Go 	c #361212",
"Ho 	c #3A1414",
"Io 	c #3E1817",
"Jo 	c #3E1916",
"Ko 	c #3D1815",
"Lo 	c #3F1A17",
"Mo 	c #472321",
"No 	c #4A2524",
"Oo 	c #462220",
"Po 	c #411C1B",
"Qo 	c #47221E",
"Ro 	c #441F1A",
"So 	c #48231E",
"To 	c #49221F",
"Uo 	c #48201D",
"Vo 	c #4A201C",
"Wo 	c #461B18",
"Xo 	c #451816",
"Yo 	c #4B1D1D",
"Zo 	c #4E2020",
"`o 	c #4F2222",
" p 	c #4C1D1F",
".p 	c #4D211C",
"+p 	c #512619",
"@p 	c #5C3023",
"#p 	c #6C4035",
"$p 	c #6B4038",
"%p 	c #6A4B48",
"&p 	c #7C6B6A",
"*p 	c #938C8C",
"=p 	c #A3A0A2",
"-p 	c #A39898",
";p 	c #6D4C49",
">p 	c #80534F",
",p 	c #865347",
"'p 	c #855445",
")p 	c #835343",
"!p 	c #884E44",
"~p 	c #935048",
"{p 	c #924E46",
"]p 	c #955049",
"^p 	c #97534A",
"/p 	c #955349",
"(p 	c #925045",
"_p 	c #9F5D53",
":p 	c #98564B",
"<p 	c #85433D",
"[p 	c #86433E",
"}p 	c #86453F",
"|p 	c #864642",
"1p 	c #854642",
"2p 	c #8C4C4A",
"3p 	c #8A4B48",
"4p 	c #8E504B",
"5p 	c #8D5149",
"6p 	c #8D524D",
"7p 	c #8F5450",
"8p 	c #7F3C3C",
"9p 	c #7B3A39",
"0p 	c #8F4F4E",
"ap 	c #935653",
"bp 	c #935855",
"cp 	c #905754",
"dp 	c #8A5451",
"ep 	c #8A5653",
"fp 	c #94615E",
"gp 	c #94635E",
"hp 	c #885854",
"ip 	c #875853",
"jp 	c #8D5856",
"kp 	c #8A5857",
"lp 	c #855553",
"mp 	c #855857",
"np 	c #7F5353",
"op 	c #764E4D",
"pp 	c #684242",
"qp 	c #5D393B",
"rp 	c #4E2F2F",
"sp 	c #3F2423",
"tp 	c #321A1A",
"up 	c #261312",
"vp 	c #050304",
"wp 	c #0D0404",
"xp 	c #1A0A09",
"yp 	c #1E0C0B",
"zp 	c #250F0E",
"Ap 	c #270F0E",
"Bp 	c #280E0D",
"Cp 	c #290E0D",
"Dp 	c #2C0F0E",
"Ep 	c #2F1210",
"Fp 	c #311310",
"Gp 	c #321511",
"Hp 	c #371A16",
"Ip 	c #3D1F1D",
"Jp 	c #3C1F1C",
"Kp 	c #3C1F1D",
"Lp 	c #3D201D",
"Mp 	c #42241F",
"Np 	c #3E201B",
"Op 	c #3E1F1A",
"Pp 	c #3D1D18",
"Qp 	c #3D1B17",
"Rp 	c #3E1B17",
"Sp 	c #3C1814",
"Tp 	c #39110F",
"Up 	c #3C1513",
"Vp 	c #421B19",
"Wp 	c #492121",
"Xp 	c #4C2424",
"Yp 	c #451C1D",
"Zp 	c #441E1A",
"`p 	c #4A261E",
" q 	c #552F27",
".q 	c #633A35",
"+q 	c #69413D",
"@q 	c #654A48",
"#q 	c #706160",
"$q 	c #827D7D",
"%q 	c #929294",
"&q 	c #968F91",
"*q 	c #6A4847",
"=q 	c #744541",
"-q 	c #804A3C",
";q 	c #814B3C",
">q 	c #814C3D",
",q 	c #783C34",
"'q 	c #773E34",
")q 	c #7E4338",
"!q 	c #884B41",
"~q 	c #89483E",
"{q 	c #8D4940",
"]q 	c #975049",
"^q 	c #944F46",
"/q 	c #965448",
"(q 	c #9B584D",
"_q 	c #89473B",
":q 	c #813F32",
"<q 	c #824236",
"[q 	c #874B44",
"}q 	c #7A3F38",
"|q 	c #8A524B",
"1q 	c #8A5148",
"2q 	c #8B5249",
"3q 	c #8D524A",
"4q 	c #894E49",
"5q 	c #874B48",
"6q 	c #8C4E4D",
"7q 	c #854142",
"8q 	c #824040",
"9q 	c #905050",
"0q 	c #925352",
"aq 	c #945655",
"bq 	c #955857",
"cq 	c #925756",
"dq 	c #905857",
"eq 	c #8A5655",
"fq 	c #956260",
"gq 	c #93625E",
"hq 	c #885956",
"iq 	c #8A5B58",
"jq 	c #8F5B5B",
"kq 	c #8D595A",
"lq 	c #8E5B5C",
"mq 	c #8A595A",
"nq 	c #895A5A",
"oq 	c #815455",
"pq 	c #784E4E",
"qq 	c #6A4345",
"rq 	c #5E3B3D",
"sq 	c #513233",
"tq 	c #331C1C",
"uq 	c #281615",
"vq 	c #1D0E0D",
"wq 	c #130807",
"xq 	c #170807",
"yq 	c #1A0908",
"zq 	c #1D0B09",
"Aq 	c #1F0A09",
"Bq 	c #230C0A",
"Cq 	c #250D0B",
"Dq 	c #260E0B",
"Eq 	c #2D1411",
"Fq 	c #2F1714",
"Gq 	c #301815",
"Hq 	c #331B18",
"Iq 	c #341C18",
"Jq 	c #341A15",
"Kq 	c #331813",
"Lq 	c #321410",
"Mq 	c #32130F",
"Nq 	c #310F0D",
"Oq 	c #33110F",
"Pq 	c #351312",
"Qq 	c #3A1817",
"Rq 	c #3B1818",
"Sq 	c #3D1B19",
"Tq 	c #57322F",
"Uq 	c #5C3734",
"Vq 	c #5B4141",
"Wq 	c #665758",
"Xq 	c #767272",
"Yq 	c #868688",
"Zq 	c #8C8487",
"`q 	c #624041",
" r 	c #693B38",
".r 	c #794237",
"+r 	c #7C4637",
"@r 	c #7D483A",
"#r 	c #783C35",
"$r 	c #783E34",
"%r 	c #793E34",
"&r 	c #83453B",
"*r 	c #87453C",
"=r 	c #8B473F",
"-r 	c #924C44",
";r 	c #954E45",
">r 	c #945044",
",r 	c #965347",
"'r 	c #955245",
")r 	c #9A564A",
"!r 	c #8D4A3E",
"~r 	c #884539",
"{r 	c #864435",
"]r 	c #874738",
"^r 	c #8D4E41",
"/r 	c #8E5044",
"(r 	c #7D4339",
"_r 	c #874F47",
":r 	c #8D544C",
"<r 	c #8E554B",
"[r 	c #8F554B",
"}r 	c #91564D",
"|r 	c #91554E",
"1r 	c #8F534D",
"2r 	c #8E474C",
"3r 	c #8D494C",
"4r 	c #925154",
"5r 	c #935254",
"6r 	c #955657",
"7r 	c #975759",
"8r 	c #945759",
"9r 	c #935B5C",
"0r 	c #8E5859",
"ar 	c #8C5657",
"br 	c #946160",
"cr 	c #8F5E5C",
"dr 	c #905F5E",
"er 	c #935D60",
"fr 	c #905A5E",
"gr 	c #966165",
"hr 	c #956265",
"ir 	c #825457",
"jr 	c #774D4F",
"kr 	c #694347",
"lr 	c #603F42",
"mr 	c #523537",
"nr 	c #412829",
"or 	c #351E1E",
"pr 	c #2B1918",
"qr 	c #201110",
"rr 	c #160B0A",
"sr 	c #0D0605",
"tr 	c #060302",
"ur 	c #180806",
"vr 	c #1C0907",
"wr 	c #1D0906",
"xr 	c #1F0C08",
"yr 	c #210E0B",
"zr 	c #2C1815",
"Ar 	c #2B1714",
"Br 	c #2B1611",
"Cr 	c #29140F",
"Dr 	c #27100B",
"Er 	c #260F0A",
"Fr 	c #250C08",
"Gr 	c #280E0A",
"Hr 	c #2A0D0A",
"Ir 	c #270907",
"Jr 	c #280908",
"Kr 	c #2F110F",
"Lr 	c #311211",
"Mr 	c #381B18",
"Nr 	c #3A1E1C",
"Or 	c #412422",
"Pr 	c #4D2A29",
"Qr 	c #4C2929",
"Rr 	c #503738",
"Sr 	c #5B4C4D",
"Tr 	c #696365",
"Ur 	c #79777B",
"Vr 	c #80767C",
"Wr 	c #573538",
"Xr 	c #5B2B2A",
"Yr 	c #70382F",
"Zr 	c #753E31",
"`r 	c #7C403A",
" s 	c #73382B",
".s 	c #7A3B2F",
"+s 	c #864439",
"@s 	c #8C463C",
"#s 	c #91463C",
"$s 	c #954C41",
"%s 	c #975244",
"&s 	c #975243",
"*s 	c #955042",
"=s 	c #914C3E",
"-s 	c #955041",
";s 	c #854133",
">s 	c #884436",
",s 	c #904E3A",
"'s 	c #924F3D",
")s 	c #965544",
"!s 	c #975748",
"~s 	c #874A3C",
"{s 	c #864B3E",
"]s 	c #8C5247",
"^s 	c #93594D",
"/s 	c #975D50",
"(s 	c #985D51",
"_s 	c #9A5B52",
":s 	c #9B5C54",
"<s 	c #975751",
"[s 	c #985753",
"}s 	c #8F484D",
"|s 	c #914F52",
"1s 	c #935154",
"2s 	c #965558",
"3s 	c #955658",
"4s 	c #9A6162",
"5s 	c #905A59",
"6s 	c #96605F",
"7s 	c #966361",
"8s 	c #93605E",
"9s 	c #93615F",
"0s 	c #91595C",
"as 	c #915B5F",
"bs 	c #966164",
"cs 	c #936063",
"ds 	c #8B5B5D",
"es 	c #674044",
"fs 	c #613D41",
"gs 	c #563638",
"hs 	c #45292A",
"is 	c #371F20",
"js 	c #2E1A1A",
"ks 	c #251514",
"ls 	c #1C0F0F",
"ms 	c #110808",
"ns 	c #090404",
"os 	c #120503",
"ps 	c #180906",
"qs 	c #1B0C09",
"rs 	c #1B0B08",
"ss 	c #1A0A06",
"ts 	c #1B0705",
"us 	c #1E0906",
"vs 	c #210A08",
"ws 	c #1E0705",
"xs 	c #1F0705",
"ys 	c #230B09",
"zs 	c #2D1412",
"As 	c #3B201F",
"Bs 	c #3E201F",
"Cs 	c #483132",
"Ds 	c #544547",
"Es 	c #615B5D",
"Fs 	c #706C6F",
"Gs 	c #74696E",
"Hs 	c #563439",
"Is 	c #5D3132",
"Js 	c #6E3B34",
"Ks 	c #6F3C32",
"Ls 	c #7A403C",
"Ms 	c #743A31",
"Ns 	c #7C4034",
"Os 	c #85473A",
"Ps 	c #814234",
"Qs 	c #834034",
"Rs 	c #8E483C",
"Ss 	c #944D41",
"Ts 	c #944D3F",
"Us 	c #914B3B",
"Vs 	c #904A3A",
"Ws 	c #894433",
"Xs 	c #8B4534",
"Ys 	c #8E4838",
"Zs 	c #894534",
"`s 	c #833F2D",
" t 	c #8B4532",
".t 	c #904A39",
"+t 	c #8F4C3B",
"@t 	c #915243",
"#t 	c #985B4B",
"$t 	c #965A4C",
"%t 	c #965B4D",
"&t 	c #975C4F",
"*t 	c #8F5348",
"=t 	c #8F5049",
"-t 	c #904B4F",
";t 	c #924F52",
">t 	c #945456",
",t 	c #97595B",
"'t 	c #94595A",
")t 	c #9B6363",
"!t 	c #9B6463",
"~t 	c #935C5A",
"{t 	c #95605E",
"]t 	c #976461",
"^t 	c #976360",
"/t 	c #966360",
"(t 	c #925B5C",
"_t 	c #925C5F",
":t 	c #956163",
"<t 	c #925F61",
"[t 	c #8C5E5F",
"}t 	c #845759",
"|t 	c #795051",
"1t 	c #6C4447",
"2t 	c #654043",
"3t 	c #5A393B",
"4t 	c #4A2C2E",
"5t 	c #3C2223",
"6t 	c #331D1D",
"7t 	c #2A1818",
"8t 	c #211312",
"9t 	c #150B0A",
"0t 	c #0B0505",
"at 	c #0B0202",
"bt 	c #0F0503",
"ct 	c #0E0402",
"dt 	c #120705",
"et 	c #140503",
"ft 	c #160504",
"gt 	c #170504",
"ht 	c #1A0706",
"it 	c #281412",
"jt 	c #2F1917",
"kt 	c #351B1B",
"lt 	c #3C292A",
"mt 	c #483B3C",
"nt 	c #544F50",
"ot 	c #615E61",
"pt 	c #685D61",
"qt 	c #4F3134",
"rt 	c #562E2F",
"st 	c #653731",
"tt 	c #663930",
"ut 	c #68392F",
"vt 	c #743C39",
"wt 	c #703930",
"xt 	c #784033",
"yt 	c #824638",
"zt 	c #7F4233",
"At 	c #803F32",
"Bt 	c #8A463A",
"Ct 	c #914C3F",
"Dt 	c #924D3E",
"Et 	c #8F4B3A",
"Ft 	c #8E493A",
"Gt 	c #894332",
"Ht 	c #8F4A39",
"It 	c #8B4636",
"Jt 	c #874332",
"Kt 	c #914B3C",
"Lt 	c #8E4B3B",
"Mt 	c #8F4D3E",
"Nt 	c #945546",
"Ot 	c #995B4C",
"Pt 	c #975C4D",
"Qt 	c #975C50",
"Rt 	c #945A4E",
"St 	c #91554B",
"Tt 	c #995C53",
"Ut 	c #95584F",
"Vt 	c #965757",
"Wt 	c #965958",
"Xt 	c #965B5A",
"Yt 	c #995F5D",
"Zt 	c #9F6663",
"`t 	c #9F6865",
" u 	c #9D6863",
".u 	c #9B6862",
"+u 	c #9B6962",
"@u 	c #98655E",
"#u 	c #925F59",
"$u 	c #98655F",
"%u 	c #9E6A64",
"&u 	c #9F6C66",
"*u 	c #966463",
"=u 	c #915F5F",
"-u 	c #8C5D5C",
";u 	c #8A5C5B",
">u 	c #906462",
",u 	c #89615F",
"'u 	c #7F5A59",
")u 	c #775151",
"!u 	c #6B4546",
"~u 	c #5D3C3C",
"{u 	c #503232",
"]u 	c #432929",
"^u 	c #362020",
"/u 	c #2C1A1A",
"(u 	c #241516",
"_u 	c #180D0D",
":u 	c #0F0807",
"<u 	c #140606",
"[u 	c #23110D",
"}u 	c #271411",
"|u 	c #2A1714",
"1u 	c #312422",
"2u 	c #393131",
"3u 	c #413F3F",
"4u 	c #4E4D4D",
"5u 	c #5A5151",
"6u 	c #452C2D",
"7u 	c #4C2C2B",
"8u 	c #58332E",
"9u 	c #5B372F",
"0u 	c #603A30",
"au 	c #734036",
"bu 	c #743E31",
"cu 	c #784133",
"du 	c #804638",
"eu 	c #814537",
"fu 	c #804334",
"gu 	c #874839",
"hu 	c #8D4E3E",
"iu 	c #8F4D3F",
"ju 	c #8D493C",
"ku 	c #8D4A3C",
"lu 	c #965345",
"mu 	c #8E4B3D",
"nu 	c #975445",
"ou 	c #9D584F",
"pu 	c #975249",
"qu 	c #99594E",
"ru 	c #995C50",
"su 	c #8F5447",
"tu 	c #965C4F",
"uu 	c #8C544C",
"vu 	c #89524A",
"wu 	c #8D564E",
"xu 	c #8F5750",
"yu 	c #8C564D",
"zu 	c #8E574F",
"Au 	c #8B544C",
"Bu 	c #8D534F",
"Cu 	c #9A6660",
"Du 	c #9E6B65",
"Eu 	c #9A6860",
"Fu 	c #97655D",
"Gu 	c #96645C",
"Hu 	c #A06D65",
"Iu 	c #9F6D64",
"Ju 	c #9B6860",
"Ku 	c #98675E",
"Lu 	c #956360",
"Mu 	c #8E5D5B",
"Nu 	c #8C5D5A",
"Ou 	c #916562",
"Pu 	c #906764",
"Qu 	c #845F5C",
"Ru 	c #77514F",
"Su 	c #694544",
"Tu 	c #634241",
"Uu 	c #5B3E3D",
"Vu 	c #4D3332",
"Wu 	c #3C2625",
"Xu 	c #301D1C",
"Yu 	c #281919",
"Zu 	c #120A0A",
"`u 	c #0B0506",
" v 	c #070102",
".v 	c #100505",
"+v 	c #190B07",
"@v 	c #20110F",
"#v 	c #231817",
"$v 	c #282323",
"%v 	c #333233",
"&v 	c #424141",
"*v 	c #4C4443",
"=v 	c #3C2726",
"-v 	c #452826",
";v 	c #4D2D26",
">v 	c #513128",
",v 	c #553429",
"'v 	c #5A3128",
")v 	c #66372C",
"!v 	c #673628",
"~v 	c #6D392B",
"{v 	c #784234",
"]v 	c #7E4637",
"^v 	c #7E4435",
"/v 	c #804435",
"(v 	c #86473A",
"_v 	c #89473C",
":v 	c #904D42",
"<v 	c #975449",
"[v 	c #975448",
"}v 	c #95524A",
"|v 	c #914E46",
"1v 	c #94544C",
"2v 	c #8D5046",
"3v 	c #8F544A",
"4v 	c #91574F",
"5v 	c #88514B",
"6v 	c #814A44",
"7v 	c #8A534D",
"8v 	c #905952",
"9v 	c #8D5650",
"0v 	c #89524C",
"av 	c #8E5450",
"bv 	c #8A524D",
"cv 	c #905A55",
"dv 	c #9E6B64",
"ev 	c #95635A",
"fv 	c #96635B",
"gv 	c #A57169",
"hv 	c #A16F66",
"iv 	c #99675E",
"jv 	c #95625A",
"kv 	c #95615E",
"lv 	c #8E5B58",
"mv 	c #8E5D5A",
"nv 	c #8E605C",
"ov 	c #936563",
"pv 	c #936966",
"qv 	c #88625E",
"rv 	c #79524F",
"sv 	c #684744",
"tv 	c #614340",
"uv 	c #533836",
"vv 	c #412A29",
"wv 	c #352120",
"xv 	c #2D1C1C",
"yv 	c #221515",
"zv 	c #170E0E",
"Av 	c #0F0708",
"Bv 	c #100604",
"Cv 	c #170B09",
"Dv 	c #18100F",
"Ev 	c #1D1919",
"Fv 	c #272727",
"Gv 	c #343434",
"Hv 	c #3E3736",
"Iv 	c #3C2320",
"Jv 	c #432821",
"Kv 	c #482C22",
"Lv 	c #4C2E24",
"Mv 	c #502A21",
"Nv 	c #5C3126",
"Ov 	c #5F3024",
"Pv 	c #653327",
"Qv 	c #713E30",
"Rv 	c #794335",
"Sv 	c #7A4333",
"Tv 	c #7D4334",
"Uv 	c #824538",
"Vv 	c #85463B",
"Wv 	c #86443A",
"Xv 	c #88463C",
"Yv 	c #934F45",
"Zv 	c #925048",
"`v 	c #8E4C45",
" w 	c #92524A",
".w 	c #8D5147",
"+w 	c #8C5148",
"@w 	c #90554E",
"#w 	c #915851",
"$w 	c #88504B",
"%w 	c #915953",
"&w 	c #8D5550",
"*w 	c #975C59",
"=w 	c #9A605D",
"-w 	c #955C59",
";w 	c #955F5A",
">w 	c #9B6460",
",w 	c #9D6662",
"'w 	c #98615D",
")w 	c #945C58",
"!w 	c #9A615E",
"~w 	c #A66D6A",
"{w 	c #A56D69",
"]w 	c #935957",
"^w 	c #8B524F",
"/w 	c #905455",
"(w 	c #8C4E4F",
"_w 	c #996160",
":w 	c #9E6766",
"<w 	c #976363",
"[w 	c #92605F",
"}w 	c #895B59",
"|w 	c #805554",
"1w 	c #744B4A",
"2w 	c #6D4946",
"3w 	c #62413F",
"4w 	c #513332",
"5w 	c #35201F",
"6w 	c #2E1B1B",
"7w 	c #251616",
"8w 	c #1B0E0E",
"9w 	c #0C0606",
"0w 	c #161213",
"aw 	c #201E20",
"bw 	c #282527",
"cw 	c #2F2827",
"dw 	c #291715",
"ew 	c #341C19",
"fw 	c #3D231E",
"gw 	c #442921",
"hw 	c #482D23",
"iw 	c #492720",
"jw 	c #542A23",
"kw 	c #61332A",
"lw 	c #68372D",
"mw 	c #68352B",
"nw 	c #6C362B",
"ow 	c #783F34",
"pw 	c #82473B",
"qw 	c #87483D",
"rw 	c #88453A",
"sw 	c #8B463C",
"tw 	c #914C41",
"uw 	c #9C554A",
"vw 	c #A35B51",
"ww 	c #91493E",
"xw 	c #9A5347",
"yw 	c #955246",
"zw 	c #9D5B4F",
"Aw 	c #945147",
"Bw 	c #8B4A3F",
"Cw 	c #94554A",
"Dw 	c #8D4F44",
"Ew 	c #84453A",
"Fw 	c #905247",
"Gw 	c #8B4C41",
"Hw 	c #975B5A",
"Iw 	c #9E6261",
"Jw 	c #9B6160",
"Kw 	c #985D5C",
"Lw 	c #975F5D",
"Mw 	c #9D6563",
"Nw 	c #9E6664",
"Ow 	c #9C6362",
"Pw 	c #A06565",
"Qw 	c #A76D6D",
"Rw 	c #A36A69",
"Sw 	c #8F5454",
"Tw 	c #94575A",
"Uw 	c #8E5054",
"Vw 	c #975D5E",
"Ww 	c #975E60",
"Xw 	c #955F61",
"Yw 	c #935E60",
"Zw 	c #8A5A5A",
"`w 	c #835556",
" x 	c #794F50",
".x 	c #6E4747",
"+x 	c #623E3E",
"@x 	c #553535",
"#x 	c #492D2D",
"$x 	c #3D2525",
"%x 	c #321D1D",
"&x 	c #291818",
"*x 	c #221313",
"=x 	c #180C0C",
"-x 	c #0E0606",
";x 	c #0A0606",
">x 	c #181517",
",x 	c #1E1B1D",
"'x 	c #241D1D",
")x 	c #331C18",
"!x 	c #38211B",
"~x 	c #3A211B",
"{x 	c #432320",
"]x 	c #4E2A25",
"^x 	c #633730",
"/x 	c #683933",
"(x 	c #6C3932",
"_x 	c #733E37",
":x 	c #7B433B",
"<x 	c #914D42",
"[x 	c #965245",
"}x 	c #A15A4F",
"|x 	c #934D41",
"1x 	c #9D584B",
"2x 	c #955447",
"3x 	c #965549",
"4x 	c #8F4D42",
"5x 	c #935246",
"6x 	c #925145",
"7x 	c #945547",
"8x 	c #965749",
"9x 	c #955648",
"0x 	c #905144",
"ax 	c #8F4F42",
"bx 	c #A56868",
"cx 	c #9C6162",
"dx 	c #995E5E",
"ex 	c #99605F",
"fx 	c #9E6666",
"gx 	c #9F6666",
"hx 	c #9F6565",
"ix 	c #A06566",
"jx 	c #A36869",
"kx 	c #A86D6E",
"lx 	c #A26768",
"mx 	c #8C5152",
"nx 	c #905556",
"ox 	c #975A5E",
"px 	c #8F5257",
"qx 	c #955A5E",
"rx 	c #90575B",
"sx 	c #925E61",
"tx 	c #8B595B",
"ux 	c #7E5255",
"vx 	c #6F4748",
"wx 	c #623D3E",
"xx 	c #593839",
"yx 	c #4F3132",
"zx 	c #44292A",
"Ax 	c #341E1E",
"Bx 	c #2E1A19",
"Cx 	c #291918",
"Dx 	c #1E1110",
"Ex 	c #140909",
"Fx 	c #0D0505",
"Gx 	c #060404",
"Hx 	c #0C090A",
"Ix 	c #161315",
"Jx 	c #1A1515",
"Kx 	c #180B0B",
"Lx 	c #2C1915",
"Mx 	c #2E1914",
"Nx 	c #3C211F",
"Ox 	c #482825",
"Px 	c #5C3531",
"Qx 	c #683A35",
"Rx 	c #6E3C38",
"Sx 	c #74413C",
"Tx 	c #7C453D",
"Ux 	c #864A3F",
"Vx 	c #904E41",
"Wx 	c #9D594C",
"Xx 	c #9E5A4C",
"Yx 	c #945447",
"Zx 	c #97584B",
"`x 	c #99564B",
" y 	c #965447",
".y 	c #915143",
"+y 	c #935445",
"@y 	c #9B5C4D",
"#y 	c #9E5F50",
"$y 	c #8F5141",
"%y 	c #8F4F40",
"&y 	c #8B5F61",
"*y 	c #926567",
"=y 	c #92686A",
"-y 	c #8F6667",
";y 	c #916B6B",
">y 	c #987272",
",y 	c #926C6E",
"'y 	c #926E71",
")y 	c #957073",
"!y 	c #916D70",
"~y 	c #8F6B6E",
"{y 	c #866265",
"]y 	c #8A6568",
"^y 	c #93686C",
"/y 	c #976D72",
"(y 	c #7B5255",
"_y 	c #795356",
":y 	c #7D595C",
"<y 	c #886568",
"[y 	c #836365",
"}y 	c #7C5D5F",
"|y 	c #76595B",
"1y 	c #6B5051",
"2y 	c #614849",
"3y 	c #5D4547",
"4y 	c #574243",
"5y 	c #4A3738",
"6y 	c #3A282A",
"7y 	c #302221",
"8y 	c #241816",
"9y 	c #1C1211",
"0y 	c #160E0D",
"ay 	c #0F0808",
"by 	c #060403",
"cy 	c #0A080A",
"dy 	c #0F0E0F",
"ey 	c #131111",
"fy 	c #0D0707",
"gy 	c #160D0D",
"hy 	c #221917",
"iy 	c #302727",
"jy 	c #3E3133",
"ky 	c #4B3D3E",
"ly 	c #514242",
"my 	c #554344",
"ny 	c #564242",
"oy 	c #604B4C",
"py 	c #604A4A",
"qy 	c #664E4F",
"ry 	c #6D5250",
"sy 	c #6F504C",
"ty 	c #71514C",
"uy 	c #6A4641",
"vy 	c #64403A",
"wy 	c #805B56",
"xy 	c #724D47",
"yy 	c #653E38",
"zy 	c #623B33",
"Ay 	c #7A524C",
"By 	c #784D48",
"Cy 	c #8B5F5B",
"Dy 	c #8D615D",
"Ey 	c #865753",
"Fy 	c #83544F",
"Gy 	c #82554D",
"Hy 	c #81554A",
"Iy 	c #82554B",
"Jy 	c #82574E",
"Ky 	c #6C4139",
"Ly 	c #73473E",
"My 	c #5A2E24",
"Ny 	c #8F6A6C",
"Oy 	c #906C6D",
"Py 	c #957475",
"Qy 	c #917071",
"Ry 	c #917373",
"Sy 	c #997B7B",
"Ty 	c #977A7C",
"Uy 	c #967B7D",
"Vy 	c #977C7E",
"Wy 	c #987D7F",
"Xy 	c #987E80",
"Yy 	c #957B7D",
"Zy 	c #917679",
"`y 	c #947A7C",
" z 	c #9B7B7D",
".z 	c #9F7D81",
"+z 	c #907374",
"@z 	c #8E7374",
"#z 	c #876C6E",
"$z 	c #856A6C",
"%z 	c #7F6667",
"&z 	c #7D6566",
"*z 	c #7A6263",
"=z 	c #70595A",
"-z 	c #655153",
";z 	c #614E4F",
">z 	c #5C494B",
",z 	c #504041",
"'z 	c #443536",
")z 	c #392D2D",
"!z 	c #2B2121",
"~z 	c #231A1A",
"{z 	c #1C1515",
"]z 	c #150F0F",
"^z 	c #100B0B",
"/z 	c #000001",
"(z 	c #0B0B0B",
"_z 	c #090707",
":z 	c #16100F",
"<z 	c #1C1716",
"[z 	c #352D2F",
"}z 	c #42393A",
"|z 	c #4B4243",
"1z 	c #514748",
"2z 	c #534848",
"3z 	c #5B4F50",
"4z 	c #605355",
"5z 	c #675A5B",
"6z 	c #6F5F5F",
"7z 	c #776261",
"8z 	c #7C6766",
"9z 	c #826B6A",
"0z 	c #806A69",
"az 	c #836D6D",
"bz 	c #876E6D",
"cz 	c #7F6565",
"dz 	c #7D6564",
"ez 	c #886E6E",
"fz 	c #886A69",
"gz 	c #886969",
"hz 	c #876464",
"iz 	c #856060",
"jz 	c #7F5859",
"kz 	c #7D5655",
"lz 	c #7C5853",
"mz 	c #7D5953",
"nz 	c #7E5A54",
"oz 	c #7E5B56",
"pz 	c #7F5E5A",
"qz 	c #7C5A56",
"rz 	c #61403D",
"sz 	c #947778",
"tz 	c #998182",
"uz 	c #947C7C",
"vz 	c #927C7B",
"wz 	c #9A8584",
"xz 	c #9E8A8B",
"yz 	c #9B898A",
"zz 	c #988789",
"Az 	c #9C8B8D",
"Bz 	c #A29092",
"Cz 	c #9E8D8E",
"Dz 	c #9D8B8E",
"Ez 	c #A19092",
"Fz 	c #A48F8F",
"Gz 	c #A89093",
"Hz 	c #A89394",
"Iz 	c #A79292",
"Jz 	c #948181",
"Kz 	c #7F6F70",
"Lz 	c #776968",
"Mz 	c #7E6D6D",
"Nz 	c #7E6C6C",
"Oz 	c #736464",
"Pz 	c #6A5D5D",
"Qz 	c #655959",
"Rz 	c #5F5252",
"Sz 	c #574B4B",
"Tz 	c #504546",
"Uz 	c #433A3B",
"Vz 	c #352F2F",
"Wz 	c #2C2527",
"Xz 	c #1C1718",
"Yz 	c #171314",
"Zz 	c #040505",
"`z 	c #110E0E",
" A 	c #171515",
".A 	c #211F1F",
"+A 	c #2C2829",
"@A 	c #373334",
"#A 	c #444142",
"$A 	c #4E4A4B",
"%A 	c #4F4B4C",
"&A 	c #575253",
"*A 	c #615C5D",
"=A 	c #6A6466",
"-A 	c #736B6C",
";A 	c #7E7173",
">A 	c #897B7D",
",A 	c #938486",
"'A 	c #97888A",
")A 	c #A19194",
"!A 	c #918082",
"~A 	c #8E7E81",
"{A 	c #988688",
"]A 	c #AE999B",
"^A 	c #978285",
"/A 	c #9C8487",
"(A 	c #82686D",
"_A 	c #775C62",
":A 	c #75585E",
"<A 	c #73575B",
"[A 	c #74595A",
"}A 	c #785D5C",
"|A 	c #7A5F5E",
"1A 	c #795F5F",
"2A 	c #947977",
"3A 	c #886E6D",
"4A 	c #6B5252",
"5A 	c #CFCBD4",
"6A 	c #CFCAD3",
"7A 	c #D1CBD2",
"8A 	c #D3CDD4",
"9A 	c #C2BBC1",
"0A 	c #BFB7BD",
"aA 	c #D3CED5",
"bA 	c #D5D1D7",
"cA 	c #D2CED4",
"dA 	c #C9C6CC",
"eA 	c #CBC8CE",
"fA 	c #D1CED3",
"gA 	c #CECBD1",
"hA 	c #CFD2D1",
"iA 	c #D6D3D4",
"jA 	c #D6C8CD",
"kA 	c #D1C9CB",
"lA 	c #C8C7C7",
"mA 	c #AEB4B2",
"nA 	c #ACAFAE",
"oA 	c #B8B4B7",
"pA 	c #B6AEB3",
"qA 	c #B2A9AD",
"rA 	c #ABA5A7",
"sA 	c #A19B9D",
"tA 	c #918C8D",
"uA 	c #817D7D",
"vA 	c #6F6D6B",
"wA 	c #636061",
"xA 	c #565455",
"yA 	c #4B484A",
"zA 	c #3F3D3F",
"AA 	c #363435",
"BA 	c #2A292A",
"CA 	c #1A1819",
"DA 	c #131213",
"EA 	c #0F0E0E",
"FA 	c #0A090A",
"GA 	c #050506",
"HA 	c #080808",
"IA 	c #0D0C0D",
"JA 	c #141314",
"KA 	c #1B191B",
"LA 	c #242122",
"MA 	c #312D2F",
"NA 	c #3D383B",
"OA 	c #4A4547",
"PA 	c #585254",
"QA 	c #635C5F",
"RA 	c #726A6D",
"SA 	c #80777B",
"TA 	c #8F868A",
"UA 	c #9D9198",
"VA 	c #A79BA4",
"WA 	c #B3A8B0",
"XA 	c #BEB2B6",
"YA 	c #C6B5BD",
"ZA 	c #D0C7D0",
"`A 	c #B8B8C1",
" B 	c #A3ABB1",
".B 	c #C5C7D0",
"+B 	c #D1C4CE",
"@B 	c #C7BBC1",
"#B 	c #BEBBBF",
"$B 	c #B9B8BD",
"%B 	c #B5B1B9",
"&B 	c #B4ACB6",
"*B 	c #BAB0BA",
"=B 	c #C3B8C2",
"-B 	c #C4B9C3",
";B 	c #BEB3BB",
">B 	c #BDB4BA",
",B 	c #C3B8BE",
"'B 	c #D5D0D9",
")B 	c #D6CFD8",
"!B 	c #DBD3D9",
"~B 	c #CEC4C9",
"{B 	c #CBC2C6",
"]B 	c #D6CED3",
"^B 	c #DCD5DA",
"/B 	c #DFD8DD",
"(B 	c #DDD6DB",
"_B 	c #D8D2D7",
":B 	c #DFDADF",
"<B 	c #DDDEDC",
"[B 	c #E2DCDD",
"}B 	c #E2D1D6",
"|B 	c #DDD3D5",
"1B 	c #D3D1D1",
"2B 	c #B2B8B7",
"3B 	c #AEB1B1",
"4B 	c #B8B1B6",
"5B 	c #B8AEB3",
"6B 	c #B7ADB2",
"7B 	c #B3A9AD",
"8B 	c #AAA1A4",
"9B 	c #9F9799",
"0B 	c #918B8B",
"aB 	c #7A7675",
"bB 	c #706B6C",
"cB 	c #686365",
"dB 	c #5E595B",
"eB 	c #514D4F",
"fB 	c #464243",
"gB 	c #373435",
"hB 	c #302D2E",
"iB 	c #262324",
"jB 	c #1F1D1E",
"kB 	c #1A1818",
"lB 	c #141313",
"mB 	c #0E0D0E",
"nB 	c #151314",
"oB 	c #1C191A",
"pB 	c #272324",
"qB 	c #322C2E",
"rB 	c #4F4749",
"sB 	c #5B5254",
"tB 	c #685E60",
"uB 	c #73696B",
"vB 	c #827679",
"wB 	c #91848A",
"xB 	c #9D8F97",
"yB 	c #AB9EA5",
"zB 	c #B7ABAE",
"AB 	c #BAACAF",
"BB 	c #C1ADB4",
"CB 	c #CBC1CA",
"DB 	c #B1B0B8",
"EB 	c #A9B1B7",
"FB 	c #C7C9D1",
"GB 	c #D4C4CE",
"HB 	c #C8B9BF",
"IB 	c #C6C1C5",
"JB 	c #C6C3C8",
"KB 	c #BDB7BF",
"LB 	c #B8AEB8",
"MB 	c #C1B5BF",
"NB 	c #CFC2CB",
"OB 	c #D2C5CD",
"PB 	c #CABDC4",
"QB 	c #CDC1C6",
"RB 	c #C5B9BE",
"SB 	c #D0C4C8",
"TB 	c #DACFD3",
"UB 	c #DDCFD4",
"VB 	c #EADBDE",
"WB 	c #E6D6D8",
"XB 	c #E2D1D2",
"YB 	c #E4D3D4",
"ZB 	c #EAD9DA",
"`B 	c #EAD8DB",
" C 	c #EEDCDF",
".C 	c #F0DEE1",
"+C 	c #E9D7DA",
"@C 	c #F2E0E3",
"#C 	c #FBEDF0",
"$C 	c #F5E3E6",
"%C 	c #F6F1ED",
"&C 	c #F7E9E9",
"*C 	c #F7E0E5",
"=C 	c #F1DFE3",
"-C 	c #E4DCDE",
";C 	c #B2B3B4",
">C 	c #A3A3A6",
",C 	c #A29499",
"'C 	c #A6949B",
")C 	c #B09CA4",
"!C 	c #B19EA4",
"~C 	c #AD9CA0",
"{C 	c #AD9EA0",
"]C 	c #A39596",
"^C 	c #857879",
"/C 	c #7E7273",
"(C 	c #817578",
"_C 	c #786D70",
":C 	c #6C6265",
"<C 	c #5C5355",
"[C 	c #453D3F",
"}C 	c #443D3F",
"|C 	c #353031",
"1C 	c #2F2B2C",
"2C 	c #282325",
"3C 	c #211D1E",
"4C 	c #1B1819",
"5C 	c #161314",
"6C 	c #121111",
"7C 	c #0F0D0E",
"8C 	c #0C0B0B",
"9C 	c #0A0808",
"0C 	c #100D0D",
"aC 	c #151212",
"bC 	c #1B1516",
"cC 	c #261F1F",
"dC 	c #382F30",
"eC 	c #473C3D",
"fC 	c #504444",
"gC 	c #564848",
"hC 	c #5A4A4B",
"iC 	c #665455",
"jC 	c #776466",
"kC 	c #877277",
"lC 	c #9D898D",
"mC 	c #B29FA0",
"nC 	c #B29A9C",
"oC 	c #AE9599",
"pC 	c #B7A8AE",
"qC 	c #B6BBC0",
"rC 	c #C9C5CC",
"sC 	c #D0B9C2",
"tC 	c #C3ACB1",
"uC 	c #CFC2C5",
"vC 	c #DCD1D6",
"wC 	c #B7A5AE",
"xC 	c #C9B5BB",
"yC 	c #E2CED2",
"zC 	c #E8D4D7",
"AC 	c #DDCACC",
"BC 	c #EAD7D8",
"CC 	c #D2BFBF",
"DC 	c #E4D1D0",
"EC 	c #9C7C7A",
"FC 	c #997976",
"GC 	c #9A7A77",
"HC 	c #9D7B77",
"IC 	c #977670",
"JC 	c #997671",
"KC 	c #A07B76",
"LC 	c #A77F7B",
"MC 	c #A67F7B",
"NC 	c #9F7A77",
"OC 	c #9B7673",
"PC 	c #A07B78",
"QC 	c #A5817E",
"RC 	c #A27D7A",
"SC 	c #9E8580",
"TC 	c #A3827F",
"UC 	c #AE8689",
"VC 	c #A8888D",
"WC 	c #A48E91",
"XC 	c #A49A9F",
"YC 	c #927278",
"ZC 	c #896065",
"`C 	c #825A5F",
" D 	c #7C595B",
".D 	c #7F5D5E",
"+D 	c #775758",
"@D 	c #624445",
"#D 	c #5E4243",
"$D 	c #5A4143",
"%D 	c #543D3F",
"&D 	c #433032",
"*D 	c #352324",
"=D 	c #352627",
"-D 	c #2C1E1F",
";D 	c #271B1C",
">D 	c #211618",
",D 	c #1D1315",
"'D 	c #181011",
")D 	c #130C0D",
"!D 	c #100A0B",
"~D 	c #0D0808",
"{D 	c #090505",
"]D 	c #110807",
"^D 	c #1C100F",
"/D 	c #251716",
"(D 	c #331F1E",
"_D 	c #412625",
":D 	c #4B2E2E",
"<D 	c #583939",
"[D 	c #644644",
"}D 	c #6C504E",
"|D 	c #6C4D4C",
"1D 	c #775253",
"2D 	c #8B7476",
"3D 	c #9A8C8F",
"4D 	c #BBB2B3",
"5D 	c #B19EA2",
"6D 	c #856368",
"7D 	c #775558",
"8D 	c #8C6B6C",
"9D 	c #907173",
"0D 	c #8C676D",
"aD 	c #855D62",
"bD 	c #896465",
"cD 	c #977271",
"dD 	c #9C7774",
"eD 	c #98726E",
"fD 	c #9F7A75",
"gD 	c #916C66",
"hD 	c #94716B",
"iD 	c #875850",
"jD 	c #835349",
"kD 	c #7F4D42",
"lD 	c #855347",
"mD 	c #804E40",
"nD 	c #824E41",
"oD 	c #895246",
"pD 	c #8F554A",
"qD 	c #81483D",
"rD 	c #854A3F",
"sD 	c #894F44",
"tD 	c #874D42",
"uD 	c #805248",
"vD 	c #955F62",
"wD 	c #916468",
"xD 	c #A2959A",
"yD 	c #A2959E",
"zD 	c #8F686E",
"AD 	c #814B4F",
"BD 	c #753D40",
"CD 	c #6E363A",
"DD 	c #6F393B",
"ED 	c #713E3E",
"FD 	c #6A3939",
"GD 	c #5C2D2D",
"HD 	c #592C2D",
"ID 	c #4E2425",
"JD 	c #482021",
"KD 	c #421D1F",
"LD 	c #3E1D1E",
"MD 	c #341516",
"ND 	c #351819",
"OD 	c #2D1315",
"PD 	c #291113",
"QD 	c #240F11",
"RD 	c #210E10",
"SD 	c #1C0B0D",
"TD 	c #160809",
"UD 	c #120607",
"VD 	c #0F0505",
"WD 	c #0C0304",
"XD 	c #1C0805",
"YD 	c #240C09",
"ZD 	c #2D100C",
"`D 	c #31100B",
" E 	c #3A1410",
".E 	c #461F19",
"+E 	c #4F2720",
"@E 	c #522A23",
"#E 	c #522723",
"$E 	c #623534",
"%E 	c #998B8D",
"&E 	c #B9ACAC",
"*E 	c #A78F91",
"=E 	c #6D3C40",
"-E 	c #612A2C",
";E 	c #784343",
">E 	c #774243",
",E 	c #7B4246",
"'E 	c #783E40",
")E 	c #77403B",
"!E 	c #7F4940",
"~E 	c #854E45",
"{E 	c #855044",
"]E 	c #7D483B",
"^E 	c #844D43",
"/E 	c #895248",
"(E 	c #874F43",
"_E 	c #8A5044",
":E 	c #90564A",
"<E 	c #985E50",
"[E 	c #96584B",
"}E 	c #955348",
"|E 	c #924F45",
"1E 	c #9A584E",
"2E 	c #8D5648",
"3E 	c #95594F",
"4E 	c #935958",
"5E 	c #8E5E5F",
"6E 	c #8B6B6C",
"7E 	c #A5989D",
"8E 	c #AA9DA6",
"9E 	c #8E666A",
"0E 	c #814546",
"aE 	c #7D3E3E",
"bE 	c #7E4040",
"cE 	c #7D4140",
"dE 	c #733936",
"eE 	c #6F3735",
"fE 	c #733A38",
"gE 	c #6E3837",
"hE 	c #562222",
"iE 	c #4E1D1D",
"jE 	c #4C1E1F",
"kE 	c #471D1C",
"lE 	c #451E1E",
"mE 	c #431E1F",
"nE 	c #3A1819",
"oE 	c #371719",
"pE 	c #311516",
"qE 	c #2B1112",
"rE 	c #271010",
"sE 	c #230E0E",
"tE 	c #1B0909",
"uE 	c #180707",
"vE 	c #120405",
"wE 	c #100404",
"xE 	c #0F0304",
"yE 	c #090909",
"zE 	c #090101",
"AE 	c #0F0302",
"BE 	c #230B08",
"CE 	c #290C08",
"DE 	c #300E09",
"EE 	c #3A130E",
"FE 	c #441B16",
"GE 	c #4F241D",
"HE 	c #572C26",
"IE 	c #5B2D28",
"JE 	c #633434",
"KE 	c #8A7175",
"LE 	c #998D93",
"ME 	c #AFA3A2",
"NE 	c #8B7471",
"OE 	c #884F50",
"PE 	c #8C4C4B",
"QE 	c #844542",
"RE 	c #854845",
"SE 	c #864445",
"TE 	c #884746",
"UE 	c #894A45",
"VE 	c #894D42",
"WE 	c #86493C",
"XE 	c #86504A",
"YE 	c #8B524B",
"ZE 	c #8B5248",
"`E 	c #8F554C",
" F 	c #91524A",
".F 	c #925049",
"+F 	c #904D47",
"@F 	c #8B4741",
"#F 	c #87433D",
"$F 	c #8C4943",
"%F 	c #8F4C46",
"&F 	c #8E4A44",
"*F 	c #8C5747",
"=F 	c #955A4E",
"-F 	c #8E5753",
";F 	c #845A57",
">F 	c #8E7471",
",F 	c #A59FA1",
"'F 	c #A9A5A9",
")F 	c #906E6E",
"!F 	c #824945",
"~F 	c #7D423F",
"{F 	c #7A3F3A",
"]F 	c #783D37",
"^F 	c #743A34",
"/F 	c #6F3630",
"(F 	c #69332F",
"_F 	c #5D2926",
":F 	c #5D2A27",
"<F 	c #582927",
"[F 	c #502421",
"}F 	c #4B221F",
"|F 	c #471F1D",
"1F 	c #401B1A",
"2F 	c #3A1818",
"3F 	c #351615",
"4F 	c #311313",
"5F 	c #2B1110",
"6F 	c #260E0E",
"7F 	c #1B0707",
"8F 	c #1C0909",
"9F 	c #190708",
"0F 	c #1A0909",
"aF 	c #150706",
"bF 	c #120505",
"cF 	c #120706",
"dF 	c #0E0605",
"eF 	c #100D0C",
"fF 	c #111212",
"gF 	c #131313",
"hF 	c #0B0504",
"iF 	c #0A0403",
"jF 	c #210908",
"kF 	c #290C0A",
"lF 	c #341311",
"mF 	c #411B19",
"nF 	c #49211E",
"oF 	c #542C2A",
"pF 	c #5E3233",
"qF 	c #5F3338",
"rF 	c #8B7980",
"sF 	c #9B99A1",
"tF 	c #A5A09D",
"uF 	c #917E7A",
"vF 	c #865050",
"wF 	c #8A4B49",
"xF 	c #7E423B",
"yF 	c #7C413A",
"zF 	c #7F413C",
"AF 	c #834542",
"BF 	c #854746",
"CF 	c #864847",
"DF 	c #864946",
"EF 	c #824541",
"FF 	c #844842",
"GF 	c #82463F",
"HF 	c #7B3E35",
"IF 	c #915B58",
"JF 	c #8C534E",
"KF 	c #8B5049",
"LF 	c #8E4F4A",
"MF 	c #904E4A",
"NF 	c #8F4B48",
"OF 	c #8A4642",
"PF 	c #85413D",
"QF 	c #8A4743",
"RF 	c #894542",
"SF 	c #8B4643",
"TF 	c #8C5846",
"UF 	c #955B4E",
"VF 	c #8D5751",
"WF 	c #805853",
"XF 	c #8F7773",
"YF 	c #A6A3A4",
"ZF 	c #A8A7AA",
"`F 	c #927371",
" G 	c #8B5852",
".G 	c #7D453F",
"+G 	c #793E38",
"@G 	c #7C4038",
"#G 	c #783D36",
"$G 	c #6E342D",
"%G 	c #69312B",
"&G 	c #642E29",
"*G 	c #66322E",
"=G 	c #62302C",
"-G 	c #592A26",
";G 	c #532622",
">G 	c #4C211E",
",G 	c #471E1B",
"'G 	c #401A18",
")G 	c #3B1816",
"!G 	c #361514",
"~G 	c #321312",
"{G 	c #270D0B",
"]G 	c #230A09",
"^G 	c #230D0D",
"/G 	c #251110",
"(G 	c #210D0C",
"_G 	c #230F0D",
":G 	c #200D0B",
"<G 	c #1C0A08",
"[G 	c #1A0907",
"}G 	c #190A08",
"|G 	c #1A0B09",
"1G 	c #180B09",
"2G 	c #190D0B",
"3G 	c #180C0B",
"4G 	c #150E0D",
"5G 	c #1B1817",
"6G 	c #1B1C1D",
"7G 	c #1D1D1D",
"8G 	c #120A08",
"9G 	c #110705",
"0G 	c #0F0604",
"aG 	c #0E0503",
"bG 	c #1C0706",
"cG 	c #240A09",
"dG 	c #2F1111",
"eG 	c #3C1918",
"fG 	c #431E1C",
"gG 	c #512A2A",
"hG 	c #5C3234",
"iG 	c #5D323A",
"jG 	c #8B7B85",
"kG 	c #9A9BA4",
"lG 	c #9E9C99",
"mG 	c #92817C",
"nG 	c #84504F",
"oG 	c #894B48",
"pG 	c #7C3F39",
"qG 	c #783E33",
"rG 	c #814441",
"sG 	c #844647",
"tG 	c #824546",
"uG 	c #7E4141",
"vG 	c #824642",
"wG 	c #7D413D",
"xG 	c #763933",
"yG 	c #8A524F",
"zG 	c #8C534B",
"AG 	c #8A4D48",
"BG 	c #8D4C48",
"CG 	c #884744",
"DG 	c #83423F",
"EG 	c #854440",
"FG 	c #864542",
"GG 	c #8B5748",
"HG 	c #98625C",
"IG 	c #8E6662",
"JG 	c #8D7571",
"KG 	c #A3A0A0",
"LG 	c #A7A7A9",
"MG 	c #9F817F",
"NG 	c #90615D",
"OG 	c #7C443F",
"PG 	c #773D36",
"QG 	c #783E37",
"RG 	c #743834",
"SG 	c #6E3732",
"TG 	c #68322F",
"UG 	c #67322F",
"VG 	c #673430",
"WG 	c #653431",
"XG 	c #5D2E2B",
"YG 	c #542825",
"ZG 	c #4D2220",
"`G 	c #481E1D",
" H 	c #411B1A",
".H 	c #3C1818",
"+H 	c #381715",
"@H 	c #321413",
"#H 	c #2E1210",
"$H 	c #2A100F",
"%H 	c #311817",
"&H 	c #341B1A",
"*H 	c #331B19",
"=H 	c #2F1816",
"-H 	c #26100D",
";H 	c #240D0C",
">H 	c #230D0C",
",H 	c #200C0B",
"'H 	c #200E0C",
")H 	c #231412",
"!H 	c #221411",
"~H 	c #211311",
"{H 	c #1C1413",
"]H 	c #252728",
"^H 	c #282829",
"/H 	c #1B100E",
"(H 	c #1A0D0B",
"_H 	c #210B0A",
":H 	c #4C2626",
"<H 	c #562D30",
"[H 	c #694146",
"}H 	c #A5949D",
"|H 	c #93959B",
"1H 	c #949290",
"2H 	c #8E7D7A",
"3H 	c #7F4C4E",
"4H 	c #894A4A",
"5H 	c #834841",
"6H 	c #81483E",
"7H 	c #824B42",
"8H 	c #874B4B",
"9H 	c #874A4C",
"0H 	c #874A4B",
"aH 	c #87494A",
"bH 	c #854947",
"cH 	c #8D544E",
"dH 	c #8D534C",
"eH 	c #8D5249",
"fH 	c #8E534A",
"gH 	c #8E4E47",
"hH 	c #874640",
"iH 	c #7F3E39",
"jH 	c #82413B",
"kH 	c #8A4944",
"lH 	c #8E594C",
"mH 	c #955A50",
"nH 	c #935C58",
"oH 	c #8A605D",
"pH 	c #8A6F6D",
"qH 	c #A39E9D",
"rH 	c #ACAAAC",
"sH 	c #9A7C7B",
"tH 	c #8E5F5B",
"uH 	c #7E4542",
"vH 	c #7B3E3A",
"wH 	c #7C403B",
"xH 	c #793C39",
"yH 	c #743A37",
"zH 	c #6E3533",
"AH 	c #6A3331",
"BH 	c #6C3635",
"CH 	c #6D3937",
"DH 	c #643230",
"EH 	c #61302F",
"FH 	c #582929",
"GH 	c #532627",
"HH 	c #4E2223",
"IH 	c #471E1F",
"JH 	c #411B1B",
"KH 	c #3D1919",
"LH 	c #3D1B1A",
"MH 	c #381816",
"NH 	c #412322",
"OH 	c #3C201F",
"PH 	c #402422",
"QH 	c #3D221F",
"RH 	c #321815",
"SH 	c #331716",
"TH 	c #311514",
"UH 	c #301515",
"VH 	c #2C1513",
"WH 	c #2F1918",
"XH 	c #321C1B",
"YH 	c #2E1918",
"ZH 	c #2F1C19",
"`H 	c #2C1A17",
" I 	c #2D1B19",
".I 	c #271C1B",
"+I 	c #322B2B",
"@I 	c #343537",
"#I 	c #383739",
"$I 	c #251615",
"%I 	c #241311",
"&I 	c #22110F",
"*I 	c #1D0C0A",
"=I 	c #28100E",
"-I 	c #321614",
";I 	c #3A1918",
">I 	c #482323",
",I 	c #522A2B",
"'I 	c #61373C",
")I 	c #928086",
"!I 	c #86878A",
"~I 	c #929090",
"{I 	c #8F7B7C",
"]I 	c #7D474C",
"^I 	c #8A484B",
"/I 	c #864945",
"(I 	c #874D46",
"_I 	c #824B43",
":I 	c #844B47",
"<I 	c #884B4B",
"[I 	c #884A4B",
"}I 	c #864747",
"|I 	c #864746",
"1I 	c #884B48",
"2I 	c #844642",
"3I 	c #874E48",
"4I 	c #8F5650",
"5I 	c #90564E",
"6I 	c #8D5247",
"7I 	c #93564C",
"8I 	c #86453D",
"9I 	c #7C3B33",
"0I 	c #8C4A43",
"aI 	c #915B50",
"bI 	c #945951",
"cI 	c #865A59",
"dI 	c #876968",
"eI 	c #A39C9B",
"fI 	c #B2ADAF",
"gI 	c #947776",
"hI 	c #8C5E5B",
"iI 	c #865451",
"jI 	c #814B48",
"kI 	c #804644",
"lI 	c #7E403E",
"mI 	c #80423F",
"nI 	c #7D3F3C",
"oI 	c #793D3C",
"pI 	c #723837",
"qI 	c #6D3333",
"rI 	c #713939",
"sI 	c #733D3D",
"tI 	c #6B3535",
"uI 	c #6C3838",
"vI 	c #633132",
"wI 	c #5E2E2F",
"xI 	c #592A2C",
"yI 	c #512526",
"zI 	c #491F20",
"AI 	c #471F1F",
"BI 	c #472121",
"CI 	c #421E1E",
"DI 	c #401C1B",
"EI 	c #512F2E",
"FI 	c #442322",
"GI 	c #4C2C2A",
"HI 	c #4B2C29",
"II 	c #462723",
"JI 	c #3F211C",
"KI 	c #3F1C1D",
"LI 	c #3F1D1E",
"MI 	c #3E1E1E",
"NI 	c #381B1B",
"OI 	c #381C1C",
"PI 	c #3D2121",
"QI 	c #39201E",
"RI 	c #3A2320",
"SI 	c #36201D",
"TI 	c #382321",
"UI 	c #322323",
"VI 	c #403738",
"WI 	c #444448",
"XI 	c #4A474B",
"YI 	c #2F1D1C",
"ZI 	c #2A1413",
"`I 	c #291412",
" J 	c #2A1412",
".J 	c #281311",
"+J 	c #1E0C0A",
"@J 	c #1B0A08",
"#J 	c #250F0D",
"$J 	c #301513",
"%J 	c #391A18",
"&J 	c #452120",
"*J 	c #4E2627",
"=J 	c #592F32",
"-J 	c #7E6C6E",
";J 	c #7A797A",
">J 	c #928D8F",
",J 	c #8E797D",
"'J 	c #7C4249",
")J 	c #89474B",
"!J 	c #884C4A",
"~J 	c #8B524C",
"{J 	c #824B44",
"]J 	c #894C4B",
"^J 	c #89494A",
"/J 	c #854544",
"(J 	c #854442",
"_J 	c #874843",
":J 	c #874D3F",
"<J 	c #8E5347",
"[J 	c #97584A",
"}J 	c #945446",
"|J 	c #955043",
"1J 	c #8D483A",
"2J 	c #833E30",
"3J 	c #813B2D",
"4J 	c #833C2F",
"5J 	c #853F31",
"6J 	c #8C4538",
"7J 	c #90493C",
"8J 	c #975652",
"9J 	c #995554",
"0J 	c #A27276",
"aJ 	c #826266",
"bJ 	c #9F9197",
"cJ 	c #BCAFB5",
"dJ 	c #9C7A7D",
"eJ 	c #926161",
"fJ 	c #7F4B4B",
"gJ 	c #71383A",
"hJ 	c #894E4F",
"iJ 	c #905658",
"jJ 	c #7B4142",
"kJ 	c #773A3B",
"lJ 	c #75393B",
"mJ 	c #773C3D",
"nJ 	c #8D5455",
"oJ 	c #804848",
"pJ 	c #733C3E",
"qJ 	c #6C3738",
"rJ 	c #693536",
"sJ 	c #6A3739",
"tJ 	c #673739",
"uJ 	c #623436",
"vJ 	c #613538",
"wJ 	c #64393C",
"xJ 	c #5B3335",
"yJ 	c #542B2E",
"zJ 	c #522929",
"AJ 	c #4D2525",
"BJ 	c #5C3535",
"CJ 	c #5D3637",
"DJ 	c #532E2C",
"EJ 	c #502B2A",
"FJ 	c #4D2929",
"GJ 	c #583434",
"HJ 	c #4C2829",
"IJ 	c #492626",
"JJ 	c #472626",
"KJ 	c #492828",
"LJ 	c #4C2C2C",
"MJ 	c #4D2D2D",
"NJ 	c #492D2B",
"OJ 	c #49312D",
"PJ 	c #442B29",
"QJ 	c #452D2B",
"RJ 	c #453335",
"SJ 	c #53474B",
"TJ 	c #505056",
"UJ 	c #59585D",
"VJ 	c #3B2526",
"WJ 	c #3B1E20",
"XJ 	c #3A1C1E",
"YJ 	c #381B1C",
"ZJ 	c #331818",
"`J 	c #311616",
" K 	c #321616",
".K 	c #2E1513",
"+K 	c #281411",
"@K 	c #160807",
"#K 	c #1E0A08",
"$K 	c #301310",
"%K 	c #3D1918",
"&K 	c #4A2121",
"*K 	c #5A2E30",
"=K 	c #61494A",
"-K 	c #87807F",
";K 	c #978D94",
">K 	c #957B84",
",K 	c #7D454A",
"'K 	c #884B42",
")K 	c #895046",
"!K 	c #885048",
"~K 	c #894F46",
"{K 	c #8C4D43",
"]K 	c #814136",
"^K 	c #86473C",
"/K 	c #894B3E",
"(K 	c #88493C",
"_K 	c #884E41",
":K 	c #8D5245",
"<K 	c #945649",
"[K 	c #935346",
"}K 	c #934F44",
"|K 	c #955044",
"1K 	c #8F4A3D",
"2K 	c #864134",
"3K 	c #823C30",
"4K 	c #823C2F",
"5K 	c #843F32",
"6K 	c #8E483B",
"7K 	c #995954",
"8K 	c #9B5855",
"9K 	c #95595C",
"0K 	c #A5777A",
"aK 	c #7B5D60",
"bK 	c #9F9299",
"cK 	c #B4A8B0",
"dK 	c #916060",
"eK 	c #783E3F",
"fK 	c #814748",
"gK 	c #8A4E50",
"hK 	c #8C5354",
"iK 	c #834D4C",
"jK 	c #7C4343",
"kK 	c #783C3D",
"lK 	c #793E3F",
"mK 	c #7E4344",
"nK 	c #925859",
"oK 	c #874E4E",
"pK 	c #783F41",
"qK 	c #733C3D",
"rK 	c #713B3C",
"sK 	c #713D3D",
"tK 	c #6E3B3D",
"uK 	c #69393B",
"vK 	c #693A3D",
"wK 	c #693C3F",
"xK 	c #63373A",
"yK 	c #5E3235",
"zK 	c #5D2F30",
"AK 	c #572C2C",
"BK 	c #6A3F3F",
"CK 	c #6A3F40",
"DK 	c #5D3433",
"EK 	c #5D3434",
"FK 	c #593131",
"GK 	c #613A39",
"HK 	c #583231",
"IK 	c #563030",
"JK 	c #542F2E",
"KK 	c #553130",
"LK 	c #593535",
"MK 	c #583635",
"NK 	c #563634",
"OK 	c #543835",
"PK 	c #503431",
"QK 	c #513634",
"RK 	c #523E40",
"SK 	c #615459",
"TK 	c #5D5E65",
"UK 	c #67676C",
"VK 	c #452D2E",
"WK 	c #442425",
"XK 	c #432123",
"YK 	c #422122",
"ZK 	c #3F2020",
"`K 	c #3D1F1F",
" L 	c #3D1E1E",
".L 	c #321A16",
"+L 	c #271310",
"@L 	c #23100E",
"#L 	c #170908",
"$L 	c #120606",
"%L 	c #1B0907",
"&L 	c #2E1311",
"*L 	c #3B1917",
"=L 	c #472020",
"-L 	c #512729",
";L 	c #675152",
">L 	c #817B7A",
",L 	c #8F858C",
"'L 	c #877079",
")L 	c #7A4446",
"!L 	c #854644",
"~L 	c #85493F",
"{L 	c #864E43",
"]L 	c #864E45",
"^L 	c #864B43",
"/L 	c #894B40",
"(L 	c #7C3E32",
"_L 	c #894C3F",
":L 	c #874A3D",
"<L 	c #814638",
"[L 	c #8A4F43",
"}L 	c #8F5246",
"|L 	c #905146",
"1L 	c #924E44",
"2L 	c #955046",
"3L 	c #924D42",
"4L 	c #8D473C",
"5L 	c #864135",
"6L 	c #813C30",
"7L 	c #843F33",
"8L 	c #884337",
"9L 	c #8B463A",
"0L 	c #9D5E58",
"aL 	c #9E5C58",
"bL 	c #975C5F",
"cL 	c #A87C7E",
"dL 	c #6E5355",
"eL 	c #9F959C",
"fL 	c #A49BA4",
"gL 	c #8C6C6F",
"hL 	c #8F5E5E",
"iL 	c #885252",
"jL 	c #834949",
"kL 	c #894E4E",
"lL 	c #894F50",
"mL 	c #814A49",
"nL 	c #81504E",
"oL 	c #7B4443",
"pL 	c #793D3D",
"qL 	c #7E4343",
"rL 	c #874D4D",
"sL 	c #935A5A",
"tL 	c #8D5454",
"uL 	c #7B4343",
"vL 	c #7A4343",
"wL 	c #774141",
"xL 	c #764040",
"yL 	c #6F3D3E",
"zL 	c #6E3D3F",
"AL 	c #67383A",
"BL 	c #65373B",
"CL 	c #66393B",
"DL 	c #693839",
"EL 	c #774849",
"FL 	c #764748",
"GL 	c #663739",
"HL 	c #6B3F3F",
"IL 	c #653B39",
"JL 	c #613938",
"KL 	c #653D3B",
"LL 	c #613B39",
"ML 	c #643F3C",
"NL 	c #623D3B",
"OL 	c #613F3C",
"PL 	c #5C3E39",
"QL 	c #5E3F3D",
"RL 	c #5F494B",
"SL 	c #6F6165",
"TL 	c #6A6C74",
"UL 	c #74757B",
"VL 	c #4D3434",
"WL 	c #4B2728",
"XL 	c #4A2424",
"YL 	c #4A2626",
"ZL 	c #4C2A2A",
"`L 	c #4C2A28",
" M 	c #492725",
".M 	c #412420",
"+M 	c #3A1F1C",
"@M 	c #351C19",
"#M 	c #331C19",
"$M 	c #2B1614",
"%M 	c #180A09",
"&M 	c #391A19",
"*M 	c #452021",
"=M 	c #421B1D",
"-M 	c #756062",
";M 	c #787373",
">M 	c #80797E",
",M 	c #6D5B62",
"'M 	c #744342",
")M 	c #7E443E",
"!M 	c #7F483A",
"~M 	c #824D3C",
"{M 	c #80443B",
"]M 	c #84463B",
"^M 	c #824539",
"/M 	c #74372B",
"(M 	c #804337",
"_M 	c #884D41",
":M 	c #864C3F",
"<M 	c #82483B",
"[M 	c #874F48",
"}M 	c #874E46",
"|M 	c #874D47",
"1M 	c #8A4942",
"2M 	c #894840",
"3M 	c #84433C",
"4M 	c #7D3D35",
"5M 	c #7B3B31",
"6M 	c #82413A",
"7M 	c #87463F",
"8M 	c #9B5F4F",
"9M 	c #9C5D51",
"0M 	c #A37F7C",
"aM 	c #8C7877",
"bM 	c #98969A",
"cM 	c #ABAAB0",
"dM 	c #987A7D",
"eM 	c #8F5E5D",
"fM 	c #884E4E",
"gM 	c #8A504F",
"hM 	c #814948",
"iM 	c #663431",
"jM 	c #75403D",
"kM 	c #753E3B",
"lM 	c #77413E",
"mM 	c #7C4644",
"nM 	c #854F4D",
"oM 	c #8D5956",
"pM 	c #7B4644",
"qM 	c #7B4643",
"rM 	c #774340",
"sM 	c #784542",
"tM 	c #764442",
"uM 	c #70413F",
"vM 	c #6D3F3E",
"wM 	c #693D3D",
"xM 	c #663B3B",
"yM 	c #643939",
"zM 	c #633533",
"AM 	c #613431",
"BM 	c #754745",
"CM 	c #714441",
"DM 	c #714643",
"EM 	c #734746",
"FM 	c #6A413E",
"GM 	c #704A46",
"HM 	c #6A433F",
"IM 	c #694340",
"JM 	c #704B48",
"KM 	c #6C4643",
"LM 	c #6A4341",
"MM 	c #633C3A",
"NM 	c #552D2A",
"OM 	c #6A4240",
"PM 	c #65403E",
"QM 	c #725A5A",
"RM 	c #756668",
"SM 	c #73757A",
"TM 	c #77787C",
"UM 	c #563C38",
"VM 	c #4D2A26",
"WM 	c #542D2A",
"XM 	c #502B27",
"YM 	c #4E2D27",
"ZM 	c #4E2C26",
"`M 	c #4B2724",
" N 	c #412221",
".N 	c #3B1E1D",
"+N 	c #341A19",
"@N 	c #311918",
"#N 	c #2A1514",
"$N 	c #210E0D",
"%N 	c #1C0C09",
"&N 	c #27100C",
"*N 	c #331713",
"=N 	c #3B1A18",
"-N 	c #4E2C2B",
";N 	c #473638",
">N 	c #6E6A6C",
",N 	c #848484",
"'N 	c #948686",
")N 	c #714744",
"!N 	c #7E4A43",
"~N 	c #834F42",
"{N 	c #875244",
"]N 	c #894F45",
"^N 	c #8C4F48",
"/N 	c #8E504A",
"(N 	c #8B4D48",
"_N 	c #8A4C48",
":N 	c #8B4D47",
"<N 	c #8C4E49",
"[N 	c #884F48",
"}N 	c #8B504A",
"|N 	c #8A4B45",
"1N 	c #8B4A43",
"2N 	c #8A4941",
"3N 	c #86453E",
"4N 	c #814038",
"5N 	c #83423B",
"6N 	c #894841",
"7N 	c #995E4C",
"8N 	c #9A5B4E",
"9N 	c #915D58",
"0N 	c #A17E7A",
"aN 	c #917D7C",
"bN 	c #9B9B9E",
"cN 	c #ACACB3",
"dN 	c #9B7D7F",
"eN 	c #8E5C5B",
"fN 	c #895251",
"gN 	c #884C4C",
"hN 	c #814847",
"iN 	c #65322F",
"jN 	c #753F3C",
"kN 	c #77403E",
"lN 	c #79423F",
"mN 	c #7D4644",
"nN 	c #864F4C",
"oN 	c #925D5A",
"pN 	c #814B49",
"qN 	c #7E4945",
"rN 	c #794441",
"sN 	c #7B4743",
"tN 	c #794744",
"uN 	c #744341",
"vN 	c #70403F",
"wN 	c #6D403F",
"xN 	c #6A3D3D",
"yN 	c #673A39",
"zN 	c #663634",
"AN 	c #663534",
"BN 	c #7A4A48",
"CN 	c #764745",
"DN 	c #794B47",
"EN 	c #7C4D4C",
"FN 	c #7A514D",
"GN 	c #734B47",
"HN 	c #734A47",
"IN 	c #79514E",
"JN 	c #744C4A",
"KN 	c #724A47",
"LN 	c #6D423F",
"MN 	c #5F322F",
"NN 	c #724644",
"ON 	c #6D4543",
"PN 	c #7C6262",
"QN 	c #7E6E70",
"RN 	c #7D7D83",
"SN 	c #808083",
"TN 	c #5F433D",
"UN 	c #552F2B",
"VN 	c #5F3532",
"WN 	c #5C3430",
"XN 	c #56322B",
"YN 	c #542F28",
"ZN 	c #512A26",
"`N 	c #4C2726",
" O 	c #482625",
".O 	c #412121",
"+O 	c #391C1C",
"@O 	c #361B1B",
"#O 	c #2F1717",
"$O 	c #26100F",
"%O 	c #1A0805",
"&O 	c #2F1410",
"*O 	c #381916",
"=O 	c #4B2A29",
"-O 	c #49393B",
";O 	c #6B6769",
">O 	c #828181",
",O 	c #97898A",
"'O 	c #6C4341",
")O 	c #7D4944",
"!O 	c #824E42",
"~O 	c #875245",
"{O 	c #8A4F46",
"]O 	c #8D4E4A",
"^O 	c #8D4F4A",
"/O 	c #8D4D49",
"(O 	c #8C4D48",
"_O 	c #8F504B",
":O 	c #92574F",
"<O 	c #8E534B",
"[O 	c #90544C",
"}O 	c #8F534B",
"|O 	c #8E5048",
"1O 	c #90514A",
"2O 	c #93534B",
"3O 	c #8F4C43",
"4O 	c #8E4B43",
"5O 	c #8C4A41",
"6O 	c #89463D",
"7O 	c #89463E",
"8O 	c #924F47",
"9O 	c #945745",
"0O 	c #955647",
"aO 	c #9F7875",
"bO 	c #998282",
"cO 	c #AEACB6",
"dO 	c #A07F82",
"eO 	c #8A5656",
"fO 	c #814545",
"gO 	c #834446",
"hO 	c #864648",
"iO 	c #87484A",
"jO 	c #804344",
"kO 	c #753D3C",
"lO 	c #733938",
"mO 	c #824846",
"nO 	c #905755",
"oO 	c #78413F",
"pO 	c #794240",
"qO 	c #794341",
"rO 	c #743F3F",
"sO 	c #6E3E3F",
"tO 	c #6A3A3B",
"uO 	c #663737",
"vO 	c #6B3635",
"wO 	c #6B3836",
"xO 	c #814D4B",
"yO 	c #7F4C4A",
"zO 	c #845251",
"AO 	c #885A59",
"BO 	c #865A58",
"CO 	c #855956",
"DO 	c #825653",
"EO 	c #855958",
"FO 	c #825756",
"GO 	c #7C504E",
"HO 	c #7D504E",
"IO 	c #7B4D4B",
"JO 	c #774645",
"KO 	c #724442",
"LO 	c #744A48",
"MO 	c #826867",
"NO 	c #867576",
"OO 	c #838288",
"PO 	c #838284",
"QO 	c #694B44",
"RO 	c #613934",
"SO 	c #714340",
"TO 	c #714540",
"UO 	c #6B433C",
"VO 	c #5F3931",
"WO 	c #552C25",
"XO 	c #552B2A",
"YO 	c #502827",
"ZO 	c #492323",
"`O 	c #401D1D",
" P 	c #381919",
".P 	c #2B1211",
"+P 	c #220D0A",
"@P 	c #210C07",
"#P 	c #290F0B",
"$P 	c #391B18",
"%P 	c #66555A",
"&P 	c #6A6366",
"*P 	c #787575",
"=P 	c #9B8B8C",
"-P 	c #5C3433",
";P 	c #794642",
">P 	c #824C42",
",P 	c #904D49",
"'P 	c #914F49",
")P 	c #904E48",
"!P 	c #914E48",
"~P 	c #97524D",
"{P 	c #8C5046",
"]P 	c #955A4F",
"^P 	c #884E42",
"/P 	c #7E453A",
"(P 	c #915246",
"_P 	c #935448",
":P 	c #96564B",
"<P 	c #97574C",
"[P 	c #915146",
"}P 	c #874C40",
"|P 	c #975951",
"1P 	c #916869",
"2P 	c #876E71",
"3P 	c #BCB2BB",
"4P 	c #C9BECC",
"5P 	c #A07D86",
"6P 	c #895459",
"7P 	c #85494F",
"8P 	c #824249",
"9P 	c #803F46",
"0P 	c #86474D",
"aP 	c #84474D",
"bP 	c #7A4246",
"cP 	c #784144",
"dP 	c #814A4C",
"eP 	c #80494B",
"fP 	c #794244",
"gP 	c #875152",
"hP 	c #925A5C",
"iP 	c #8F595B",
"jP 	c #996365",
"kP 	c #986465",
"lP 	c #945F62",
"mP 	c #976266",
"nP 	c #966367",
"oP 	c #8E5D62",
"pP 	c #895B5F",
"qP 	c #86585D",
"rP 	c #73454A",
"sP 	c #663335",
"tP 	c #683637",
"uP 	c #7E4D4E",
"vP 	c #7A484A",
"wP 	c #7E4E4F",
"xP 	c #693D3F",
"yP 	c #75494C",
"zP 	c #7E5155",
"AP 	c #815559",
"BP 	c #7C5254",
"CP 	c #7B5052",
"DP 	c #7C5053",
"EP 	c #7E5456",
"FP 	c #6C4B49",
"GP 	c #816D6C",
"HP 	c #9B9BA1",
"IP 	c #9B989D",
"JP 	c #5E4240",
"KP 	c #593130",
"LP 	c #6B3C3D",
"MP 	c #6D3F3F",
"NP 	c #69403E",
"OP 	c #643D3A",
"PP 	c #5C3330",
"QP 	c #572B29",
"RP 	c #552927",
"SP 	c #4D2421",
"TP 	c #331312",
"UP 	c #2F1311",
"VP 	c #240B0A",
"WP 	c #210A0A",
"XP 	c #1F0B09",
"YP 	c #341817",
"ZP 	c #3B1A1D",
"`P 	c #523E43",
" Q 	c #62565C",
".Q 	c #7F7779",
"+Q 	c #857376",
"@Q 	c #5E3439",
"#Q 	c #8A595D",
"$Q 	c #895655",
"%Q 	c #8A5353",
"&Q 	c #92544A",
"*Q 	c #915248",
"=Q 	c #925148",
"-Q 	c #945148",
";Q 	c #945048",
">Q 	c #914B44",
",Q 	c #8B5045",
"'Q 	c #9A6055",
")Q 	c #945B4F",
"!Q 	c #854E42",
"~Q 	c #794336",
"{Q 	c #854B3F",
"]Q 	c #94564A",
"^Q 	c #97594D",
"/Q 	c #985A4E",
"(Q 	c #95574B",
"_Q 	c #834B42",
":Q 	c #8F585B",
"<Q 	c #8A6063",
"[Q 	c #846B70",
"}Q 	c #C0B4BF",
"|Q 	c #D1C3D1",
"1Q 	c #A07E88",
"2Q 	c #88545B",
"3Q 	c #864C53",
"4Q 	c #82444D",
"5Q 	c #7D3E47",
"6Q 	c #85474F",
"7Q 	c #844850",
"8Q 	c #7B444A",
"9Q 	c #7A4549",
"0Q 	c #834E51",
"aQ 	c #804B4E",
"bQ 	c #764245",
"cQ 	c #854F52",
"dQ 	c #8C5659",
"eQ 	c #8E595D",
"fQ 	c #9D686B",
"gQ 	c #A06B6F",
"hQ 	c #9B676B",
"iQ 	c #9D6A6F",
"jQ 	c #9F6D72",
"kQ 	c #98686E",
"lQ 	c #92656B",
"mQ 	c #91656B",
"nQ 	c #7E5459",
"oQ 	c #663639",
"pQ 	c #68383B",
"qQ 	c #7D4E50",
"rQ 	c #603639",
"sQ 	c #6F4549",
"tQ 	c #7A4E53",
"uQ 	c #7F5459",
"vQ 	c #7D5358",
"wQ 	c #7A5055",
"xQ 	c #7B5257",
"yQ 	c #7D5759",
"zQ 	c #735050",
"AQ 	c #694C4A",
"BQ 	c #7E6E6D",
"CQ 	c #877C7C",
"DQ 	c #A1A1A6",
"EQ 	c #A09DA3",
"FQ 	c #5E4344",
"GQ 	c #562E30",
"HQ 	c #67393C",
"IQ 	c #694040",
"JQ 	c #663F3D",
"KQ 	c #5F3736",
"LQ 	c #572C2B",
"MQ 	c #542926",
"NQ 	c #4B231F",
"OQ 	c #3E1815",
"PQ 	c #35120F",
"QQ 	c #2F1310",
"RQ 	c #1B0708",
"SQ 	c #150606",
"TQ 	c #240F0D",
"UQ 	c #311717",
"VQ 	c #38191D",
"WQ 	c #4C353B",
"XQ 	c #5F5259",
"YQ 	c #82787B",
"ZQ 	c #7D6A6E",
"`Q 	c #5D353B",
" R 	c #895960",
".R 	c #865556",
"+R 	c #865153",
"@R 	c #804348",
"#R 	c #854646",
"$R 	c #8E514A",
"%R 	c #91554A",
"&R 	c #905348",
"*R 	c #945249",
"=R 	c #8F4942",
"-R 	c #87544C",
";R 	c #89564D",
">R 	c #88574E",
",R 	c #7A4B40",
"'R 	c #84554B",
")R 	c #7F5147",
"!R 	c #7C4B41",
"~R 	c #834F45",
"{R 	c #885449",
"]R 	c #875347",
"^R 	c #855045",
"/R 	c #865246",
"(R 	c #875348",
"_R 	c #855145",
":R 	c #8B5E59",
"<R 	c #8C5A57",
"[R 	c #916268",
"}R 	c #714D54",
"|R 	c #9D888E",
"1R 	c #BBB1BB",
"2R 	c #CBBECB",
"3R 	c #9F828D",
"4R 	c #835861",
"5R 	c #83535C",
"6R 	c #85525C",
"7R 	c #7D4954",
"8R 	c #77444E",
"9R 	c #784650",
"0R 	c #71444C",
"aR 	c #7B4E53",
"bR 	c #85585C",
"cR 	c #83575B",
"dR 	c #7D5054",
"eR 	c #7B4F53",
"fR 	c #774A4E",
"gR 	c #84585B",
"hR 	c #92666A",
"iR 	c #92676C",
"jR 	c #966C71",
"kR 	c #9C7479",
"lR 	c #9E777E",
"mR 	c #9E7A81",
"nR 	c #AB8A90",
"oR 	c #AC8B90",
"pR 	c #71494C",
"qR 	c #70484B",
"rR 	c #875F63",
"sR 	c #80595C",
"tR 	c #724C50",
"uR 	c #7C5759",
"vR 	c #765257",
"wR 	c #755459",
"xR 	c #66444A",
"yR 	c #6A474E",
"zR 	c #76545B",
"AR 	c #7B5A60",
"BR 	c #77565D",
"CR 	c #725157",
"DR 	c #6D4D52",
"ER 	c #6B4D51",
"FR 	c #684F50",
"GR 	c #665251",
"HR 	c #6D6260",
"IR 	c #837C7D",
"JR 	c #918F98",
"KR 	c #8F8E95",
"LR 	c #745E61",
"MR 	c #513338",
"NR 	c #542E34",
"OR 	c #5C393D",
"PR 	c #604143",
"QR 	c #614142",
"RR 	c #5D3B3D",
"SR 	c #543032",
"TR 	c #3D1C19",
"UR 	c #361917",
"VR 	c #331816",
"WR 	c #2F1715",
"XR 	c #230D0E",
"YR 	c #200D0F",
"ZR 	c #1A090B",
"`R 	c #130607",
" S 	c #050102",
".S 	c #2F1919",
"+S 	c #3B2022",
"@S 	c #513E43",
"#S 	c #685C61",
"$S 	c #8C8488",
"%S 	c #796A70",
"&S 	c #58353D",
"*S 	c #4D212B",
"=S 	c #532A30",
"-S 	c #562A30",
";S 	c #723F46",
">S 	c #7B4848",
",S 	c #784841",
"'S 	c #7B4B41",
")S 	c #845249",
"!S 	c #955B55",
"~S 	c #8E514D",
"{S 	c #7F5E62",
"]S 	c #86686C",
"^S 	c #A68E93",
"/S 	c #A48F93",
"(S 	c #AC999D",
"_S 	c #A9979A",
":S 	c #A69195",
"<S 	c #AA9295",
"[S 	c #AB9194",
"}S 	c #A98F92",
"|S 	c #AC9396",
"1S 	c #A58C8E",
"2S 	c #A1878A",
"3S 	c #A38A8C",
"4S 	c #A0908E",
"5S 	c #A69090",
"6S 	c #A0888D",
"7S 	c #938589",
"8S 	c #ABA6AA",
"9S 	c #BCBDC3",
"0S 	c #C2C0C9",
"aS 	c #A89B9F",
"bS 	c #A9999D",
"cS 	c #AD9A9F",
"dS 	c #AF9DA2",
"eS 	c #B09FA3",
"fS 	c #AC9EA1",
"gS 	c #9C9194",
"hS 	c #A19395",
"iS 	c #A89899",
"jS 	c #A9999B",
"kS 	c #A89A9C",
"lS 	c #A29595",
"mS 	c #A49596",
"nS 	c #958485",
"oS 	c #9B8A8B",
"pS 	c #9F8D8E",
"qS 	c #9E8C8E",
"rS 	c #A19294",
"sS 	c #A39497",
"tS 	c #A29397",
"uS 	c #A09498",
"vS 	c #A5979D",
"wS 	c #938587",
"xS 	c #918585",
"yS 	c #918383",
"zS 	c #908183",
"AS 	c #928687",
"BS 	c #908383",
"CS 	c #91878B",
"DS 	c #8B8085",
"ES 	c #867D81",
"FS 	c #888085",
"GS 	c #8B8186",
"HS 	c #8A8085",
"IS 	c #887E83",
"JS 	c #857A80",
"KS 	c #82777A",
"LS 	c #807478",
"MS 	c #837A7B",
"NS 	c #7F7978",
"OS 	c #767374",
"PS 	c #868488",
"QS 	c #92929B",
"RS 	c #9596A0",
"SS 	c #8A878C",
"TS 	c #7E767C",
"US 	c #7B6D74",
"VS 	c #76696E",
"WS 	c #71676A",
"XS 	c #6F6467",
"YS 	c #6D6065",
"ZS 	c #6B5D62",
"`S 	c #685B61",
" T 	c #63565D",
".T 	c #5D5258",
"+T 	c #52474C",
"@T 	c #493F44",
"#T 	c #443A3F",
"$T 	c #362E31",
"%T 	c #30292C",
"&T 	c #282224",
"*T 	c #1F1B1C",
"=T 	c #181416",
"-T 	c #0F0D0D",
";T 	c #0D0A0A",
">T 	c #161212",
",T 	c #201B1A",
"'T 	c #2A2422",
")T 	c #352B2A",
"!T 	c #423534",
"~T 	c #595051",
"{T 	c #696767",
"]T 	c #818486",
"^T 	c #8E8B90",
"/T 	c #8D8189",
"(T 	c #8F838B",
"_T 	c #969093",
":T 	c #928D8E",
"<T 	c #9E8F92",
"[T 	c #A59496",
"}T 	c #A7989A",
"|T 	c #A7989B",
"1T 	c #A89296",
"2T 	c #A3888E",
"3T 	c #9A7C81",
"4T 	c #8B676E",
"5T 	c #7A6670",
"6T 	c #86757E",
"7T 	c #B6A7AF",
"8T 	c #B8ACB3",
"9T 	c #BEB3BA",
"0T 	c #BBADB4",
"aT 	c #BEAEB5",
"bT 	c #BCABB2",
"cT 	c #BAA9B0",
"dT 	c #B6A5AB",
"eT 	c #B09FA6",
"fT 	c #B4A3A9",
"gT 	c #ACA7A6",
"hT 	c #B5A8AA",
"iT 	c #AA9BA2",
"jT 	c #A59EA2",
"kT 	c #B4B6B9",
"lT 	c #BDC5C9",
"mT 	c #BDC2C8",
"nT 	c #BCBCBF",
"oT 	c #BBB8BA",
"pT 	c #BDB6B9",
"qT 	c #C2B9BC",
"rT 	c #C8BDC1",
"sT 	c #CAC1C4",
"tT 	c #C5BFC1",
"uT 	c #B2B0B2",
"vT 	c #B6B1B2",
"wT 	c #BAB3B3",
"xT 	c #BCB6B7",
"yT 	c #BDB7B9",
"zT 	c #B5B0B0",
"AT 	c #B8B1B2",
"BT 	c #A6A0A0",
"CT 	c #A59F9F",
"DT 	c #A29D9E",
"ET 	c #A6A1A3",
"FT 	c #A5A2A4",
"GT 	c #A19EA2",
"HT 	c #9F9DA2",
"IT 	c #9D9B9F",
"JT 	c #A19A9C",
"KT 	c #9E9999",
"LT 	c #948F8F",
"MT 	c #9B9797",
"NT 	c #959091",
"OT 	c #99969A",
"PT 	c #8F8D91",
"QT 	c #8F8C90",
"RT 	c #919094",
"ST 	c #8F8E92",
"TT 	c #8C8A8E",
"UT 	c #8A888C",
"VT 	c #868286",
"WT 	c #867E83",
"XT 	c #898686",
"YT 	c #858382",
"ZT 	c #767779",
"`T 	c #838387",
" U 	c #8C8D96",
".U 	c #91939D",
"+U 	c #8D9196",
"@U 	c #89878C",
"#U 	c #857D84",
"$U 	c #7B757B",
"%U 	c #747175",
"&U 	c #726F72",
"*U 	c #726C70",
"=U 	c #71696F",
"-U 	c #716971",
";U 	c #6C646C",
">U 	c #676067",
",U 	c #5A545A",
"'U 	c #504A50",
")U 	c #4A454A",
"!U 	c #3C383B",
"~U 	c #353134",
"{U 	c #242123",
"]U 	c #1B1A1B",
"^U 	c #111012",
"/U 	c #0B0A0B",
"(U 	c #191717",
"_U 	c #232120",
":U 	c #2D2A28",
"<U 	c #383331",
"[U 	c #473F3D",
"}U 	c #5C5858",
"|U 	c #696B6A",
"1U 	c #7A8284",
"2U 	c #989CA0",
"3U 	c #A49DA5",
"4U 	c #AAA2AB",
"5U 	c #B1B0B5",
"6U 	c #ADAEAE",
"7U 	c #B4ADAF",
"8U 	c #BAB2B4",
"9U 	c #BDB7BB",
"0U 	c #BDB7BC",
"aU 	c #BBB2B8",
"bU 	c #BAAEB5",
"cU 	c #B2A2AA",
"dU 	c #A09099",
"eU 	c #8C7480",
"fU 	c #989199",
"gU 	c #ABA4AB",
"hU 	c #BDB6BD",
"iU 	c #C5BEC4",
"jU 	c #C1BABF",
"kU 	c #C3BBC2",
"lU 	c #C0B8C1",
"mU 	c #BDB5BE",
"nU 	c #BEB6BF",
"oU 	c #C4BCC6",
"pU 	c #C3BBC5",
"qU 	c #B9B5B8",
"rU 	c #C8BFC6",
"sU 	c #C5C2C7",
"tU 	c #C6C9CD",
"uU 	c #CBD0D4",
"vU 	c #C8CBD0",
"wU 	c #CDCDD0",
"xU 	c #CAC9CB",
"yU 	c #CCC8CB",
"zU 	c #D2CCCF",
"AU 	c #CAC5C8",
"BU 	c #C7C3C6",
"CU 	c #D5D3D5",
"DU 	c #DFDBDD",
"EU 	c #D1CCCE",
"FU 	c #C1BDBF",
"GU 	c #BBB9BA",
"HU 	c #BDBBBC",
"IU 	c #B4B2B2",
"JU 	c #ACACAB",
"KU 	c #A8A7A6",
"LU 	c #A2A2A0",
"MU 	c #A9A9AA",
"NU 	c #A9A9AC",
"OU 	c #9F9FA3",
"PU 	c #9B9DA1",
"QU 	c #929498",
"RU 	c #888B8E",
"SU 	c #B6B4B5",
"TU 	c #B3AEAF",
"UU 	c #B5ACAD",
"VU 	c #ADA6A6",
"WU 	c #999796",
"XU 	c #999697",
"YU 	c #989696",
"ZU 	c #8E8D8D",
"`U 	c #919191",
" V 	c #949494",
".V 	c #939292",
"+V 	c #8B8A8A",
"@V 	c #8C8B8B",
"#V 	c #8C898A",
"$V 	c #8D868A",
"%V 	c #898485",
"&V 	c #8A8687",
"*V 	c #848184",
"=V 	c #837F83",
"-V 	c #858088",
";V 	c #807F86",
">V 	c #80878A",
",V 	c #7B7F82",
"'V 	c #808186",
")V 	c #7A7A7E",
"!V 	c #78797D",
"~V 	c #79797B",
"{V 	c #747274",
"]V 	c #6D6B6D",
"^V 	c #6D6C6E",
"/V 	c #69686A",
"(V 	c #666568",
"_V 	c #605F61",
":V 	c #4D4D4F",
"<V 	c #464648",
"[V 	c #3D3D3F",
"}V 	c #363536",
"|V 	c #2C2C2D",
"1V 	c #242324",
"2V 	c #1D1C1D",
"3V 	c #141415",
"4V 	c #0D0D0E",
"5V 	c #070809",
"6V 	c #040405",
"7V 	c #020303",
"8V 	c #070707",
"9V 	c #0F0F10",
"0V 	c #191819",
"aV 	c #323131",
"bV 	c #444242",
"cV 	c #585354",
"dV 	c #5E5C5E",
"eV 	c #767878",
"fV 	c #828888",
"gV 	c #9FA2A4",
"hV 	c #B3B4B7",
"iV 	c #BFC1C2",
"jV 	c #C2C0C1",
"kV 	c #C2BDC0",
"lV 	c #D3CCD2",
"mV 	c #D4CBD1",
"nV 	c #CFC4C9",
"oV 	c #D9CDD2",
"pV 	c #BAABB0",
"qV 	c #CABABE",
"rV 	c #B9AAAE",
"sV 	c #B6A5A9",
"tV 	c #B1A1A5",
"uV 	c #B5A5AA",
"vV 	c #B9A9AF",
"wV 	c #BBACB1",
"xV 	c #BBACB2",
"yV 	c #BAAAB0",
"zV 	c #B8A8AE",
"AV 	c #BAACB2",
"BV 	c #B9ABB1",
"CV 	c #B6A7AB",
"DV 	c #B3A3A9",
"EV 	c #BEB2B7",
"FV 	c #C2B9BD",
"GV 	c #C8C0C5",
"HV 	c #D3C9CE",
"IV 	c #C3B8BB",
"JV 	c #BDB0B3",
"KV 	c #BEB0B3",
"LV 	c #C2B3B7",
"MV 	c #C1B2B6",
"NV 	c #B7A9AD",
"OV 	c #B4A8AB",
"PV 	c #B5ABAE",
"QV 	c #BBB1B3",
"RV 	c #C3B5B7",
"SV 	c #B5A8AB",
"TV 	c #AFA3A5",
"UV 	c #BCAFB0",
"VV 	c #ADA3A5",
"WV 	c #A69C9D",
"XV 	c #9A9392",
"YV 	c #9C9392",
"ZV 	c #968E8D",
"`V 	c #A1989B",
" W 	c #A49BA0",
".W 	c #958E93",
"+W 	c #848186",
"@W 	c #838185",
"#W 	c #8B8183",
"$W 	c #908283",
"%W 	c #8A7E7F",
"&W 	c #807877",
"*W 	c #7F7677",
"=W 	c #837879",
"-W 	c #776C6C",
";W 	c #726A6A",
">W 	c #706868",
",W 	c #6C6465",
"'W 	c #6D6565",
")W 	c #716768",
"!W 	c #6D6365",
"~W 	c #6E6366",
"{W 	c #6C6264",
"]W 	c #6C6365",
"^W 	c #686062",
"/W 	c #6C6266",
"(W 	c #72676D",
"_W 	c #746B70",
":W 	c #7A797B",
"<W 	c #7D7B7D",
"[W 	c #797578",
"}W 	c #6F696C",
"|W 	c #6A6567",
"1W 	c #666163",
"2W 	c #5F585B",
"3W 	c #5C5456",
"4W 	c #595153",
"5W 	c #554E4F",
"6W 	c #514A4C",
"7W 	c #4B4646",
"8W 	c #3F393A",
"9W 	c #373233",
"0W 	c #322D2E",
"aW 	c #2B2728",
"bW 	c #242121",
"cW 	c #1D1B1B",
"dW 	c #121011",
"eW 	c #080707",
"fW 	c #100E0F",
"gW 	c #191617",
"hW 	c #342F30",
"iW 	c #463F41",
"jW 	c #564E50",
"kW 	c #655D5F",
"lW 	c #7B7476",
"mW 	c #797577",
"nW 	c #908B8D",
"oW 	c #988E92",
"pW 	c #A2979B",
"qW 	c #AEA5A7",
"rW 	c #B7AEB0",
"sW 	c #BDB1B4",
"tW 	c #B9ACB0",
"uW 	c #BCACB3",
"vW 	c #C2B2B7",
"wW 	c #C1AFB4",
"xW 	c #BEABAE",
"yW 	c #C1AFB2",
"zW 	c #AA9698",
"AW 	c #A59395",
"BW 	c #715E61",
"CW 	c #D9BEC0",
"DW 	c #AA8C8E",
"EW 	c #A48385",
"FW 	c #9B797B",
"GW 	c #A18385",
"HW 	c #AF9596",
"IW 	c #B89FA0",
"JW 	c #B69C9D",
"KW 	c #B19797",
"LW 	c #AE9595",
"MW 	c #AD9595",
"NW 	c #B2949A",
"OW 	c #A3858B",
"PW 	c #AB8E94",
"QW 	c #B69BA0",
"RW 	c #C5ABB0",
"SW 	c #E0C6CA",
"TW 	c #B5989C",
"UW 	c #AA8A8F",
"VW 	c #AB8B90",
"WW 	c #AC8C91",
"XW 	c #A9898D",
"YW 	c #9A7B7F",
"ZW 	c #805F65",
"`W 	c #7D5C61",
" X 	c #A08488",
".X 	c #967A7E",
"+X 	c #BDA3A6",
"@X 	c #997F82",
"#X 	c #947B7D",
"$X 	c #846E6D",
"%X 	c #8C7876",
"&X 	c #897575",
"*X 	c #988588",
"=X 	c #9D8B91",
"-X 	c #887980",
";X 	c #665C62",
">X 	c #736A70",
",X 	c #898186",
"'X 	c #5D4D50",
")X 	c #533A3E",
"!X 	c #5F4244",
"~X 	c #5F4647",
"{X 	c #645152",
"]X 	c #604D4F",
"^X 	c #6F5559",
"/X 	c #5E4245",
"(X 	c #4E3134",
"_X 	c #472A2D",
":X 	c #442729",
"<X 	c #44282B",
"[X 	c #4B3133",
"}X 	c #53393C",
"|X 	c #493133",
"1X 	c #4A3739",
"2X 	c #4C393B",
"3X 	c #4B373A",
"4X 	c #493538",
"5X 	c #544043",
"6X 	c #5E4B4D",
"7X 	c #685759",
"8X 	c #726A6C",
"9X 	c #7B7274",
"0X 	c #70686A",
"aX 	c #625758",
"bX 	c #5B5050",
"cX 	c #534748",
"dX 	c #493B3C",
"eX 	c #493A3A",
"fX 	c #443232",
"gX 	c #3E2D2C",
"hX 	c #372524",
"iX 	c #332322",
"jX 	c #2F2020",
"kX 	c #271918",
"lX 	c #251A1A",
"mX 	c #1E1516",
"nX 	c #191313",
"oX 	c #0F0B0C",
"pX 	c #080708",
"qX 	c #120E0F",
"rX 	c #271F22",
"sX 	c #382E31",
"tX 	c #4A3E41",
"uX 	c #55474B",
"vX 	c #6D5E62",
"wX 	c #827176",
"xX 	c #6C5B5D",
"yX 	c #7B676A",
"zX 	c #8C7578",
"AX 	c #967E81",
"BX 	c #A68D90",
"CX 	c #AC9295",
"DX 	c #AF9397",
"EX 	c #A5858B",
"FX 	c #A7858C",
"GX 	c #AA878C",
"HX 	c #A48185",
"IX 	c #A48282",
"JX 	c #9C7B79",
"KX 	c #B69091",
"LX 	c #A37A7B",
"MX 	c #B28887",
"NX 	c #9C6F6F",
"OX 	c #976664",
"PX 	c #986664",
"QX 	c #966663",
"RX 	c #8C605B",
"SX 	c #8A5F5A",
"TX 	c #885D58",
"UX 	c #855A55",
"VX 	c #7F534F",
"WX 	c #7B514D",
"XX 	c #855559",
"YX 	c #825357",
"ZX 	c #8E5F63",
"`X 	c #946669",
" Y 	c #8F6467",
".Y 	c #946A6D",
"+Y 	c #A88082",
"@Y 	c #9E7174",
"#Y 	c #9A6B6D",
"$Y 	c #99696B",
"%Y 	c #976769",
"&Y 	c #916163",
"*Y 	c #855557",
"=Y 	c #7C4E50",
"-Y 	c #7E4D50",
";Y 	c #7F4E51",
">Y 	c #7D4F51",
",Y 	c #825456",
"'Y 	c #8D6062",
")Y 	c #946B6C",
"!Y 	c #8A6464",
"~Y 	c #855E5E",
"{Y 	c #6B4848",
"]Y 	c #684546",
"^Y 	c #6A4A4E",
"/Y 	c #6B5055",
"(Y 	c #6F595F",
"_Y 	c #76666C",
":Y 	c #84777D",
"<Y 	c #84797D",
"[Y 	c #594145",
"}Y 	c #4C2D32",
"|Y 	c #4A2629",
"1Y 	c #47282A",
"2Y 	c #482E30",
"3Y 	c #472D2F",
"4Y 	c #422327",
"5Y 	c #422024",
"6Y 	c #401E22",
"7Y 	c #421F23",
"8Y 	c #462529",
"9Y 	c #47262A",
"0Y 	c #422225",
"aY 	c #3F2023",
"bY 	c #45282A",
"cY 	c #3F2627",
"dY 	c #42292A",
"eY 	c #3C2425",
"fY 	c #3F2628",
"gY 	c #3E2627",
"hY 	c #3D2829",
"iY 	c #4B3C3D",
"jY 	c #524344",
"kY 	c #4C3C3D",
"lY 	c #483637",
"mY 	c #422F30",
"nY 	c #3C2829",
"oY 	c #372324",
"pY 	c #311C1D",
"qY 	c #2D1515",
"rY 	c #2A1213",
"sY 	c #260F0F",
"tY 	c #240F0F",
"uY 	c #1F0C0C",
"vY 	c #1C0B0B",
"wY 	c #190A0A",
"xY 	c #0E0505",
"yY 	c #100908",
"zY 	c #170D0E",
"AY 	c #221618",
"BY 	c #2F2022",
"CY 	c #3C2A2B",
"DY 	c #4B3436",
"EY 	c #50373A",
"FY 	c #624549",
"GY 	c #664547",
"HY 	c #765255",
"IY 	c #795457",
"JY 	c #7E565A",
"KY 	c #7F5659",
"LY 	c #8B6064",
"MY 	c #8D6165",
"NY 	c #916368",
"OY 	c #916168",
"PY 	c #8C5B63",
"QY 	c #905D62",
"RY 	c #8D5B5F",
"SY 	c #835252",
"TY 	c #8D5B5A",
"UY 	c #A87E7E",
"VY 	c #9E7170",
"WY 	c #A07270",
"XY 	c #93625F",
"YY 	c #925C58",
"ZY 	c #915B56",
"`Y 	c #8A554F",
" Z 	c #85514A",
".Z 	c #844F49",
"+Z 	c #844F47",
"@Z 	c #7F4942",
"#Z 	c #7D4740",
"$Z 	c #844B4C",
"%Z 	c #834B4C",
"&Z 	c #8B5555",
"*Z 	c #8E595A",
"=Z 	c #885656",
"-Z 	c #986A6A",
";Z 	c #946262",
">Z 	c #915D5E",
",Z 	c #925D5D",
"'Z 	c #925C5C",
")Z 	c #7E4748",
"!Z 	c #804849",
"~Z 	c #7A4442",
"{Z 	c #7E4A49",
"]Z 	c #885655",
"^Z 	c #895A59",
"/Z 	c #895C5C",
"(Z 	c #845856",
"_Z 	c #825755",
":Z 	c #6E4443",
"<Z 	c #6A4242",
"[Z 	c #684346",
"}Z 	c #67484B",
"|Z 	c #685156",
"1Z 	c #716267",
"2Z 	c #7C7075",
"3Z 	c #776C70",
"4Z 	c #563F42",
"5Z 	c #44262A",
"6Z 	c #421F21",
"7Z 	c #3F2022",
"8Z 	c #3C2324",
"9Z 	c #35191B",
"0Z 	c #34171A",
"aZ 	c #331718",
"bZ 	c #34181A",
"cZ 	c #381C1E",
"dZ 	c #371C1E",
"eZ 	c #33191A",
"fZ 	c #301617",
"gZ 	c #351C1D",
"hZ 	c #311A1A",
"iZ 	c #321C1C",
"jZ 	c #311B1B",
"kZ 	c #2F1818",
"lZ 	c #2D1919",
"mZ 	c #372728",
"nZ 	c #3C2D2D",
"oZ 	c #362524",
"pZ 	c #322020",
"qZ 	c #2F1C1C",
"rZ 	c #2C1918",
"sZ 	c #271313",
"tZ 	c #240F0E",
"uZ 	c #190808",
"vZ 	c #0E0404",
"wZ 	c #040102",
"xZ 	c #030102",
"yZ 	c #060203",
"zZ 	c #0C0506",
"AZ 	c #160B0C",
"BZ 	c #201314",
"CZ 	c #2D1B1C",
"DZ 	c #3A2425",
"EZ 	c #472E2F",
"FZ 	c #4D2F31",
"GZ 	c #5E3C3E",
"HZ 	c #653F41",
"IZ 	c #74494C",
"JZ 	c #794B4E",
"KZ 	c #78494C",
"LZ 	c #855457",
"MZ 	c #885558",
"NZ 	c #8D595C",
"OZ 	c #8E585D",
"PZ 	c #8A5358",
"QZ 	c #8D5458",
"RZ 	c #7F4849",
"SZ 	c #8F5656",
"TZ 	c #7B3F36",
"UZ 	c #76342B",
"VZ 	c #7F3F34",
"WZ 	c #844336",
"XZ 	c #864337",
"YZ 	c #813C32",
"ZZ 	c #803A31",
"`Z 	c #863F37",
" ` 	c #864137",
".` 	c #8A453B",
"+` 	c #8A443C",
"@` 	c #8A453C",
"#` 	c #8B463E",
"$` 	c #88453D",
"%` 	c #7F4036",
"&` 	c #7A3B31",
"*` 	c #7D3D33",
"=` 	c #7E3C33",
"-` 	c #8B4940",
";` 	c #8D4941",
">` 	c #803D36",
",` 	c #7E3E35",
"'` 	c #83443C",
")` 	c #7A3E36",
"!` 	c #71382F",
"~` 	c #784238",
"{` 	c #7F4A45",
"]` 	c #734847",
"^` 	c #6B4747",
"/` 	c #664D4E",
"(` 	c #6C5E60",
"_` 	c #71696C",
":` 	c #665E61",
"<` 	c #574043",
"[` 	c #3D2023",
"}` 	c #3C1B1C",
"|` 	c #3B1D1C",
"1` 	c #381E1D",
"2` 	c #2E1615",
"3` 	c #291311",
"4` 	c #261210",
"5` 	c #261211",
"6` 	c #220F0D",
"7` 	c #1E0B0A",
"8` 	c #210C09",
"9` 	c #1D0907",
"0` 	c #230F0E",
"a` 	c #220E0D",
"b` 	c #23100D",
"c` 	c #1E0E0A",
"d` 	c #1B0C08",
"e` 	c #170906",
"f` 	c #381C19",
"g` 	c #42201D",
"h` 	c #4C2622",
"i` 	c #5A302B",
"j` 	c #653635",
"k` 	c #63302F",
"l` 	c #693331",
"m` 	c #703634",
"n` 	c #723734",
"o` 	c #7F413F",
"p` 	c #854744",
"q` 	c #8A4A47",
"r` 	c #8C4B49",
"s` 	c #93504F",
"t` 	c #8B4947",
"u` 	c #955250",
"v` 	c #824537",
"w` 	c #884A3C",
"x` 	c #8A4C3C",
"y` 	c #874838",
"z` 	c #8A4640",
"A` 	c #86423B",
"B` 	c #8C4842",
"C` 	c #8A463F",
"D` 	c #8A483B",
"E` 	c #864538",
"F` 	c #854538",
"G` 	c #824335",
"H` 	c #7D4133",
"I` 	c #834739",
"J` 	c #824438",
"K` 	c #804136",
"L` 	c #834438",
"M` 	c #88493F",
"N` 	c #8D4F43",
"O` 	c #8F5145",
"P` 	c #814237",
"Q` 	c #74392F",
"R` 	c #763C32",
"S` 	c #703A2F",
"T` 	c #703E33",
"U` 	c #704038",
"V` 	c #73453F",
"W` 	c #6D413C",
"X` 	c #663E3B",
"Y` 	c #5E3E3C",
"Z` 	c #594544",
"`` 	c #5E5A5D",
"  .	c #575356",
". .	c #463535",
"+ .	c #341D1F",
"@ .	c #321716",
"# .	c #2F1716",
"$ .	c #2B1815",
"% .	c #1E0D0B",
"& .	c #1C0B09",
"* .	c #1B0B09",
"= .	c #180807",
"- .	c #2A130F",
"; .	c #361A16",
"> .	c #42211D",
", .	c #4A241F",
"' .	c #532923",
") .	c #5E2F2A",
"! .	c #5F2C29",
"~ .	c #642E2A",
"{ .	c #6D3430",
"] .	c #783D38",
"^ .	c #7E413D",
"/ .	c #82443E",
"( .	c #83453F",
"_ .	c #844640",
": .	c #854741",
"< .	c #864843",
"[ .	c #884945",
"} .	c #844641",
"| .	c #874944",
"1 .	c #8F504C",
"2 .	c #82473C",
"3 .	c #85493B",
"4 .	c #894C3E",
"5 .	c #894B3B",
"6 .	c #874939",
"7 .	c #8D4A43",
"8 .	c #8B4842",
"9 .	c #87453F",
"0 .	c #8A4841",
"a .	c #8D4A44",
"b .	c #8A4741",
"c .	c #89473A",
"d .	c #844436",
"e .	c #834436",
"f .	c #824336",
"g .	c #7E4334",
"h .	c #834839",
"i .	c #804236",
"j .	c #7E4034",
"k .	c #83473B",
"l .	c #86483C",
"m .	c #8A4D41",
"n .	c #915247",
"o .	c #804137",
"p .	c #7A3D33",
"q .	c #743B31",
"r .	c #763D32",
"s .	c #713C32",
"t .	c #6D3C32",
"u .	c #693B34",
"v .	c #6C403A",
"w .	c #663C37",
"x .	c #5E3935",
"y .	c #553735",
"z .	c #503E3D",
"A .	c #514F51",
"B .	c #4A484B",
"C .	c #392C2C",
"D .	c #2A1819",
"E .	c #271212",
"F .	c #251210",
"G .	c #21110E",
"H .	c #45231D",
"I .	c #5F302A",
"J .	c #612E2A",
"K .	c #65302B",
"L .	c #783E38",
"M .	c #7D413B",
"N .	c #80423D",
"O .	c #81443E",
"P .	c #82453D",
"Q .	c #83473F",
"R .	c #854841",
"S .	c #854843",
"T .	c #824540",
"U .	c #894E42",
"V .	c #884C41",
"W .	c #854B3C",
"X .	c #884942",
"Y .	c #84453F",
"Z .	c #884944",
"` .	c #92534D",
" ..	c #87453A",
"...	c #854437",
"+..	c #7E3E31",
"@..	c #7C3F32",
"#..	c #884A3D",
"$..	c #864B3D",
"%..	c #7C4233",
"&..	c #7E4236",
"*..	c #7D4136",
"=..	c #7B4034",
"-..	c #7D4236",
";..	c #7F453A",
">..	c #7C4035",
",..	c #773C31",
"'..	c #7A3E34",
")..	c #7E3F36",
"!..	c #7E3F35",
"~..	c #8A5047",
"{..	c #7E473D",
"]..	c #7C4840",
"^..	c #6F3E35",
"/..	c #653933",
"(..	c #653C36",
"_..	c #5F3832",
":..	c #56332E",
"<..	c #4C2F2B",
"[..	c #453535",
"}..	c #484345",
"|..	c #464549",
"1..	c #3F3F43",
"2..	c #2D2525",
"3..	c #201415",
"4..	c #1F0F0F",
"5..	c #1C0E0C",
"6..	c #160B08",
"7..	c #190906",
"8..	c #230F0B",
"9..	c #301713",
"0..	c #46231D",
"a..	c #4C251E",
"b..	c #52281F",
"c..	c #663730",
"d..	c #6A3730",
"e..	c #743F37",
"f..	c #713930",
"g..	c #763D34",
"h..	c #7E4138",
"i..	c #804439",
"j..	c #81463B",
"k..	c #83493D",
"l..	c #844A40",
"m..	c #844A42",
"n..	c #7F453E",
"o..	c #824743",
"p..	c #874C4A",
"q..	c #83433D",
"r..	c #80403A",
"s..	c #8A4C41",
"t..	c #84483B",
"u..	c #84473B",
"v..	c #83443B",
"w..	c #84453D",
"x..	c #884941",
"y..	c #85463E",
"z..	c #864239",
"A..	c #864338",
"B..	c #844237",
"C..	c #834338",
"D..	c #87473C",
"E..	c #84463A",
"F..	c #7D4033",
"G..	c #86483F",
"H..	c #84463D",
"I..	c #85473E",
"J..	c #894B42",
"K..	c #86473F",
"L..	c #794139",
"M..	c #72413A",
"N..	c #6B3F39",
"O..	c #603834",
"P..	c #59332F",
"Q..	c #52302B",
"R..	c #423032",
"S..	c #423B3F",
"T..	c #3D3B3F",
"U..	c #353438",
"V..	c #241D1E",
"W..	c #190E10",
"X..	c #180B0A",
"Y..	c #140808",
"Z..	c #28100D",
"`..	c #351916",
" +.	c #3F1E1A",
".+.	c #4E231E",
"++.	c #572A24",
"@+.	c #67342F",
"#+.	c #6E362F",
"$+.	c #6D322B",
"%+.	c #7C3F38",
"&+.	c #81433B",
"*+.	c #83483D",
"=+.	c #84493E",
"-+.	c #864B40",
";+.	c #824641",
">+.	c #824643",
",+.	c #824645",
"'+.	c #84413C",
")+.	c #7F3D38",
"!+.	c #85463C",
"~+.	c #824338",
"{+.	c #8A4B40",
"]+.	c #864138",
"^+.	c #874239",
"/+.	c #88453B",
"(+.	c #87453B",
"_+.	c #86453B",
":+.	c #824238",
"<+.	c #7D3E33",
"[+.	c #85463D",
"}+.	c #8A4A42",
"|+.	c #874840",
"1+.	c #874941",
"2+.	c #844740",
"3+.	c #83423C",
"4+.	c #854640",
"5+.	c #763E37",
"6+.	c #6E3932",
"7+.	c #72403A",
"8+.	c #693E3A",
"9+.	c #5A3430",
"0+.	c #542F2B",
"a+.	c #4D2C28",
"b+.	c #422725",
"c+.	c #3C2B2C",
"d+.	c #3B3437",
"e+.	c #343136",
"f+.	c #2C2A2E",
"g+.	c #1C1616",
"h+.	c #12090A",
"i+.	c #2C120F",
"j+.	c #3A1C19",
"k+.	c #43201C",
"l+.	c #4A231F",
"m+.	c #51241F",
"n+.	c #5C2C26",
"o+.	c #68342E",
"p+.	c #784039",
"q+.	c #6D342D",
"r+.	c #6E322A",
"s+.	c #7F4139",
"t+.	c #83453D",
"u+.	c #84483D",
"v+.	c #854A3E",
"w+.	c #834744",
"x+.	c #804242",
"y+.	c #7E3934",
"z+.	c #76312B",
"A+.	c #904D46",
"B+.	c #8D4B42",
"C+.	c #8A493E",
"D+.	c #8D4D40",
"E+.	c #905042",
"F+.	c #894B3C",
"G+.	c #7B3C2D",
"H+.	c #78392A",
"I+.	c #804032",
"J+.	c #814233",
"K+.	c #863E36",
"L+.	c #89413A",
"M+.	c #8F4A42",
"N+.	c #904B43",
"O+.	c #7E3A31",
"P+.	c #78352C",
"Q+.	c #7A372E",
"R+.	c #834039",
"S+.	c #87453D",
"T+.	c #834038",
"U+.	c #813F38",
"V+.	c #83423A",
"W+.	c #7F3C37",
"X+.	c #82403C",
"Y+.	c #7D3D39",
"Z+.	c #7A3E39",
"`+.	c #713833",
" @.	c #703A35",
".@.	c #5E322F",
"+@.	c #562F2C",
"@@.	c #4E2927",
"#@.	c #462422",
"$@.	c #352325",
"%@.	c #32292D",
"&@.	c #292529",
"*@.	c #211E22",
"=@.	c #150F10",
"-@.	c #260E0C",
";@.	c #311512",
">@.	c #3C1A17",
",@.	c #49231F",
"'@.	c #5E302B",
")@.	c #64312C",
"!@.	c #69342C",
"~@.	c #69312A",
"{@.	c #793F37",
"]@.	c #864840",
"^@.	c #82423A",
"/@.	c #84433A",
"(@.	c #86453C",
"_@.	c #87463C",
":@.	c #985954",
"<@.	c #8E4F4B",
"[@.	c #7A3A38",
"}@.	c #7D3B32",
"|@.	c #7D3B31",
"1@.	c #89473E",
"2@.	c #88473C",
"3@.	c #824136",
"4@.	c #844538",
"5@.	c #864639",
"6@.	c #894339",
"7@.	c #8E483F",
"8@.	c #8A473E",
"9@.	c #8D493F",
"0@.	c #85453A",
"a@.	c #824137",
"b@.	c #824237",
"c@.	c #84443A",
"d@.	c #82443A",
"e@.	c #7E3F38",
"f@.	c #82433D",
"g@.	c #763A34",
"h@.	c #723932",
"i@.	c #6B3932",
"j@.	c #653831",
"k@.	c #5C322D",
"l@.	c #4A2723",
"m@.	c #40201F",
"n@.	c #351C1B",
"o@.	c #2F2021",
"p@.	c #222022",
"q@.	c #1A181A",
"r@.	c #0F0A0B",
"s@.	c #341613",
"t@.	c #3F1D18",
"u@.	c #4D2622",
"v@.	c #562A26",
"w@.	c #66332D",
"x@.	c #6B392F",
"y@.	c #6E3A30",
"z@.	c #7A4338",
"A@.	c #82493E",
"B@.	c #85493D",
"C@.	c #864A3E",
"D@.	c #874A3F",
"E@.	c #894B41",
"F@.	c #884940",
"G@.	c #8E4F48",
"H@.	c #7D3E38",
"I@.	c #7D3C30",
"J@.	c #824135",
"K@.	c #844236",
"L@.	c #814034",
"M@.	c #7A3A2F",
"N@.	c #7D3E32",
"O@.	c #824337",
"P@.	c #87483C",
"Q@.	c #8F5043",
"R@.	c #8A4A3E",
"S@.	c #8B473C",
"T@.	c #8A483C",
"U@.	c #8B4D40",
"V@.	c #8D4F42",
"W@.	c #7E3F32",
"X@.	c #7D3F33",
"Y@.	c #814337",
"Z@.	c #85483C",
"`@.	c #83453A",
" #.	c #7D4139",
".#.	c #703830",
"+#.	c #6B342C",
"@#.	c #6C3C33",
"##.	c #673A31",
"$#.	c #623730",
"%#.	c #59322C",
"&#.	c #4D2924",
"*#.	c #472522",
"=#.	c #3C1E1C",
"-#.	c #301919",
";#.	c #2B1D1D",
">#.	c #272121",
",#.	c #1D1B1C",
"'#.	c #0A0607",
")#.	c #301612",
"!#.	c #361712",
"~#.	c #42201B",
"{#.	c #512A25",
"]#.	c #5A2F29",
"^#.	c #5F3029",
"/#.	c #67352D",
"(#.	c #6D3D32",
"_#.	c #734235",
":#.	c #7B4739",
"<#.	c #804B3D",
"[#.	c #844E40",
"}#.	c #844E3F",
"|#.	c #854E3F",
"1#.	c #8A4B43",
"2#.	c #7A3B32",
"3#.	c #804239",
"4#.	c #814239",
"5#.	c #85453D",
"6#.	c #84443B",
"7#.	c #85413B",
"8#.	c #88433C",
"9#.	c #76342E",
"0#.	c #804139",
"a#.	c #804138",
"b#.	c #84463E",
"c#.	c #85473F",
"d#.	c #82453E",
"e#.	c #82463E",
"f#.	c #7B4339",
"g#.	c #6F3B32",
"h#.	c #69392E",
"i#.	c #65382D",
"j#.	c #62382F",
"k#.	c #5A352D",
"l#.	c #523029",
"m#.	c #482923",
"n#.	c #161516",
"o#.	c #0F0F0F",
"p#.	c #230F0C",
"q#.	c #2D1612",
"r#.	c #361A17",
"s#.	c #3F1E1B",
"t#.	c #4D2825",
"u#.	c #5A322E",
"v#.	c #633330",
"w#.	c #6A3A35",
"x#.	c #79473E",
"y#.	c #7C4941",
"z#.	c #7E493F",
"A#.	c #804940",
"B#.	c #80493E",
"C#.	c #824A3F",
"D#.	c #854B41",
"E#.	c #834A41",
"F#.	c #854944",
"G#.	c #894D48",
"H#.	c #824740",
"I#.	c #80443E",
"J#.	c #874B46",
"K#.	c #86443B",
"L#.	c #86463E",
"M#.	c #884840",
"N#.	c #8B453F",
"O#.	c #8C453F",
"P#.	c #813E38",
"Q#.	c #87433C",
"R#.	c #87473F",
"S#.	c #85463F",
"T#.	c #7E4139",
"U#.	c #773E35",
"V#.	c #69372E",
"W#.	c #65372D",
"X#.	c #5B352D",
"Y#.	c #502E27",
"Z#.	c #462721",
"`#.	c #2E1B1A",
" $.	c #251B1B",
".$.	c #2D1613",
"+$.	c #42231F",
"@$.	c #4C2925",
"#$.	c #633934",
"$$.	c #673A35",
"%$.	c #6B3935",
"&$.	c #7C473E",
"*$.	c #804941",
"=$.	c #874C42",
"-$.	c #894E43",
";$.	c #894B45",
">$.	c #8B4E47",
",$.	c #8C473E",
"'$.	c #8F483F",
")$.	c #833D35",
"!$.	c #823D34",
"~$.	c #813C33",
"{$.	c #803B33",
"]$.	c #834037",
"^$.	c #7F3D35",
"/$.	c #7F3D34",
"($.	c #934B45",
"_$.	c #934A44",
":$.	c #914C45",
"<$.	c #833F38",
"[$.	c #8B4840",
"}$.	c #8F4D45",
"|$.	c #8F4E45",
"1$.	c #884841",
"2$.	c #7C3D36",
"3$.	c #7C3F37",
"4$.	c #71352E",
"5$.	c #5F261E",
"6$.	c #69362D",
"7$.	c #66362E",
"8$.	c #663A32",
"9$.	c #5D362E",
"0$.	c #4E2B23",
"a$.	c #43241E",
"b$.	c #38201C",
"c$.	c #2E1C1A",
"d$.	c #271D1D",
"e$.	c #211D1F",
"f$.	c #181718",
"g$.	c #100F10",
"h$.	c #2E1613",
"i$.	c #52302A",
"j$.	c #673D37",
"k$.	c #6F423B",
"l$.	c #74433C",
"m$.	c #76423B",
"n$.	c #7D4840",
"o$.	c #925247",
"p$.	c #935249",
"q$.	c #925047",
"r$.	c #8F4F46",
"s$.	c #7D3B2F",
"t$.	c #7F3B30",
"u$.	c #8D493E",
"v$.	c #89453A",
"w$.	c #8A473C",
"x$.	c #7D3C31",
"y$.	c #723127",
"z$.	c #79392F",
"A$.	c #854439",
"B$.	c #854339",
"C$.	c #803931",
"D$.	c #813932",
"E$.	c #843F36",
"F$.	c #853F36",
"G$.	c #803D34",
"H$.	c #7B392F",
"I$.	c #803E34",
"J$.	c #7E3C32",
"K$.	c #7B3A30",
"L$.	c #7C3C32",
"M$.	c #703129",
"N$.	c #6A2B26",
"O$.	c #733731",
"P$.	c #6B2F2B",
"Q$.	c #703834",
"R$.	c #6F3C36",
"S$.	c #6D3C36",
"T$.	c #60342E",
"U$.	c #572F2A",
"V$.	c #43241F",
"W$.	c #3A211F",
"X$.	c #311E1D",
"Y$.	c #2A1E20",
"Z$.	c #272225",
"`$.	c #070504",
" %.	c #26100E",
".%.	c #2E1512",
"+%.	c #391D19",
"@%.	c #442621",
"#%.	c #57322A",
"$%.	c #603730",
"%%.	c #6A3D35",
"&%.	c #6C3E35",
"*%.	c #744239",
"=%.	c #7D483F",
"-%.	c #834E42",
";%.	c #905246",
">%.	c #8E4D42",
",%.	c #8F4E43",
"'%.	c #935147",
")%.	c #945248",
"!%.	c #7F3E34",
"~%.	c #80473D",
"{%.	c #884C42",
"]%.	c #8B5148",
"^%.	c #88534C",
"/%.	c #845049",
"(%.	c #844B42",
"_%.	c #884E45",
":%.	c #844A43",
"<%.	c #874D45",
"[%.	c #7A3932",
"}%.	c #7B3932",
"|%.	c #81433C",
"1%.	c #80423A",
"2%.	c #7F4740",
"3%.	c #7E463D",
"4%.	c #7F453D",
"5%.	c #7C433A",
"6%.	c #794038",
"7%.	c #7B4139",
"8%.	c #7F463D",
"9%.	c #7C453C",
"0%.	c #77433C",
"a%.	c #6D3734",
"b%.	c #743F3E",
"c%.	c #6E3B3B",
"d%.	c #754544",
"e%.	c #70423F",
"f%.	c #6B403D",
"g%.	c #623B38",
"h%.	c #593633",
"i%.	c #52322E",
"j%.	c #462B27",
"k%.	c #3F2928",
"l%.	c #382727",
"m%.	c #312628",
"n%.	c #2D272A",
"o%.	c #262326",
"p%.	c #060304",
"q%.	c #110806",
"r%.	c #1F0F0C",
"s%.	c #402420",
"t%.	c #4A2C27",
"u%.	c #52312B",
"v%.	c #6D433B",
"w%.	c #6F433B",
"x%.	c #77483F",
"y%.	c #7D4C43",
"z%.	c #824F45",
"A%.	c #8C5449",
"B%.	c #8E554A",
"C%.	c #8D5146",
"D%.	c #894D41",
"E%.	c #90524A",
"F%.	c #84473F",
"G%.	c #7E433B",
"H%.	c #825950",
"I%.	c #89625A",
"J%.	c #80584F",
"K%.	c #81594F",
"L%.	c #80574E",
"M%.	c #7F574D",
"N%.	c #8D665F",
"O%.	c #A8817B",
"P%.	c #B38D87",
"Q%.	c #A27D78",
"R%.	c #7F5A56",
"S%.	c #805C58",
"T%.	c #7C5855",
"U%.	c #6A3A37",
"V%.	c #714943",
"W%.	c #86605C",
"X%.	c #926A64",
"Y%.	c #89645D",
"Z%.	c #815B55",
"`%.	c #7F5853",
" &.	c #7D5651",
".&.	c #7B5550",
"+&.	c #7A534D",
"@&.	c #78514B",
"#&.	c #805953",
"$&.	c #8E6864",
"%&.	c #785253",
"&&.	c #7A5457",
"*&.	c #795659",
"=&.	c #7E5E61",
"-&.	c #6C4F51",
";&.	c #62494A",
">&.	c #664C4F",
",&.	c #5D4748",
"'&.	c #513B3C",
")&.	c #4D3A3A",
"!&.	c #4C3C3C",
"~&.	c #403739",
"{&.	c #353034",
"]&.	c #2D2A2E",
"^&.	c #141213",
"/&.	c #070405",
"(&.	c #070506",
"_&.	c #0F090A",
":&.	c #120C0D",
"<&.	c #160F0F",
"[&.	c #1F1413",
"}&.	c #271B19",
"|&.	c #2A1C1B",
"1&.	c #342322",
"2&.	c #3E2A29",
"3&.	c #402D2C",
"4&.	c #44312F",
"5&.	c #4A3430",
"6&.	c #573A35",
"7&.	c #664743",
"8&.	c #704F49",
"9&.	c #77534E",
"0&.	c #744F48",
"a&.	c #855C56",
"b&.	c #7F564E",
"c&.	c #7E544D",
"d&.	c #855A52",
"e&.	c #7A4F45",
"f&.	c #784C44",
"g&.	c #81554D",
"h&.	c #885B54",
"i&.	c #8A5C57",
"j&.	c #885954",
"k&.	c #81524E",
"l&.	c #7F504C",
"m&.	c #835551",
"n&.	c #80524E",
"o&.	c #AB9592",
"p&.	c #AF9996",
"q&.	c #B09B98",
"r&.	c #B09A97",
"s&.	c #AE9996",
"t&.	c #B19D9D",
"u&.	c #B6A1A1",
"v&.	c #BBA6A7",
"w&.	c #BBA6A8",
"x&.	c #B09D9F",
"y&.	c #AD999A",
"z&.	c #B4A1A3",
"A&.	c #A0898C",
"B&.	c #A89195",
"C&.	c #A78F92",
"D&.	c #937C7F",
"E&.	c #9F8A8B",
"F&.	c #968283",
"G&.	c #917D7F",
"H&.	c #8D797A",
"I&.	c #8E7A7B",
"J&.	c #937F80",
"K&.	c #968384",
"L&.	c #9B8889",
"M&.	c #A29091",
"N&.	c #A28E90",
"O&.	c #A69394",
"P&.	c #A69397",
"Q&.	c #A08C92",
"R&.	c #99868B",
"S&.	c #958689",
"T&.	c #8C7D80",
"U&.	c #908386",
"V&.	c #7E7375",
"W&.	c #756B6D",
"X&.	c #685F60",
"Y&.	c #625B5B",
"Z&.	c #595354",
"`&.	c #4C484A",
" *.	c #413F42",
".*.	c #38373A",
"+*.	c #2E2E30",
"@*.	c #1E1D1F",
"#*.	c #131112",
"$*.	c #0E0B0C",
"%*.	c #090606",
"&*.	c #0A0707",
"**.	c #0B0809",
"=*.	c #131314",
"-*.	c #171617",
";*.	c #1B181A",
">*.	c #1E1A1C",
",*.	c #1F1C1E",
"'*.	c #232123",
")*.	c #2A2829",
"!*.	c #312B2D",
"~*.	c #342D2F",
"{*.	c #3D3637",
"]*.	c #443B3D",
"^*.	c #4F4446",
"/*.	c #55494B",
"(*.	c #5F5557",
"_*.	c #655C5D",
":*.	c #665A5B",
"<*.	c #675455",
"[*.	c #6C5757",
"}*.	c #756161",
"|*.	c #796464",
"1*.	c #8F7879",
"2*.	c #897374",
"3*.	c #7F6969",
"4*.	c #836A68",
"5*.	c #866B69",
"6*.	c #8D7472",
"7*.	c #917875",
"8*.	c #8E7572",
"9*.	c #866D6B",
"0*.	c #7F6563",
"a*.	c #7F6362",
"b*.	c #826264",
"c*.	c #7F5F61",
"d*.	c #79585A",
"e*.	c #765558",
"f*.	c #775658",
"g*.	c #745355",
"h*.	c #6E4C4E",
"i*.	c #B5A3A2",
"j*.	c #BAA7A6",
"k*.	c #BFADAC",
"l*.	c #BFADAD",
"m*.	c #C0ADAC",
"n*.	c #BEACAC",
"o*.	c #BEAEB0",
"p*.	c #BFAFB2",
"q*.	c #C2B2B5",
"r*.	c #BCADB0",
"s*.	c #B9AAAC",
"t*.	c #BDAFB1",
"u*.	c #C1B2B5",
"v*.	c #AD999D",
"w*.	c #B6A2A7",
"x*.	c #B09CA0",
"y*.	c #A08E93",
"z*.	c #A59699",
"A*.	c #988A8D",
"B*.	c #988A8C",
"C*.	c #988B8D",
"D*.	c #9E9093",
"E*.	c #A29497",
"F*.	c #A7999B",
"G*.	c #AE9FA2",
"H*.	c #AEA0A4",
"I*.	c #B1A3A6",
"J*.	c #B4A5AA",
"K*.	c #AD9EA3",
"L*.	c #A6979C",
"M*.	c #A2979A",
"N*.	c #9B8F93",
"O*.	c #9F9598",
"P*.	c #8E8587",
"Q*.	c #837D80",
"R*.	c #827C7F",
"S*.	c #756F70",
"T*.	c #6F6A6B",
"U*.	c #666263",
"V*.	c #595657",
"W*.	c #4D4C4F",
"X*.	c #424245",
"Y*.	c #39393C",
"Z*.	c #28282A",
"`*.	c #1E1C1D",
" =.	c #181516",
".=.	c #141212",
"+=.	c #0B0A0C",
"@=.	c #0A0909",
"#=.	c #0E0D0D",
"$=.	c #110F10",
"%=.	c #131212",
"&=.	c #121010",
"*=.	c #141111",
"==.	c #151213",
"-=.	c #1E1F20",
";=.	c #2A2629",
">=.	c #2D292C",
",=.	c #2F2C2F",
"'=.	c #333133",
")=.	c #3A383A",
"!=.	c #423C3F",
"~=.	c #464043",
"{=.	c #4F484B",
"]=.	c #574F52",
"^=.	c #60575A",
"/=.	c #655B5F",
"(=.	c #72696C",
"_=.	c #787073",
":=.	c #776D70",
"<=.	c #756769",
"[=.	c #766769",
"}=.	c #817071",
"|=.	c #877678",
"1=.	c #9C8A8C",
"2=.	c #958587",
"3=.	c #87787A",
"4=.	c #897A7B",
"5=.	c #8F7D7E",
"6=.	c #988484",
"7=.	c #9B8785",
"8=.	c #998786",
"9=.	c #91807F",
"0=.	c #877676",
"a=.	c #8A7378",
"b=.	c #866D73",
"c=.	c #81686E",
"d=.	c #80676E",
"e=.	c #7A6166",
"f=.	c #796065",
"g=.	c #796268",
"h=.	c #BFAFB9",
"i=.	c #CABAC2",
"j=.	c #E4D4DE",
"k=.	c #DCCCD5",
"l=.	c #DECED6",
"m=.	c #E1D1DA",
"n=.	c #E6D9DF",
"o=.	c #DBD1D5",
"p=.	c #CCC5C7",
"q=.	c #C6C2C4",
"r=.	c #C8C2C7",
"s=.	c #C7C3C8",
"t=.	c #CDCAD0",
"u=.	c #CAC6CD",
"v=.	c #B5AAAF",
"w=.	c #C4B5B8",
"x=.	c #ACA0A3",
"y=.	c #BEB9C0",
"z=.	c #97979F",
"A=.	c #BEB9BD",
"B=.	c #C3C1C3",
"C=.	c #BEBDC0",
"D=.	c #C1BFC3",
"E=.	c #C4C2C4",
"F=.	c #C0BBBF",
"G=.	c #BAB5B9",
"H=.	c #C8C3C7",
"I=.	c #D1CACF",
"J=.	c #C8C1C6",
"K=.	c #C8BFC5",
"L=.	c #C3BABF",
"M=.	c #C1BBBF",
"N=.	c #C1BCC0",
"O=.	c #B8B5B8",
"P=.	c #B6B3B6",
"Q=.	c #9C9B9F",
"R=.	c #89898E",
"S=.	c #7F7F82",
"T=.	c #78797B",
"U=.	c #6E6E70",
"V=.	c #605F62",
"W=.	c #505052",
"X=.	c #3A3738",
"Y=.	c #302C2D",
"Z=.	c #2A2627",
"`=.	c #272424",
" -.	c #1F1C1D",
".-.	c #181617",
"+-.	c #171516",
"@-.	c #121112",
"#-.	c #0B0D0E",
"$-.	c #0B0C0D",
"%-.	c #0D0E0F",
"&-.	c #0C0D0D",
"*-.	c #0D0E0E",
"=-.	c #101011",
"--.	c #151516",
";-.	c #171718",
">-.	c #191A1A",
",-.	c #1F1F20",
"'-.	c #212123",
")-.	c #262627",
"!-.	c #29292A",
"~-.	c #29282A",
"{-.	c #2A2A2B",
"]-.	c #2E2F30",
"^-.	c #313334",
"/-.	c #383839",
"(-.	c #444345",
"_-.	c #474548",
":-.	c #4C494B",
"<-.	c #484547",
"[-.	c #534F51",
"}-.	c #6B6569",
"|-.	c #70696E",
"1-.	c #7B7479",
"2-.	c #7B7379",
"3-.	c #7D767D",
"4-.	c #928A92",
"5-.	c #9C969D",
"6-.	c #9B979E",
"7-.	c #9D969B",
"8-.	c #A99BA1",
"9-.	c #BDAEB4",
"0-.	c #BCB0B6",
"a-.	c #B0B0B5",
"b-.	c #A0A7AC",
"c-.	c #A9B6BD",
"d-.	c #B5BBC1",
"e-.	c #C0B6BA",
"f-.	c #BFB2B4",
"g-.	c #BDB9B7",
"h-.	c #B9B8B8",
"i-.	c #B5B5BA",
"j-.	c #C0BBC3",
"k-.	c #C2B8C3",
"l-.	c #B8AAB7",
"m-.	c #B6A8B5",
"n-.	c #BEB1BD",
"o-.	c #A294A1",
"p-.	c #A699A6",
"q-.	c #C9BBC8",
"r-.	c #B09AA1",
"s-.	c #AE989F",
"t-.	c #B4A1A8",
"u-.	c #B8A3AA",
"v-.	c #C2ACB3",
"w-.	c #C9B2BA",
"x-.	c #D0BCC1",
"y-.	c #D5C4C6",
"z-.	c #D5C6C7",
"A-.	c #D0C2C3",
"B-.	c #C5B8BA",
"C-.	c #BBB0B4",
"D-.	c #C0B5B9",
"E-.	c #BCB0B5",
"F-.	c #AD9DA0",
"G-.	c #C0ACAD",
"H-.	c #B3A1A2",
"I-.	c #D1C8CD",
"J-.	c #9E9DA6",
"K-.	c #A3A3AA",
"L-.	c #BDB7BA",
"M-.	c #CBC2C3",
"N-.	c #D1C8C9",
"O-.	c #D6CCCD",
"P-.	c #DACFD0",
"Q-.	c #D6CACC",
"R-.	c #CBBEC0",
"S-.	c #CCBEC1",
"T-.	c #BFB3B6",
"U-.	c #CBBABF",
"V-.	c #CCBABF",
"W-.	c #CDBBC0",
"X-.	c #C7B7BA",
"Y-.	c #BFB2B5",
"Z-.	c #B9AFB1",
"`-.	c #B4ACAF",
" ;.	c #A59FA3",
".;.	c #958F94",
"+;.	c #888286",
"@;.	c #7F797D",
"#;.	c #767174",
"$;.	c #6A6568",
"%;.	c #5D595C",
"&;.	c #555153",
"*;.	c #443D3D",
"=;.	c #3C3535",
"-;.	c #362F2F",
";;.	c #312B2B",
">;.	c #2E2828",
",;.	c #262020",
"';.	c #221D1E",
");.	c #211C1D",
"!;.	c #1E1A1B",
"~;.	c #1E191B",
"{;.	c #1C1819",
"];.	c #191516",
"^;.	c #191517",
"/;.	c #1A1717",
"(;.	c #171415",
"_;.	c #161718",
":;.	c #161719",
"<;.	c #171618",
"[;.	c #171717",
"};.	c #191919",
"|;.	c #1E1D1E",
"1;.	c #201E1F",
"2;.	c #221F20",
"3;.	c #232021",
"4;.	c #252224",
"5;.	c #272526",
"6;.	c #272425",
"7;.	c #2A2828",
"8;.	c #2B292A",
"9;.	c #2E2B2D",
"0;.	c #322F31",
"a;.	c #363335",
"b;.	c #383537",
"c;.	c #3D3A3C",
"d;.	c #413F40",
"e;.	c #444244",
"f;.	c #474446",
"g;.	c #4A4648",
"h;.	c #524E50",
"i;.	c #595355",
"j;.	c #5E5558",
"k;.	c #52494B",
"l;.	c #5D5255",
"m;.	c #6C5E61",
"n;.	c #6B5F62",
"o;.	c #7E7075",
"p;.	c #918287",
"q;.	c #8B7B81",
"r;.	c #908188",
"s;.	c #9B8D93",
"t;.	c #A0949B",
"u;.	c #A1979C",
"v;.	c #9A9295",
"w;.	c #918488",
"x;.	c #B39FA4",
"y;.	c #D1BBBF",
"z;.	c #D1BEC3",
"A;.	c #BEBBC1",
"B;.	c #A3A9AD",
"C;.	c #ADBBC2",
"D;.	c #B4B8BE",
"E;.	c #D1BDC1",
"F;.	c #CDB6B7",
"G;.	c #CBBFBB",
"H;.	c #CCC4C2",
"I;.	c #C9C1C4",
"J;.	c #CDC1C7",
"K;.	c #D0BFC7",
"L;.	c #C9B6BF",
"M;.	c #C2AEB7",
"N;.	c #C1ADB6",
"O;.	c #A29099",
"P;.	c #C3AFB8",
"Q;.	c #DBC6D0",
"R;.	c #A68A90",
"S;.	c #9C8085",
"T;.	c #9F8489",
"U;.	c #AF9399",
"V;.	c #B99CA2",
"W;.	c #C1A7AB",
"X;.	c #CFB9BB",
"Y;.	c #D8C3C4",
"Z;.	c #D3BFBF",
"`;.	c #C1B0B0",
" >.	c #B3A2A5",
".>.	c #B8A6AA",
"+>.	c #B2A1A5",
"@>.	c #A89395",
"#>.	c #BBA5A5",
"$>.	c #B5A0A0",
"%>.	c #D9CDD1",
"&>.	c #98969F",
"*>.	c #AAA9B0",
"=>.	c #CDC0C0",
"->.	c #D8CACA",
";>.	c #DECFCF",
">>.	c #E2D2D3",
",>.	c #DFCECF",
"'>.	c #D2C0C2",
")>.	c #CCB9BB",
"!>.	c #B4A2A4",
"~>.	c #CAB4B8",
"{>.	c #CDB6B9",
"]>.	c #D1BABE",
"^>.	c #C9B3B7",
"/>.	c #BDABAD",
"(>.	c #BFADAF",
"_>.	c #BAACAD",
":>.	c #BCAFB2",
"<>.	c #ADA1A7",
"[>.	c #9E9498",
"}>.	c #8F8489",
"|>.	c #847B80",
"1>.	c #7C7478",
"2>.	c #736A6E",
"3>.	c #696165",
"4>.	c #635B5E",
"5>.	c #4F4343",
"6>.	c #493F3E",
"7>.	c #3D3232",
"8>.	c #3A3131",
"9>.	c #362C2C",
"0>.	c #2E2424",
"a>.	c #2A2223",
"b>.	c #271F20",
"c>.	c #261E1F",
"d>.	c #251E1E",
"e>.	c #221B1C",
"f>.	c #1E1718",
"g>.	c #1B1415",
"h>.	c #211A1C",
"i>.	c #221E1E",
"j>.	c #282223",
"k>.	c #232324",
"l>.	c #212324",
"m>.	c #232326",
"n>.	c #222221",
"o>.	c #262525",
"p>.	c #2C292B",
"q>.	c #2F2A2C",
"r>.	c #352F31",
"s>.	c #383334",
"t>.	c #393334",
"u>.	c #3A3637",
"v>.	c #3D373A",
"w>.	c #423D40",
"x>.	c #464143",
"y>.	c #484346",
"z>.	c #524D50",
"A>.	c #565255",
"B>.	c #585356",
"C>.	c #595356",
"D>.	c #5A5356",
"E>.	c #60585A",
"F>.	c #6D6063",
"G>.	c #5C4D4E",
"H>.	c #675557",
"I>.	c #7A6669",
"J>.	c #6C595B",
"K>.	c #8B787B",
"L>.	c #A18D91",
"M>.	c #968287",
"N>.	c #9E8A90",
"O>.	c #A18D95",
"P>.	c #A49199",
"Q>.	c #A5969C",
"R>.	c #9A8D90",
"S>.	c #89787B",
"T>.	c #B9A1A5",
"U>.	c #DAC0C3",
"V>.	c #DAC4C7",
"W>.	c #C4C0C4",
"X>.	c #A5AAAE",
"Y>.	c #B0BDC5",
"Z>.	c #B5B7BD",
"`>.	c #D7BFC3",
" ,.	c #D0B5B4",
".,.	c #CFBFBA",
"+,.	c #D3C7C3",
"@,.	c #D0C3C5",
"#,.	c #D2C0C6",
"$,.	c #D4BFC6",
"%,.	c #D0B9C0",
"&,.	c #C6AEB5",
"*,.	c #C1A8AF",
"=,.	c #A28C93",
"-,.	c #CFB7BE",
";,.	c #E0C8D0",
">,.	c #945C56",
",,.	c #A06964",
"',.	c #965F5A",
"),.	c #99625D",
"!,.	c #A06863",
"~,.	c #9D6765",
"{,.	c #996465",
"],.	c #9F696B",
"^,.	c #A36F71",
"/,.	c #9C696D",
"(,.	c #A47379",
"_,.	c #A27178",
":,.	c #977074",
"<,.	c #8B6262",
"[,.	c #A17F80",
"},.	c #9F888C",
"|,.	c #8A808B",
"1,.	c #B3B1B9",
"2,.	c #BFB8BB",
"3,.	c #967A7B",
"4,.	c #875C5D",
"5,.	c #956869",
"6,.	c #9F7073",
"7,.	c #9E6D70",
"8,.	c #9A686B",
"9,.	c #A16F72",
"0,.	c #9A676A",
"a,.	c #854F51",
"b,.	c #905B5C",
"c,.	c #8B5757",
"d,.	c #7C4D4D",
"e,.	c #6E4343",
"f,.	c #673F3F",
"g,.	c #6F494B",
"h,.	c #6F4B4D",
"i,.	c #654345",
"j,.	c #563637",
"k,.	c #492B2B",
"l,.	c #47292A",
"m,.	c #4A2F2F",
"n,.	c #462C2D",
"o,.	c #3E2021",
"p,.	c #3B1F20",
"q,.	c #391E20",
"r,.	c #2F1617",
"s,.	c #2F1618",
"t,.	c #240E0F",
"u,.	c #241010",
"v,.	c #251111",
"w,.	c #220F0F",
"x,.	c #1C0A0A",
"y,.	c #210E0F",
"z,.	c #1E0B0C",
"A,.	c #190A09",
"B,.	c #130505",
"C,.	c #170809",
"D,.	c #1E1014",
"E,.	c #2C272A",
"F,.	c #2A282B",
"G,.	c #352F33",
"H,.	c #30262B",
"I,.	c #2B2024",
"J,.	c #26191B",
"K,.	c #221616",
"L,.	c #201212",
"M,.	c #211112",
"N,.	c #281616",
"O,.	c #2A1513",
"P,.	c #230E0D",
"Q,.	c #261212",
"R,.	c #240F10",
"S,.	c #261012",
"T,.	c #210B0D",
"U,.	c #200A0C",
"V,.	c #240E10",
"W,.	c #2A1215",
"X,.	c #2B1417",
"Y,.	c #2E1719",
"Z,.	c #3A2123",
"`,.	c #3B2123",
" '.	c #3A1C1F",
".'.	c #402123",
"+'.	c #4B2A2D",
"@'.	c #482627",
"#'.	c #643D3C",
"$'.	c #572E2E",
"%'.	c #64393A",
"&'.	c #502527",
"*'.	c #63383B",
"='.	c #603538",
"-'.	c #572C30",
";'.	c #5C2F34",
">'.	c #6F464A",
",'.	c #815B5E",
"''.	c #865C60",
")'.	c #703E42",
"!'.	c #6A383D",
"~'.	c #5B2E33",
"{'.	c #8A6E75",
"]'.	c #9B8991",
"^'.	c #BBA6B0",
"/'.	c #7B4A4E",
"('.	c #854D4C",
"_'.	c #804E47",
":'.	c #8C5C54",
"<'.	c #8E5B57",
"['.	c #8B5652",
"}'.	c #89554D",
"|'.	c #8A554C",
"1'.	c #8C574E",
"2'.	c #8F5A51",
"3'.	c #8B564E",
"4'.	c #804C44",
"5'.	c #9F655E",
"6'.	c #A36963",
"7'.	c #8B514C",
"8'.	c #995F59",
"9'.	c #995E58",
"0'.	c #9D635E",
"a'.	c #9B615D",
"b'.	c #9C6163",
"c'.	c #A06768",
"d'.	c #A0686B",
"e'.	c #A26B6F",
"f'.	c #A06A70",
"g'.	c #9D686E",
"h'.	c #926569",
"i'.	c #9E7879",
"j'.	c #967E82",
"k'.	c #948893",
"l'.	c #B9B5BD",
"m'.	c #BEB8BA",
"n'.	c #98797A",
"o'.	c #8B5A5B",
"p'.	c #936061",
"q'.	c #9B6768",
"r'.	c #9D6769",
"s'.	c #9C6668",
"t'.	c #9D6568",
"u'.	c #90595B",
"v'.	c #864A4B",
"w'.	c #915654",
"x'.	c #945957",
"y'.	c #8C5552",
"z'.	c #834E4B",
"A'.	c #7D4A47",
"B'.	c #6F3F3B",
"C'.	c #6B3B3A",
"D'.	c #714646",
"E'.	c #724848",
"F'.	c #6C4242",
"G'.	c #603938",
"H'.	c #55302F",
"I'.	c #543030",
"J'.	c #533130",
"K'.	c #51302F",
"L'.	c #472424",
"M'.	c #412020",
"N'.	c #432223",
"O'.	c #3A1A1B",
"P'.	c #38191A",
"Q'.	c #311414",
"R'.	c #321817",
"S'.	c #331919",
"T'.	c #2D1413",
"U'.	c #270E0E",
"V'.	c #260E0D",
"W'.	c #2E1514",
"X'.	c #291010",
"Y'.	c #220C0B",
"Z'.	c #1A0605",
"`'.	c #1F0A0C",
" ).	c #231115",
".).	c #373135",
"+).	c #363336",
"@).	c #423A3F",
"#).	c #3D3136",
"$).	c #342429",
"%).	c #2D1C1E",
"&).	c #291616",
"*).	c #2E1817",
"=).	c #311613",
"-).	c #311614",
";).	c #2D1110",
">).	c #2E1312",
",).	c #280E0F",
"').	c #2B1011",
")).	c #25090C",
"!).	c #270A0B",
"~).	c #2F1113",
"{).	c #371819",
"]).	c #37181A",
"^).	c #3C1D1F",
"/).	c #412122",
"().	c #411F20",
"_).	c #3F191C",
":).	c #472022",
"<).	c #532A2C",
"[).	c #532929",
"}).	c #542A29",
"|).	c #572E2C",
"1).	c #673C39",
"2).	c #643533",
"3).	c #6E3C3D",
"4).	c #643232",
"5).	c #693738",
"6).	c #693739",
"7).	c #683638",
"8).	c #6F3B3E",
"9).	c #784A4C",
"0).	c #825759",
"a).	c #845657",
"b).	c #71393C",
"c).	c #6F383B",
"d).	c #653336",
"e).	c #816369",
"f).	c #9B878E",
"g).	c #B7ACB5",
"h).	c #B49DA7",
"i).	c #844E45",
"j).	c #91574D",
"k).	c #93584F",
"l).	c #955A51",
"m).	c #874E45",
"n).	c #7E453C",
"o).	c #7D433A",
"p).	c #A96D65",
"q).	c #A66A62",
"r).	c #8A4E47",
"s).	c #9C6059",
"t).	c #995C55",
"u).	c #9B5F58",
"v).	c #995B56",
"w).	c #995958",
"x).	c #9D5F5F",
"y).	c #A5696B",
"z).	c #A66A6C",
"A).	c #9D6266",
"B).	c #985E63",
"C).	c #8C585D",
"D).	c #855353",
"E).	c #9B7072",
"F).	c #8D7277",
"G).	c #9F909B",
"H).	c #BEBAC1",
"I).	c #BEB8B9",
"J).	c #9A7879",
"K).	c #925A5A",
"L).	c #965D5D",
"M).	c #9D6263",
"N).	c #A06466",
"O).	c #975C5E",
"P).	c #884847",
"Q).	c #8F534E",
"R).	c #844A44",
"S).	c #7E4741",
"T).	c #703B34",
"U).	c #713C37",
"V).	c #764341",
"W).	c #764543",
"X).	c #724340",
"Y).	c #6B3D3A",
"Z).	c #643936",
"`).	c #5B3532",
" !.	c #502826",
".!.	c #48201E",
"+!.	c #4C2524",
"@!.	c #441E1E",
"#!.	c #3F1A1A",
"$!.	c #42221F",
"%!.	c #442320",
"&!.	c #391917",
"*!.	c #30100E",
"=!.	c #30110F",
"-!.	c #341513",
";!.	c #3C1D1B",
">!.	c #351513",
",!.	c #2B0F0D",
"'!.	c #220705",
")!.	c #270C0F",
"!!.	c #240D11",
"~!.	c #413E43",
"{!.	c #4F454B",
"]!.	c #4A3A40",
"^!.	c #39252A",
"/!.	c #331A1C",
"(!.	c #301616",
"_!.	c #351A18",
":!.	c #3D1C1B",
"<!.	c #371612",
"[!.	c #371511",
"}!.	c #371513",
"|!.	c #361313",
"1!.	c #2A080A",
"2!.	c #2E0C0E",
"3!.	c #2A0609",
"4!.	c #300B0B",
"5!.	c #3E1717",
"6!.	c #451E1F",
"7!.	c #421B1B",
"8!.	c #431D1D",
"9!.	c #461E1E",
"0!.	c #441919",
"a!.	c #431516",
"b!.	c #502021",
"c!.	c #5B2A2A",
"d!.	c #5F2E2C",
"e!.	c #5A2A27",
"f!.	c #562621",
"g!.	c #693631",
"h!.	c #713D39",
"i!.	c #79413F",
"j!.	c #7A4240",
"k!.	c #6E3634",
"l!.	c #743B3B",
"m!.	c #7B4243",
"n!.	c #824A4A",
"o!.	c #845050",
"p!.	c #835453",
"q!.	c #804E4C",
"r!.	c #713738",
"s!.	c #753B3D",
"t!.	c #703B3E",
"u!.	c #75565B",
"v!.	c #9C868C",
"w!.	c #B5A8B0",
"x!.	c #AC939C",
"y!.	c #874E50",
"z!.	c #7F403B",
"A!.	c #793B2F",
"B!.	c #7D4034",
"C!.	c #87463E",
"D!.	c #995A50",
"E!.	c #7E4037",
"F!.	c #925856",
"G!.	c #864D4B",
"H!.	c #793F3E",
"I!.	c #844948",
"J!.	c #824844",
"K!.	c #8F554E",
"L!.	c #945A54",
"M!.	c #99615D",
"N!.	c #96605B",
"O!.	c #96605D",
"P!.	c #9E6866",
"Q!.	c #9C6262",
"R!.	c #9D625F",
"S!.	c #9E6F6C",
"T!.	c #8F7073",
"U!.	c #A8959E",
"V!.	c #BAB4B9",
"W!.	c #C7BDBE",
"X!.	c #9D7D79",
"Y!.	c #92615A",
"Z!.	c #936059",
"`!.	c #935F58",
" ~.	c #905B55",
".~.	c #864F4A",
"+~.	c #7D4440",
"@~.	c #6E3631",
"#~.	c #75382F",
"$~.	c #8A4E44",
"%~.	c #92574D",
"&~.	c #8A5046",
"*~.	c #854F43",
"=~.	c #824D41",
"-~.	c #7E4D41",
";~.	c #7D4B40",
">~.	c #7A473D",
",~.	c #76443A",
"'~.	c #714136",
")~.	c #6A3B31",
"!~.	c #62352B",
"~~.	c #5F332A",
"{~.	c #5E332A",
"]~.	c #5D342C",
"^~.	c #572F27",
"/~.	c #552D27",
"(~.	c #4F2722",
"_~.	c #49221D",
":~.	c #49241F",
"<~.	c #43211A",
"[~.	c #42211A",
"}~.	c #401E18",
"|~.	c #3E1D17",
"1~.	c #3F1E18",
"2~.	c #401F19",
"3~.	c #411F18",
"4~.	c #3D1F17",
"5~.	c #31130E",
"6~.	c #2F1212",
"7~.	c #2B1115",
"8~.	c #4E4B4D",
"9~.	c #545658",
"0~.	c #5E5658",
"a~.	c #4C3B3D",
"b~.	c #402220",
"c~.	c #442521",
"d~.	c #452520",
"e~.	c #45221D",
"f~.	c #46231E",
"g~.	c #422320",
"h~.	c #341515",
"i~.	c #381A1D",
"j~.	c #3A1B1F",
"k~.	c #371416",
"l~.	c #471E1A",
"m~.	c #461B17",
"n~.	c #421813",
"o~.	c #481E19",
"p~.	c #4E241E",
"q~.	c #4C211C",
"r~.	c #4B211A",
"s~.	c #4D201A",
"t~.	c #4D1C18",
"u~.	c #53221D",
"v~.	c #5D2A25",
"w~.	c #57251F",
"x~.	c #59251D",
"y~.	c #59251C",
"z~.	c #643025",
"A~.	c #6A362D",
"B~.	c #6E3931",
"C~.	c #703C33",
"D~.	c #733E36",
"E~.	c #7A463E",
"F~.	c #7E4B44",
"G~.	c #7E4F47",
"H~.	c #7B5149",
"I~.	c #784B43",
"J~.	c #7C4944",
"K~.	c #764441",
"L~.	c #7E5350",
"M~.	c #5F4A4A",
"N~.	c #A19799",
"O~.	c #874A42",
"P~.	c #884D3C",
"Q~.	c #854B3A",
"R~.	c #935349",
"S~.	c #93534C",
"T~.	c #884C48",
"U~.	c #864B47",
"V~.	c #864C48",
"W~.	c #854A46",
"X~.	c #945954",
"Y~.	c #894F4A",
"Z~.	c #874F4E",
"`~.	c #7D4544",
" {.	c #7B4241",
".{.	c #7F4645",
"+{.	c #824A49",
"@{.	c #854C48",
"#{.	c #8F564E",
"${.	c #925A52",
"%{.	c #96605A",
"&{.	c #935F59",
"*{.	c #925E5A",
"={.	c #9A6663",
"-{.	c #9A605E",
";{.	c #996B67",
">{.	c #927174",
",{.	c #A9959E",
"'{.	c #BDB5BB",
"){.	c #C8BDBE",
"!{.	c #9E7E7A",
"~{.	c #93635B",
"{{.	c #936058",
"]{.	c #915E56",
"^{.	c #8E5A53",
"/{.	c #855049",
"({.	c #7E4640",
"_{.	c #6D342F",
":{.	c #72382F",
"<{.	c #884D42",
"[{.	c #90564C",
"}{.	c #884F45",
"|{.	c #865044",
"1{.	c #844F43",
"2{.	c #7D4B3F",
"3{.	c #7D493D",
"4{.	c #79463A",
"5{.	c #744337",
"6{.	c #6E3E32",
"7{.	c #66382C",
"8{.	c #62342A",
"9{.	c #62352A",
"0{.	c #62362D",
"a{.	c #5E342B",
"b{.	c #5D322B",
"c{.	c #542A24",
"d{.	c #522822",
"e{.	c #512923",
"f{.	c #4C271F",
"g{.	c #4B251E",
"h{.	c #4A251F",
"i{.	c #4A2720",
"j{.	c #49251E",
"k{.	c #4A251E",
"l{.	c #49241C",
"m{.	c #47251D",
"n{.	c #3E1C16",
"o{.	c #381616",
"p{.	c #34181B",
"q{.	c #5E5B5E",
"r{.	c #626667",
"s{.	c #6B6262",
"t{.	c #554243",
"u{.	c #482C2D",
"v{.	c #4B2926",
"w{.	c #4F2C26",
"x{.	c #502C25",
"y{.	c #502A23",
"z{.	c #4F2D2A",
"A{.	c #4C2A26",
"B{.	c #472624",
"C{.	c #3B191A",
"D{.	c #3E1D20",
"E{.	c #3F1E23",
"F{.	c #401B1C",
"G{.	c #4F221D",
"H{.	c #4B1D19",
"I{.	c #491B16",
"J{.	c #50221C",
"K{.	c #582A23",
"L{.	c #572A23",
"M{.	c #54261F",
"N{.	c #52231C",
"O{.	c #53201C",
"P{.	c #5E2A25",
"Q{.	c #642F29",
"R{.	c #5C271F",
"S{.	c #5E271E",
"T{.	c #5D261D",
"U{.	c #673024",
"V{.	c #6C362C",
"W{.	c #723C33",
"X{.	c #764037",
"Y{.	c #79453C",
"Z{.	c #7E4A41",
"`{.	c #804D47",
" ].	c #805149",
".].	c #7C5249",
"+].	c #7C4F46",
"@].	c #7F4C46",
"#].	c #7C4C47",
"$].	c #805552",
"%].	c #604D4E",
"&].	c #A79EA0",
"*].	c #B6B2B3",
"=].	c #84524F",
"-].	c #884D44",
";].	c #864C3D",
">].	c #93554C",
",].	c #93544F",
"'].	c #8B4F4B",
")].	c #884F4B",
"!].	c #89504C",
"~].	c #884E4B",
"{].	c #834946",
"]].	c #905652",
"^].	c #864D49",
"/].	c #723C3B",
"(].	c #6E3736",
"_].	c #814949",
":].	c #915958",
"<].	c #905951",
"[].	c #915B51",
"}].	c #8F5950",
"|].	c #935E57",
"1].	c #905E57",
"2].	c #8B5A55",
"3].	c #915F5B",
"4].	c #9B625B",
"5].	c #8E615C",
"6].	c #AA949C",
"7].	c #C4B9C0",
"8].	c #C8BCBE",
"9].	c #9F807B",
"0].	c #94675D",
"a].	c #926258",
"b].	c #8E5D53",
"c].	c #8B5A50",
"d].	c #87534A",
"e].	c #824D45",
"f].	c #6B352E",
"g].	c #854B40",
"h].	c #844C44",
"i].	c #845044",
"j].	c #855246",
"k].	c #7B4A3F",
"l].	c #79473B",
"m].	c #7C493C",
"n].	c #7B473A",
"o].	c #774538",
"p].	c #714033",
"q].	c #6A3A2E",
"r].	c #643529",
"s].	c #633529",
"t].	c #63362C",
"u].	c #62372D",
"v].	c #62372E",
"w].	c #61362D",
"x].	c #62362F",
"y].	c #562B23",
"z].	c #562C25",
"A].	c #572E27",
"B].	c #512A22",
"C].	c #502922",
"D].	c #542D25",
"E].	c #562F27",
"F].	c #542E26",
"G].	c #522C24",
"H].	c #4D271E",
"I].	c #4F2A22",
"J].	c #4F2822",
"K].	c #3F191A",
"L].	c #401F24",
"M].	c #727072",
"N].	c #717676",
"O].	c #756A69",
"P].	c #584443",
"Q].	c #503130",
"R].	c #55302C",
"S].	c #58312A",
"T].	c #583029",
"U].	c #5B322B",
"V].	c #573330",
"W].	c #522F2C",
"X].	c #4D2B28",
"Y].	c #411E1E",
"Z].	c #3C1A1D",
"`].	c #3E1C1F",
" ^.	c #4B2423",
".^.	c #52231D",
"+^.	c #4C1C16",
"@^.	c #52221B",
"#^.	c #582820",
"$^.	c #5D2E26",
"%^.	c #572520",
"&^.	c #6C3732",
"*^.	c #5F2821",
"=^.	c #632A21",
"-^.	c #60271F",
";^.	c #682E24",
">^.	c #6B362A",
",^.	c #7D493F",
"'^.	c #824F46",
")^.	c #84524B",
"!^.	c #86554E",
"~^.	c #7C5347",
"{^.	c #80564B",
"]^.	c #83524A",
"^^.	c #865751",
"/^.	c #805753",
"(^.	c #655557",
"_^.	c #B1A9AC",
":^.	c #BCBABA",
"<^.	c #A79898",
"[^.	c #8C5B58",
"}^.	c #864E41",
"|^.	c #925651",
"1^.	c #915553",
"2^.	c #925958",
"3^.	c #8D5453",
"4^.	c #7D4543",
"5^.	c #844C4A",
"6^.	c #925853",
"7^.	c #905752",
"8^.	c #915752",
"9^.	c #8E544E",
"0^.	c #854D45",
"a^.	c #8A534C",
"b^.	c #8E5B55",
"c^.	c #8D5A56",
"d^.	c #8F5D59",
"e^.	c #98645B",
"f^.	c #9D665C",
"g^.	c #8F6259",
"h^.	c #8B6A6A",
"i^.	c #A49096",
"j^.	c #C6BBC2",
"k^.	c #CCBEC0",
"l^.	c #A2817D",
"m^.	c #95665F",
"n^.	c #93625A",
"o^.	c #8F5E57",
"p^.	c #8D5A54",
"q^.	c #8B5650",
"r^.	c #8B564F",
"s^.	c #733A33",
"t^.	c #844E47",
"u^.	c #87524A",
"v^.	c #824F47",
"w^.	c #814D44",
"x^.	c #824C41",
"y^.	c #7F493F",
"z^.	c #784338",
"A^.	c #6B372D",
"B^.	c #6A382E",
"C^.	c #6A3930",
"D^.	c #6B3D33",
"E^.	c #71443A",
"F^.	c #64362D",
"G^.	c #65372E",
"H^.	c #64352D",
"I^.	c #582A22",
"J^.	c #62352D",
"K^.	c #61342D",
"L^.	c #623630",
"M^.	c #5F332D",
"N^.	c #5E332C",
"O^.	c #5F342E",
"P^.	c #5D332D",
"Q^.	c #522720",
"R^.	c #4F251E",
"S^.	c #481A1D",
"T^.	c #482125",
"U^.	c #847D80",
"V^.	c #7B7F7F",
"W^.	c #7E706D",
"X^.	c #654B4A",
"Y^.	c #613B3B",
"Z^.	c #663936",
"`^.	c #663934",
" /.	c #643833",
"./.	c #663A35",
"+/.	c #693C37",
"@/.	c #613734",
"#/.	c #572D2A",
"$/.	c #4C2321",
"%/.	c #4A2120",
"&/.	c #5C2A25",
"*/.	c #5F2C28",
"=/.	c #64312B",
"-/.	c #693731",
";/.	c #703E37",
">/.	c #6F3D37",
",/.	c #6C3C36",
"'/.	c #733E3C",
")/.	c #743E3B",
"!/.	c #733B37",
"~/.	c #5E231F",
"{/.	c #642822",
"]/.	c #6E2E28",
"^/.	c #7C413B",
"//.	c #7C453E",
"(/.	c #7A443E",
"_/.	c #85514D",
":/.	c #824F4B",
"</.	c #804D4A",
"[/.	c #81524B",
"}/.	c #85584D",
"|/.	c #86564C",
"1/.	c #814D48",
"2/.	c #875652",
"3/.	c #815856",
"4/.	c #89767B",
"5/.	c #BCB4B9",
"6/.	c #B6B0B3",
"7/.	c #AD9B9C",
"8/.	c #875047",
"9/.	c #875049",
"0/.	c #905554",
"a/.	c #8B514E",
"b/.	c #925955",
"c/.	c #905653",
"d/.	c #7E4541",
"e/.	c #864C45",
"f/.	c #955A53",
"g/.	c #925851",
"h/.	c #91564F",
"i/.	c #8E544C",
"j/.	c #854C44",
"k/.	c #8D5853",
"l/.	c #8E5A58",
"m/.	c #97635A",
"n/.	c #9C665A",
"o/.	c #91645B",
"p/.	c #8A6968",
"q/.	c #A48F95",
"r/.	c #CDBEC1",
"s/.	c #A2807D",
"t/.	c #95655E",
"u/.	c #94625B",
"v/.	c #743A35",
"w/.	c #854F47",
"x/.	c #864D43",
"y/.	c #7C443B",
"z/.	c #753E33",
"A/.	c #713B31",
"B/.	c #723C32",
"C/.	c #713D34",
"D/.	c #724137",
"E/.	c #78473E",
"F/.	c #68372E",
"G/.	c #6D3B33",
"H/.	c #69362E",
"I/.	c #5E2D25",
"J/.	c #6B3B33",
"K/.	c #6A3A34",
"L/.	c #6D3D38",
"M/.	c #6D3E37",
"N/.	c #693933",
"O/.	c #673832",
"P/.	c #5A2C25",
"Q/.	c #5A2C26",
"R/.	c #683732",
"S/.	c #521F22",
"T/.	c #53272C",
"U/.	c #90888C",
"V/.	c #86898A",
"W/.	c #877571",
"X/.	c #6D504E",
"Y/.	c #6A403F",
"Z/.	c #703F3B",
"`/.	c #6F3D39",
" (.	c #6D3D39",
".(.	c #6F3F3A",
"+(.	c #71403C",
"@(.	c #6B3B38",
"#(.	c #62312F",
"$(.	c #683935",
"%(.	c #60322F",
"&(.	c #582B27",
"*(.	c #5F2E2A",
"=(.	c #66312C",
"-(.	c #6A3531",
";(.	c #6B3430",
">(.	c #713B37",
",(.	c #77423D",
"'(.	c #77443E",
")(.	c #77433E",
"!(.	c #7B4442",
"~(.	c #783F3D",
"{(.	c #783E3A",
"](.	c #642624",
"^(.	c #6A2B28",
"/(.	c #702E2B",
"((.	c #722F2B",
"_(.	c #7F433D",
":(.	c #7E4540",
"<(.	c #7C4540",
"[(.	c #87514E",
"}(.	c #7F4B48",
"|(.	c #81504B",
"1(.	c #85564D",
"2(.	c #87554D",
"3(.	c #865450",
"4(.	c #815756",
"5(.	c #BBB3B8",
"6(.	c #B8B0B4",
"7(.	c #AD999B",
"8(.	c #865352",
"9(.	c #8C504D",
"0(.	c #89504A",
"a(.	c #88514C",
"b(.	c #8E5253",
"c(.	c #8D5151",
"d(.	c #8C514C",
"e(.	c #8F5550",
"f(.	c #864C47",
"g(.	c #7E443F",
"h(.	c #95584D",
"i(.	c #915447",
"j(.	c #915548",
"k(.	c #8E5345",
"l(.	c #844944",
"m(.	c #8D524F",
"n(.	c #8C514F",
"o(.	c #8B5351",
"p(.	c #8E5C53",
"q(.	c #956054",
"r(.	c #9C6D64",
"s(.	c #926D6B",
"t(.	c #A58C92",
"u(.	c #BBAFB7",
"v(.	c #CEC1C5",
"w(.	c #A17E7D",
"x(.	c #925E59",
"y(.	c #9A625E",
"z(.	c #9E6661",
"A(.	c #985F5B",
"B(.	c #8E534F",
"C(.	c #7C403D",
"D(.	c #793B39",
"E(.	c #7E413F",
"F(.	c #8F5452",
"G(.	c #844C49",
"H(.	c #89514C",
"I(.	c #80423B",
"J(.	c #7D3F39",
"K(.	c #7E423A",
"L(.	c #7E4339",
"M(.	c #7B4239",
"N(.	c #7E463E",
"O(.	c #7A433A",
"P(.	c #6C362E",
"Q(.	c #79433B",
"R(.	c #632E25",
"S(.	c #6A352C",
"T(.	c #743F39",
"U(.	c #7A433F",
"V(.	c #7C4541",
"W(.	c #7B4541",
"X(.	c #7A4541",
"Y(.	c #784340",
"Z(.	c #733F3D",
"`(.	c #6F3C38",
" _.	c #6D3B38",
"._.	c #713F3C",
"+_.	c #62312A",
"@_.	c #713C38",
"#_.	c #60292B",
"$_.	c #68383E",
"%_.	c #9A8F95",
"&_.	c #919092",
"*_.	c #806764",
"=_.	c #714B46",
"-_.	c #71403B",
";_.	c #743D3A",
">_.	c #733C3B",
",_.	c #763E3D",
"'_.	c #753B3B",
")_.	c #783D3A",
"!_.	c #773B37",
"~_.	c #783F3A",
"{_.	c #723833",
"]_.	c #7A423A",
"^_.	c #733A35",
"/_.	c #773F3E",
"(_.	c #6C3231",
"__.	c #6F3433",
":_.	c #79403F",
"<_.	c #834A48",
"[_.	c #763A3A",
"}_.	c #7C403F",
"|_.	c #733232",
"1_.	c #783535",
"2_.	c #793535",
"3_.	c #773232",
"4_.	c #7A3C3B",
"5_.	c #7F4443",
"6_.	c #814645",
"7_.	c #84494A",
"8_.	c #7D4444",
"9_.	c #7E4645",
"0_.	c #814C48",
"a_.	c #88534F",
"b_.	c #834D49",
"c_.	c #804A48",
"d_.	c #825254",
"e_.	c #A48D95",
"f_.	c #ACA2AD",
"g_.	c #C3B9C0",
"h_.	c #A99095",
"i_.	c #955D5C",
"j_.	c #8E4F4C",
"k_.	c #8B5152",
"l_.	c #86494D",
"m_.	c #80443D",
"n_.	c #7F423A",
"o_.	c #844841",
"p_.	c #8E5249",
"q_.	c #905449",
"r_.	c #8D5447",
"s_.	c #8B5346",
"t_.	c #885046",
"u_.	c #874E47",
"v_.	c #874C48",
"w_.	c #864C49",
"x_.	c #8D5350",
"y_.	c #89504D",
"z_.	c #824D47",
"A_.	c #915C54",
"B_.	c #8E6563",
"C_.	c #A2868D",
"D_.	c #BDB3BB",
"E_.	c #C8C0C4",
"F_.	c #9C7B7B",
"G_.	c #905A56",
"H_.	c #995F5B",
"I_.	c #925854",
"J_.	c #773A37",
"K_.	c #733834",
"L_.	c #814643",
"M_.	c #864B48",
"N_.	c #8B5551",
"O_.	c #814C47",
"P_.	c #88534D",
"Q_.	c #8E5852",
"R_.	c #854B44",
"S_.	c #82473F",
"T_.	c #854A42",
"U_.	c #7D4037",
"V_.	c #7C3F36",
"W_.	c #81453A",
"X_.	c #81463D",
"Y_.	c #783F35",
"Z_.	c #6D382D",
"`_.	c #653026",
" :.	c #7A433B",
".:.	c #7C443D",
"+:.	c #7C433D",
"@:.	c #7A433E",
"#:.	c #77413D",
"$:.	c #75403C",
"%:.	c #74403C",
"&:.	c #6D3934",
"*:.	c #6B3933",
"=:.	c #75453B",
"-:.	c #7F4C43",
";:.	c #6E3936",
">:.	c #6A3D41",
",:.	c #A39CA1",
"':.	c #9A9C9F",
"):.	c #836866",
"!:.	c #754D46",
"~:.	c #744139",
"{:.	c #78403B",
"]:.	c #773E3D",
"^:.	c #763C3D",
"/:.	c #753938",
"(:.	c #763836",
"_:.	c #793E3B",
"::.	c #793E3D",
"<:.	c #7E4341",
"[:.	c #7B413E",
"}:.	c #7E4742",
"|:.	c #844F4A",
"1:.	c #864E4B",
"2:.	c #743736",
"3:.	c #7C423F",
"4:.	c #824A47",
"5:.	c #804643",
"6:.	c #804341",
"7:.	c #814542",
"8:.	c #773836",
"9:.	c #7A3B39",
"0:.	c #793B38",
"a:.	c #804443",
"b:.	c #854B49",
"c:.	c #824847",
"d:.	c #834948",
"e:.	c #8A5853",
"f:.	c #8C5A56",
"g:.	c #8A5959",
"h:.	c #A28A92",
"i:.	c #B2AAB3",
"j:.	c #C3BCC5",
"k:.	c #A28D91",
"l:.	c #96635C",
"m:.	c #9A5F56",
"n:.	c #915653",
"o:.	c #834642",
"p:.	c #874B47",
"q:.	c #884B46",
"r:.	c #8D5448",
"s:.	c #895446",
"t:.	c #864F45",
"u:.	c #884F4A",
"v:.	c #8E5550",
"w:.	c #8A5049",
"x:.	c #8C544D",
"y:.	c #8B605F",
"z:.	c #9F8189",
"A:.	c #BCB3BB",
"B:.	c #C5C0C3",
"C:.	c #997A79",
"D:.	c #955B57",
"E:.	c #965B57",
"F:.	c #8A4E4A",
"G:.	c #844744",
"H:.	c #7C3D3B",
"I:.	c #723733",
"J:.	c #7E4440",
"K:.	c #8B5550",
"L:.	c #824D46",
"M:.	c #905953",
"N:.	c #844B43",
"O:.	c #80463E",
"P:.	c #864B42",
"Q:.	c #854940",
"R:.	c #7F4138",
"S:.	c #81433A",
"T:.	c #84473E",
"U:.	c #743E33",
"V:.	c #673126",
"W:.	c #7E453D",
"X:.	c #7F443C",
"Y:.	c #7F443D",
"Z:.	c #7D433E",
"`:.	c #79423E",
" <.	c #703935",
".<.	c #6D3832",
"+<.	c #804E42",
"@<.	c #895449",
"#<.	c #76413D",
"$<.	c #724447",
"%<.	c #ACA6AA",
"&<.	c #A1A3A7",
"*<.	c #856967",
"=<.	c #784E46",
"-<.	c #784339",
";<.	c #7D423D",
"><.	c #7C4141",
",<.	c #793D3E",
"'<.	c #783938",
")<.	c #793A35",
"!<.	c #7C413E",
"~<.	c #7E4240",
"{<.	c #824644",
"]<.	c #824543",
"^<.	c #814543",
"/<.	c #8B5350",
"(<.	c #793E3C",
"_<.	c #783B38",
":<.	c #7E4340",
"<<.	c #834844",
"[<.	c #834643",
"}<.	c #844946",
"|<.	c #7A3D3A",
"1<.	c #7D403D",
"2<.	c #7C403C",
"3<.	c #8B514F",
"4<.	c #89504F",
"5<.	c #8A5554",
"6<.	c #8B5B53",
"7<.	c #8E5D58",
"8<.	c #8C5B5B",
"9<.	c #A0878F",
"0<.	c #B4ACB5",
"a<.	c #C2BCC5",
"b<.	c #9F8C8F",
"c<.	c #96655B",
"d<.	c #9E6359",
"e<.	c #915753",
"f<.	c #7D403B",
"g<.	c #894C49",
"h<.	c #814541",
"i<.	c #8B4F45",
"j<.	c #8E5449",
"k<.	c #8D5348",
"l<.	c #8B5247",
"m<.	c #895347",
"n<.	c #8A534A",
"o<.	c #895049",
"p<.	c #8C534C",
"q<.	c #925952",
"r<.	c #955C55",
"s<.	c #8E554E",
"t<.	c #733C38",
"u<.	c #753931",
"v<.	c #7D4F4C",
"w<.	c #876B70",
"x<.	c #ACA2AA",
"y<.	c #C3BDC1",
"z<.	c #8F7271",
"A<.	c #7E4842",
"B<.	c #814841",
"C<.	c #854943",
"D<.	c #884A45",
"E<.	c #864742",
"F<.	c #81443F",
"G<.	c #8C514B",
"H<.	c #90554F",
"I<.	c #965D56",
"J<.	c #88514A",
"K<.	c #824C44",
"L<.	c #8C554E",
"M<.	c #7C423A",
"N<.	c #7E433A",
"O<.	c #8C4E45",
"P<.	c #905148",
"Q<.	c #8D4E43",
"R<.	c #83473D",
"S<.	c #80463B",
"T<.	c #834C40",
"U<.	c #7A4337",
"V<.	c #773C32",
"W<.	c #80433B",
"X<.	c #7F463F",
"Y<.	c #7F4742",
"Z<.	c #7C4440",
"`<.	c #78403C",
" [.	c #804A43",
".[.	c #8A564B",
"+[.	c #905A4F",
"@[.	c #7D4642",
"#[.	c #895B5E",
"$[.	c #B7B0B5",
"%[.	c #A7A9AE",
"&[.	c #7B5C5C",
"*[.	c #6C3E37",
"=[.	c #793F36",
"-[.	c #834741",
";[.	c #854748",
">[.	c #864745",
",[.	c #884843",
"'[.	c #874D4A",
")[.	c #874C49",
"![.	c #854A47",
"~[.	c #834845",
"{[.	c #864A48",
"][.	c #884D4A",
"^[.	c #905954",
"/[.	c #80413F",
"([.	c #804440",
"_[.	c #844844",
":[.	c #7E413E",
"<[.	c #945754",
"[[.	c #955855",
"}[.	c #915451",
"|[.	c #8E524F",
"1[.	c #925855",
"2[.	c #7E4744",
"3[.	c #7C4542",
"4[.	c #7F4845",
"5[.	c #814A47",
"6[.	c #7E4846",
"7[.	c #7B4645",
"8[.	c #82524A",
"9[.	c #7C4B47",
"0[.	c #895857",
"a[.	c #8C747B",
"b[.	c #AFA8B1",
"c[.	c #B9B4BC",
"d[.	c #9C888D",
"e[.	c #8F5F54",
"f[.	c #975B51",
"g[.	c #8C514E",
"h[.	c #824A48",
"i[.	c #733631",
"j[.	c #804340",
"k[.	c #7B3E3B",
"l[.	c #6F3732",
"m[.	c #73372F",
"n[.	c #7D504C",
"o[.	c #8C6F73",
"p[.	c #B5ABB2",
"q[.	c #C3BCC0",
"r[.	c #917371",
"s[.	c #8E544D",
"t[.	c #864A44",
"u[.	c #8B4E49",
"v[.	c #90544F",
"w[.	c #8F554F",
"x[.	c #844E46",
"y[.	c #8C564E",
"z[.	c #8A5048",
"A[.	c #8B4B41",
"B[.	c #894A3E",
"C[.	c #8A4B41",
"D[.	c #8C5347",
"E[.	c #864E42",
"F[.	c #83453C",
"G[.	c #81463E",
"H[.	c #80463F",
"I[.	c #824943",
"J[.	c #824A46",
"K[.	c #864F47",
"L[.	c #8E564B",
"M[.	c #763E3A",
"N[.	c #835558",
"O[.	c #B3ADB1",
"P[.	c #ADAFB3",
"Q[.	c #7F5E5D",
"R[.	c #854848",
"S[.	c #874745",
"T[.	c #894944",
"U[.	c #884C49",
"V[.	c #894E4B",
"W[.	c #8D514E",
"X[.	c #884E4A",
"Y[.	c #8F524F",
"Z[.	c #884A48",
"`[.	c #8B514D",
" }.	c #864A47",
".}.	c #8C4F4C",
"+}.	c #8A4D4A",
"@}.	c #925653",
"#}.	c #844D4A",
"$}.	c #854E4B",
"%}.	c #814C4B",
"&}.	c #7E4C48",
"*}.	c #84544D",
"=}.	c #7C636A",
"-}.	c #ACA4AD",
";}.	c #B19EA1",
">}.	c #90554B",
",}.	c #7D423E",
"'}.	c #793D38",
")}.	c #7D413E",
"!}.	c #8A5249",
"~}.	c #905750",
"{}.	c #854C45",
"]}.	c #844B44",
"^}.	c #6C342E",
"/}.	c #71352D",
"(}.	c #793F38",
"_}.	c #8F7276",
":}.	c #BBB0B8",
"<}.	c #C3BCBF",
"[}.	c #927372",
"}}.	c #935651",
"|}.	c #8B4F4A",
"1}.	c #945B54",
"2}.	c #8D564F",
"3}.	c #8D534B",
"4}.	c #86473D",
"5}.	c #8A4B3F",
"6}.	c #8F4F45",
"7}.	c #884A3F",
"8}.	c #7F4338",
"9}.	c #8D5549",
"0}.	c #884A41",
"a}.	c #81453C",
"b}.	c #81453E",
"c}.	c #844B45",
"d}.	c #834D41",
"e}.	c #8A5347",
"f}.	c #7F4F51",
"g}.	c #B0AAAE",
"h}.	c #B0B2B6",
"i}.	c #815F5F",
"j}.	c #75433C",
"k}.	c #874742",
"l}.	c #854747",
"m}.	c #8A4A44",
"n}.	c #905551",
"o}.	c #925652",
"p}.	c #8A504C",
"q}.	c #824B46",
"r}.	c #955754",
"s}.	c #955956",
"t}.	c #824B48",
"u}.	c #87504D",
"v}.	c #85504F",
"w}.	c #7F4E49",
"x}.	c #85554F",
"y}.	c #8F5E59",
"z}.	c #6E555C",
"A}.	c #B9B4BD",
"B}.	c #BFABAE",
"C}.	c #7E4E44",
"D}.	c #8B5147",
"E}.	c #834B49",
"F}.	c #804540",
"G}.	c #7E423D",
"H}.	c #7F423F",
"                                                                                                                                                                                                                                                                                                                                                                                                ",
"                                                                                                                                                                                    .  +  @  #  $  %  &  *  =  -  ;  >  ,  '  )  !  ~  {  ]  ^  /  (  _  :  <  [                                                                                                                                ",
"}  |  1  2  3  4  5  6  7  8  9  0  a  b  c  d  e  f  g  h  i  j  k  l  m  n  o  p  q  r  s  t  u  v  w  x  y  z  A  B  C  D  E  F  G  H  I  J  K  L  M  N  O  P  Q  R  S  T  U  V  W  X  Y  Z  `   . .. +. @. #. $. %. &. *. =. -. ;. >. ,. '. ). !. ~. {. ]. ^. /. (. _. :. <. [. }. |. 1. 2. 3. 4. 5. 6. 7. 8. 9. 0. a. b. c. d. c. e. f. g. h. i. j. k. l. m. n. o. p. q. r. s. t. u. v.    ",
"w. x. y. z. A. B. C. D. E. F. G. H. I. J. K. L. M. N. O. P. Q. Q. R. S. T. U. V. W. X. Y. Z. `.  + w. .+ ++ @+ #+ $+ %+ &+ *+ =+ -+ ;+ >+ ,+ '+ )+ !+ ~+ {+ ]+ ^+ /+ (+ _+ :+ :+ <+ [+ }+ |+ 1+ 2+ 3+ 4+ 5+ 6+ 7+ 8+ 9+ 0+ a+ b+ c+ d+ e+ f+ g+ h+ i+ j+ k+ l+ m+ n+ o+ p+ q+ r+ s+ t+ u+ v+ w+ x+ y+ z+ A+ B+ C+ D+ E+ F+ G+ H+ I+ J+ K+ L+ M+ N+ O+ P+ Q+ R+ S+ T+ U+ V+ W+ h+ X+ Y+ Z+ `+    ",
" @ .@ +@ @@ #@ $@ %@ &@ *@ =@ -@ ;@ >@ ,@ '@ )@ !@ ~@ {@ ]@ ^@ /@ (@ _@ :@ <@ <@ [@ }@ |@ 1@ 2@ 3@ 4@ 5@ 6@ 7@ 8@ 9@ 0@ a@ b@ c@ d@ e@ f@ g@ h@ i@ j@ k@ l@ m@ n@ o@ p@ q@ r@ s@ t@ u@ v@ w@ x@ y@ z@ A@ B@ C@ D@ E@ F@ G@ H@ I@ J@ K@ L@ M@ N@ O@ P@ Q@ R@ S@ T@ U@ V@ W@ X@ Y@ Z@ `@  # .# +# @# {+ ## $# %# &# *# =# -# ;# ># ,# '# )# !# ~# {# ]# ^# /# (# _# :# <# <# [# }# |# 1# 2# 3#    ",
"4# 5# 6# 7# 8# 9# 0# a# b# c# b# d# e# f# g# h# i# j# k# l# m# n# o# p# q# r# n# s# t# u# v# w# x# y# z# A# B# C# D# E# F# G# H# I# J# K# L# M# N# O# P# Q# R# S# T# U# V# W# X# Y# Z# `#  $ .$ +$ @$ #$ $$ %$ &$ *$ =$ -$ ;$ >$ ,$ '$ )$ !$ ~$ {$ ]$ ^$ /$ ($ _$ :$ <$ [$ }$ |$ 1$ 2$ 3$ 4$ 5$ 6$ 7$ 8$ 9$ 0$ a$ b$ c$ d$ e$ f$ g$ e$ h$ i$ j$ k$ l$ m$ n$ o$ p$ q$ r$ s$ t$ u$ u$ v$ w$ x$    ",
"y$ z$ A$ B$ C$ D$ E$ F$ G$ G$ H$ I$ J$ K$ L$ M$ N$ O$ P$ Q$ R$ S$ T$ U$ V$ W$ X$ Y$ Z$ `$  % .% +% @% #% $% %% &% *% =% -% ;% >% ,% '% )% !% ~% {% ]% ^% /% (% _% :% <% [% }% |% 1% 2% 3% 4% 5% 6% 7% 8% 9% 0% a% b% c% d% e% f% g% h% i% j% k% l% m% n% o% p% q% r% s% t% u% v% w% x% y% z% A% B% C% D% E% F% G% H% I% J% K% L% M% N% O% P% Q% R% S% T% U% V% W% X% Y% Z% `%  & .& +& @& #&    ",
"#% $& T$ V$ %& && *& =& -& ;& >& ,& '& )& !& ~& {& ]& ^& /& (& _& :& <& [& }& |& 1& 2& 3& 4& 5& 6& 7& 8& 9& 0& a& b& c& d& e& f& g& h& i& j& k& l& m& n& o& p& q& r& s& t& u& v& w& x& y& z& z& A& B& C& D& E& F& G& H& I& J& K& L& M& N& O& P& Q& R& S& T& U& V& W& X& Y& Z& `& 1.  * .* +* @* #* $* #* %* &* ** =* -* ;* >* ,* '* )* !* ~* {* ]* ^* /* (* _* :* <* [* }* |* 1* <@ 2* 3* 4*    ",
"5* 6* 7* 8* 9* 0* a* b* c* d* e* f* g* h* i* j* k* l* m* n* o* p* q* r* |& [& s* t* u* v* w* x* y* z* A* B* C* D* E* F* G* H* I* J* K* L* M* N* O* P* Q* R* S* T* U* V* W* X* Y* Z* `*  = .= += @= #= $= %= &= *= == -= ;= >= ,= '= )= != ~= {= ]= ^= /= (= _= := <= [= }= |= 1= 2= 3= 4= 5= 6= 7= 8= 9= 0= a= b= c= d= e= f= g= h= i= j= k= l= m= n= o= p= q= r= s= t= u= v= w= x= y= z= A=    ",
"B= C= D= E= F= G= H= I= J= K= L= M= N= O= P= Q= R= ;& S= T= U= V= W= X= Y= Z= `=  - .- +- @- #- $- %- &- &- *- =- -- ;- >- ,- '- )- !- ~- {- ]- ^- /- (- _- :- <- [- }- |- 1- 2- 3- 4- 5- 6- 7- 8- 9- 0- a- b- c- d- e- f- g- h- i- j- f- k- l- m- n- o- p- q- r- s- t- u- v- w- x- y- z- A- B- C- D- E- F- G- H- I- J- K- L- M- N- O- P- Q- R- S- m= Q# T- U- V- W- X- Y- 6@ Z- `-  ; .; +;    ",
"@; #; $; %; &; &; *; =; -; ;; >; ,; '; ); x* !; ~; {; ]; M$ ~; ^; /; (; _; :; <; [; }; |; 1; 2; 3; 4; 5; N$ 6* 6; 7; 8; 9; 0; a; b; c; d; e; f; g; h; i; j; k; l; m; n; o; p; q; g- r; s; t; u; v; w; x; y; z; A; B; C; D; E; F; G; H; D; D; I; J; K; L; M; N; O; P; Q; R; S; T; U; V; W; X; Y; Z; `;  > .> +> @> #> $> %> &> *> => -> ;> >> ,> '> )> !> ~> {> ]> ^> /> (> _> :> <> [> }> |>    ",
"1> 2> 3> 4> 5> 6> 7> 8> 9> 0> a> b> c> d> e> f> g> h> g> i> g> j> k> l> m> n> o> p> q> r> s> t> u> v> w> x> y> z> A> B> C> D> E> F> G> H> I> J> K> L> M> N> O> P> Q> R> S> T> U> V> W> X> Y> Z> `>  , ., +, @, #, $, %, %, &, &, *, =, $, =, -, ;, >, ,, ', ), !, ~, {, ], ^, /, (, _, :, <, [, }, |, 1, 2, 3, 4, 5, 6, 7, 8, 9, 0, a, b, c, d, e, f, g, h, i, R- j, w$ k, l, m, n, o, p, q,    ",
"r, s, t, u, v, w, x, y, z, A, B, C, D, E, F, G, H, I, J, g> K, L, M, N, O, P, Q, R, S, T, x> U, V, .- W, X, Y, Z, +> `,  ' .' +' @' #' $' %' &' *' =' -' ;' >' ,' '' )' !' ~' {' ]' ^' /' (' _' :' <' [' }' |' 1' 2' 3' 4' 3' 3' 5' 6' 7' 8' 9' 9' 0' a' b' c' d' e' f' g' h' i' j' k' l' m' n' o' p' q' r' s' t' u' v' w' x' y' z' A' B' C' &; D' E' F' G' H' I' J' k$ K' L' M' N' O' P' Q'    ",
"R' S' T' U' V' W' X' y, 8> Y' Z' `'  ) .) +) @) #) $) %) e> &) *) =) -) ;) >) ,) ,) ') )) !) ~) W, {) ]) ^) !@ /) () _) :) <) [) }) |) 1) 2) 3) 4) 5) 6) 7) 8) 9) 0) a) b) c) #, d) e) f) 2' g) h) i) j) k) k) k) l) m) n) o) p) q) q) m) r) r) s) t) u) u) 3' v) w) x) y) z) A) B) C) D) E) F) G) H) I) J) K) L) M) N) O) P) Q) R) ^* S) T) U) V) W) X) Y) Z) `)  ! .! K' +! @! #! $! %! &!    ",
"*! =! -! ;! >! ,! '! .- )! !! ~! {! ]! ^! /! (! _! :! <! [! }! |! %- 1! V, 2! 3! 4! 5! 6! 7! 8! 9! 0! a! b! c! d! e! f! g! h! i! j! k! l! m! n! o! p! q! r! s! t! u! v! w! x! y! h) j) k) p) z! A! B! C! C! D! D! D! D! D! D! E! F! F! E! G! G! H! I! I! J! r) u) K! L! M! N! O! P! Q! R! S! T! U! V! W! X! O@ Y! Z! `!  ~ .~ +~ @~ #~ |* $~ %~ &~ *~ =~ =~ -~ ;~ z> >~ ,~ '~ )~ !~ ~~ {~ ]~    ",
"^~ /~ (~ _~ :~ <~ [~ }~ }! |~ 1~ 2~ $) 3~ 4~ 5~ 6~ 7~ 8~ 9~ 0~ a~ b~ c~ d~ e~ f~ g~ h~ i~ j~ k~ l~ m~ n~ o~ p~ q~ r~ :- s~ t~ u~ v~ w~ x~ y~ z~ A~ B~ C~ D~ E~ x! g) h) F~ G~ z! A! B! H~ I~ J~ K~ L~ L~ L~ L~ L~ L~ L~ L~ L~ L~ L~ L~ L~ L~ M~ M~ I~ I~ F! E! N~ O~ P~ Q~ R~ S~ T~ U~ V~ W~ X~ Y~ Z~ `~ z-  { .{ +{ 5= @{ #{ ${ %{ &{ *{ c$ ={ -{ ;{ >{ ,{ '{ ){ !{ ~{ W% {{ ]{ -@ ^{ /{ ({    ",
"_{ :{ <{ Q- [{ }{ [~ |{ 1{ 2{ 3{ 4{ 5{ 6{ 7{ 8{ 9{ 0{ a{ b{ c{ d{ e{ f{ g{ h{ i{ j{ k{ l{ m{ n{ o{ p{ q{ r{ s{ t{ u{ v{ w{ x{ y{ z{ A{ B{ C{ D{ E{ F{ G{ H{ I{ J{ z! K{ L{ B! H~ I~ L~ M{ M{ M{ M{ N{ O{ P{ Q{ O{ O{ O{ O{ O{ O{ O{ O{ O{ O{ O{ O{ R{ R{ N{ L~ L~ L~ S{ T{ U{ V{ W{ X{ Y{ Z{ `{  ] .] +] @] #] $] %] &] *] =] -] ;] >] ,] '] )] !] ~] {] ]] ^] /] (] _] :] :] <] [] k& }] |]    ",
"1] 2] 3] 4] 5] 6] 7] 8] 9] 0] a] b] c] c] d] e] f] g] h] 9, i] j] k] l] )~ m] n] o] p] q] r] s] t] )# u] v] w] x] y] z] A] B] C] D] E] F] G] H] I] J] I{ K] G~ L] D! J~ J~ I~ L~ M{ N{ O{ O{ O{ O{ O{ O{ O{ O{ M] M] M] M] M] M] M] M] M] M] M] O{ O{ O{ O{ O{ O{ O{ M{ N] O] P] Q] R] S] T] U] V] W] X] Y] Z] `]  ^ .^ +^ @^ #^ @~ $^ %^ &^ *^ =^ -{ -^ ;^ >^ ,^ '^ 3* )^ !^ !^ ~^ {^ ]^ ^^    ",
"/^ (^ _^ :^ <^ [^ }^ |^ 1^ 2^ 3^ a, 4^ 4^ 5^ 6^ 7^ 8^ y' 9^ 0^ P# a^ b^ c^ d^ e^ f^ g^ h^ i^ j^ k^ l^ m^ n^ o^ p^ q^ r^ s^ t^ u^ v^ w^ x^ y^ v! z^ A^ B^ A! D! I~ L~ M{ M{ N{ O{ O{ O{ O{ O{ M] M] M] M] M] M] M] M] M] M] M] M] M] M] M] M] M] M] M] M] M] M] M] O{ O{ C^ D^ E^ F^ G^ H^ I^ J^ K^ L^ M^ N^ O^ P^ Q^  ^ R^ S^  ~ @~ T^ U^ V^ W^ H' X^ Y^ Z^ `^  / ./ +/ @/ )^ #/ &> $/ %/ :@    ",
"&/ */ =/ -/ ;/ >/ ,/ #~ &{ '/ )/ !/ ~/ ~{ {/ ]/ o& ^/ // (/ _/ :/ </ [/ }/ |/ ++ 1/ 2/ 3/ 4/ <- 5/ 6/ 7/ 8/ 9/ 0/ a/ b/ c/ d/ e/ f/ g/ h/ i/ J{ B^ C! D! I~ L~ M{ N{ O{ O{ O{ O{ M] M] M] M] M] M] M] M] M] M] M] M] M] M] M] M] M] M] M] M] M] M] M] M] M] M] M] M] M] P{ j/ k/ l/ m/ n/ o/ p/ q/ r/ s/ t/ u/ v/ w/ x/ y/ z/ A/ B/ C/ D/ E/ F/ G/ H/ I/ J/ K/ L/ M/ N/ O/ P/ Q/ R/ S/ T/ U/    ",
"V/ V/ W/ X/ Y/ Z/ `/  ( .( +( @( #( $( %( &( *( =( -( ;( >( ,( '( )( !( ~( {( ]( ^( /( (( _( :( <( [( }( |( 1( 2( 3( 4( 5( 6( 7( 8( 9( 0( a( b( c( d( d( P{ P{ P{ Q{ M] M] M] M] M] M] M] M] M] M] M] M] M] M] M] M] M] M] M] M] M] M] M] M] M] M] M] M] M] M] M] M] M] P{ C^ j/ e( f( g( h( i( j( k( l( m( n( o( p( q( r( s( t( u( v( v( w( x( y( z( A( B( C( D( E( F( G( H( I( J( K( L( M(    ",
"N( O( P( Q( R( S( T( U( V( W( X( Y( Z( `(  _ ._ +_ @_ #_ $_ %_ &_ *_ =_ -_ ;_ >_ >_ ,_ '_ )_ !_ ~_ {_ ]_ ^_ /_ (_ __ :_ <_ [_ }_ 9( |_ 1_ 2_ 3_ j/ M{ P{ O{ O{ M] M] M] M] M] M] M] M] M] M] M] M] M] M] M] M] M] M] M] M] M] M] M] M] M] M] M] M] M] M] M] M] M] M] M] M] P{ C^ 4_ 5_ 6_ 7_ 8_ 9_ 0_ a_ b_ {_ c_ d_ e_ f_ g_ h_ i_ j_ k_ l_ m_ n_ o_ p_ q_ r_ s_ #_ t_ u_ v_ w_ x_ y_ z_ A_    ",
"B_ C_ D_ E_ F_ G_ H_ I_ J_ K_ K_ L_ M_ N_ O_ P_ Q_ R_ S_ T_ U_ V_ W_ X_ Y_ Z_ `_  : .: +: @: #: $: %: &: *: =: -: ;: >: ,: ': ): !: ~: {: D^ 3_ C^ P{ P{ ]: M] M] M] M] M] M] M] M] M] M] M] M] M] M] M] M] M] M] M] M] M] M] M] M] M] M] M] M] M] M] M] M] M] M] M] M] M] M] P{ j/ ^: /: (: _: :: <: [: }: |: 1: 2: 3: 4: 5: 6: 7: 8: 9: 0: a: b: c: d: e: f: g: h: i: j: k: l: m: n: o: p:    ",
"q: r: s: t: u: s: v: w: w: x: y: z: A: B: C: D: E: F: G: H: I: J: K: L: M: N: O: P: Q: R: S: T: U: V: W: X: Y: Z: `:  < .< +< @< #< $< %< 4_ C^ M{ P{ P{ M] M] M] M] M] M] M] M] M] M] M] M] M] M] M] M] M] M] M] M] M] M] M] M] M] M] M] M] M] M] M] M] M] M] M] M] M] M] O{ P{ C^ N] &< *< =<  < -< ;< >< ,< '< )< !< ~< {< ]< ^< /< (< _< :< << [< }< |< 1< 2< 3< 4< 5< 6< 7< 8< 9< 0< a<    ",
"b< c< d< e< f< g< h< i< j< k< l< m< n< o< p< q< r< s< t< u< v< w< x< y< z< A< B< C< D< E< F< G< H< I< J< K< L< M< N< O< P< Q< R< S< T< 4_ d( P{ P{ M] M] M] M] M] M] M] M] M] M] M] M] O{ P{ P{ P{ P{ P{ P{ P{ P{ P{ P{ P{ P{ P{ P{ P{ P{ P{ P{ P{ P{ M] U< M] M] M] M] M] O{ P{ P{ 3_ V< W< X< Y< Z< `<  [ .[ +[ @[ #[ $[ %[ &[ *[ =[ -[ ;[ >[ ,[ '[ )[ ![ ~[ {[ ][ ^[ /[ ([ _[ :[ <[ [[ }[    ",
"|[ 1[ 2[ 3[ 4[ 5[ 6[ 7[ 8[ 9[ 0[ a[ b[ c[ d[ e[ f[ g[ h[ i[ j[ k[ l[ m[ n[ o[ p[ q[ r[ s[ t[ u[ v[ w[ x[ y[ z[ A[ B[ C[ D[ E[ F[ M{ P{ P{ O{ M] M] M] M] M] M] M] M] M] M] M] M] M] M] M] M] P{ P{ P{ C^ M{ M{ C^ M{ C^ C^ C^ C^ M{ M{ P{ M{ M{ M{ M{ P{ P{ P{ P{ P{ P{ M] M] M] M] M{ G[ A! H[ I[ J[ K[ L[ M[ N[ O[ P[ Q[ R[ S[ T[ U[ V[ W[ X[ Y[ Z[ `[  } |+ .} +} @} #} $} %} &} *} =} -}    ",
";} >} ,} '} )} !} ~} {} ]} ^} /} (} _} :} <} [} }} |} 1} 2} 3} 4} 5} 6} 7} 8} 9} 0} a} b} c} d} e} f} g} h} i} j} k} l} H~ d( M{ O{ O{ M] M] M] M] M] M] M] M] M] M] M] M] M] M] M] M] O{ O{ P{ C^ j/ 4_ d( d( d( d( m} m} m} m} m} d( M{ d( d( d( C^ C^ C^ M{ n} P{ P{ O{ M] M] O{ L~ L{ o} p} q} r} s} 0/ t} u} v} w} x} y} z} A} B} C} D} E} F} G} -} H} 9$ I} J} K} L} M} .@ N} O} P} Q}    ",
"R} S} T} U} V} W} X} Y} Z} `} D,  | .| +| @| #| $| %| &| *| =| -| L- ;| >| ,| '| )| !| ~| {| ]| ^| /| (| _| :| k) B! I~ L~ O{ O{ M] M] M] M] M] M] M] M] M] M] M] M] M] M] M] O{ O{ O{ O{ M{ M{ m} T< <| [| H~ H~ J~ J~ H~ H~ J~ D! F! I~ L~ I~ L~ M{ L~ L~ M{ N{ O{ O{ O{ O{ O{ L~ D! o} }| || 1| 2| 3| 4| 5| 6| 7| 8| 9| 0| a| x' b| c| d| e| f| g| h| i| j| k| l| m| n| o| p| q| r| s| t|    ",
"u| v| w| x| y| z| A| B| C| D| E| F| G| H| I| J| K| L| M| N| O| P| Q| R| S| T| U| V| W| X| Y| Z| `|  1 .1 +1 r) B! I~ L~ N{ O{ M] M] M] M] M] M] M] M] M] M] M] M] M] M] O{ O{ O{ N{ M{ L~ L~ L~ @1 #1 #< $1 A! K{ k) k) o} K{ o} q) m) n) N~ G! F! I~ L~ L~ N{ L~ N{ R{ R{ L~ L~ D! O~ %1 &1 *1 =1 -1 ;1 >1 ,1 '1 8| )1 !1 ~1 {1 ]1 ^1 /1 (1 _1 :1 <1 [1 }1 ~! l{ |1 11 21 31 41 51 61 71 81    ",
"91 01 a1 b1 c1 d1 e1 f1 g1 h1 i1 j1 k1 l1 m1 n1 o1 p1 q1 r1 s1 t1 u1 v1 w1 x1 y1 B& z1 A1 B1 D; C1 D1 4' m) N~ I~ N{ O{ O{ M] M] M] M] M] M] M] M] M] M] M] M] M] O{ O{ O{ N{ L~ I~ F! G! B! I~ E1 F1 R~ G1 j} o/ g) H1 I1 I1 I1 3' J1 K1 s) r) L1 I! H! E! F! F! F! G! G! N~ O~ k) i) M1 N1 O1 P1 Q1 R1 S1 T1 U1 V1 W1 X1 Y1 Z1 `1  2 .2 +2 @2 #2 $2 %2 &2 *2 =2 }1 -2 ;2 >2 ,2 *% '2 )2 !2    ",
"~2 {2 ]2 ') 2! ^2 /2 (2 _2 :2 <2 [2 }2 |2 12 22 32 42 52 62 72 82 92 02 a2 b2 c2 d2 e2 f2 g2 h2 i2 j2 r) N~ I~ R{ O{ O{ M] M] M] M] M] M] M] M] M] M] M] M] O{ O{ O{ R{ M~ I~ J~ N~ p) k) k2 F! l2 m2 n2 o2 p2 H{ :' q2 r2 s2 t2 v) u2 8' 8' v2 3' w2 K1 i) x2 m) m) x2 K1 K1 j) I1 y2 z2 A; A2 B2 C2 D2 E2 d% #$ F2 G2 H2 I2 J2 K2 L2 M2 N2 O2 P2 Q2 R2 1! S2 T2 U2 V2 W2 X2 Y2 Z2 `2  3 .3    ",
"+3 @3 #3 $3 %3 &3 *3 =3 -3 ;3 >3 ,3 '3 )3 !3 ~3 {3 ]3 ^3 /3 (3 _3 :3 <3 [3 }3 |3 13 23 33 43 53 63 73 I! F! M~ O{ O{ M] M] M] M] M] M] M] M] M] M] M] O{ O{ O{ R{ N{ M~ F! N~ o) r) }| 83 2' 93 03 a3 b3 c3 d3 e3 f3 g3 h3 i3 j3 k3 l3 m3 c) n3 o3 c' p3 [' q3 r3 s3 2' v) M1 t3 u3 o3 v3 w3 k- x3 y3 z3 A3 B3 C3 D3 E3 F3 G3 H3 I3 J3 K3 L3 M3 N3 O3 P3 Q3 R3 S3 3{ T3 U3 V3 W3 X3 Y3 Z3 `3    ",
" 4 .4 +4 +4 @4 #4 $4 %4 &4 *4 =4 -4 ;4 >4 ,4 '4 )4 !4 ~4 {4 ]4 ^4 /4 (4 _4 :4 <4 [4 }4 |4 14 24 u) 34 F! M~ O{ O{ M] M] M] M] M] M] M] M] M] M] M] O{ O{ O{ R{ M~ I~ G! 44 r) }| 7' b' 54 64 74 84 94 04 a4 b4 V~ c4 d4 e4 f4 g4 h4 9) i4 j4 i4 k4 l4 m4 n4 o4 p4 q4 n3 d' r4 r4 s4 O1 t4 u4 v4 w4 x4 y4 z4 1% A4 B4 C4 D4 E4 F4 G4 H4 I4 J4 K4 L4 M4 N4 $4 O4 P4 1{ Q4 R4 S4 T4 U4 V4 W4 X4    ",
"Y4 Z4 `4  5 .5 +5 @5 #5 $5 %5 &5 *5 =5 -5 ;5 >5 ,5 '5 )5 !5 ~5 {5 ]5 ^5 /5 (5 _5 v4 :5 ]' d) <5 k) E! L~ R{ O{ M] M] M] M] M] M] M] M] M] M] O{ O{ O{ R{ R{ [5 G! I! t) }5 |5 15 25 35 45 55 65 75 85 95 05 a5 8- b5 c5 d5 e5 O; f5 g5 h5 i5 j5 k5 l5 m5 n5 o5 p5 q5 r5 s5 t5 u5 v5 w5 x5 y5 z5 A5 B5 C5 D5 [% E5 F5 G5 H5 I5 J5 K5 L5 M5 N5 O5 P5 Q5 R5 S5 T5 U5 V5 W5 X5 Y5 71 m{ Z5 `5  6    ",
".6 +6 @6 #6 $6 %6 &6 *6 =6 -6 ;6 h~ >6 ,6 '6 )6 !6 ~6 {6 ]6 ^6 /6 (6 3% _6 :6 <6 [6 }6 |6 8' l) I! I~ N{ O{ M] M] M] M] M] M] M] M] M] M] O{ O{ O{ R{ M~ F! N~ 73 u) 16 a' 26 36 46 56 66 76 86 96 06 a6 b6 c6 d6 m; e6 f6 g6 h6 i6 j6 k6 l6 m6 n6 o6 p6 q6 r6 s6 t6 u6 v6 w6 x6 y6 z6 A6 B6 C6 D6 E6 F6 G6 H6 I6 R| J6 K6 L6 M6 N6 f, O6 P6 Q6 R6 S6 T6 U6 V6 W6 X6 Y6 Z6 `6  7 .7 +7 @7 #7    ",
"$7 %7 &7 *7 =7 *7  5 -7 ;7 >7 ,7 '7 )7 !7 Q% (~ ~7 {7 ]7 ^7 /7 (7 _7 :7 <7 [7 Q1 }7 ,, |7 +1 L1 F! L~ O{ O{ M] M] M] M] M] M] M] M] M] O{ O{ O{ R{ M~ G! 44 s) 17 27 37 47 57 67 77 '' 87 97 07 a7 b7 c7 d7 e7 f7 [- g7 h7 i7 j7 k7 l7 m7 n7 o7 N> p7 q7 r7 s7 s7 t7 u7 v7 w7  = x7 Z* y7 z7 A7 C5 B7 C7 D7 E7 F7 G7 H7 F5 I7 J7 K7 L7 M7 N7 O7 P7 Q7 R7 S7 T7 U7 V7 W7 X7 Y7 Z7 Z6 W6 `7 `6    ",
" 8 i{ .8 .8 +8 @8 #8 $8 %8 &8 &8 *8 =8 -8 ;8 >8 ,8 '8 )8 !8 ~8 {8 ]8 ^8 /8 y5 (8 _8 :8 16 i) n) I~ N{ O{ M] M] M] M] M] M] M] M] M] M] O{ R{ R{ I~ G! L1 K1 <8 [8 k3 }8 |8 18 28 38 48 58 68 78 88 98 08 a8 b8 c8 M@ d8 e8 f8 g8 h8 i8 j8 C@ k8 l8 m8 u} n8 o8 p8 q8 r8 s8 t8 u8 v8 w8 x8 y8 z8 A8 B8 C8 D8 E8 F8 G8 >/ H8 I8 J8 K8 L8 M8 N8 O8 P8 Q8 R8 S8 T8 U8 V8 W8 X8 Y8 Z8 `8  9 .9 +9    ",
"@9 #9 $9 %3 @4 %9 &9 *9 =9 -9 ;9 e{ >9 ,9 '9 )9 !9 ~9 {9 ]9 ^9 /9 (9 _9 :9 <9 [9 }9 |9 }| p) F! N{ O{ M] M] M] M] M] M] M] M] M] M] O{ O{ L~ I~ G! L1 19 24 29 39 49 59 69 79 89 99 09 a9 b9 c9 d9 e9 f9 g9 h9 i9 j9 '$ k9 l9 m9 n9 o9 o9 p9 q9 r9 s9 t9 u9 v9 w9 x9 y9 z9 A9 B9 C9 D9 E9 F9 G9 H9 I9 J9 K9 L9 M9 N9 O9 P9 Q9 R9 S9 )@ T9 U9 V9 W9 X9 Y9 Z9 `9  0 .0 +0 @0 #0 $0 %0 &0 *0 =0    ",
"~2 -0 ;0 >0 >0 ,0 '0 )0 !0 ~0 {0 ]0 *2 {0 ^0 /0 (0 _0 :0 <0 [0 }0 |0 10 20 30 40 50 60 K1 N~ I~ O{ O{ M] M] M] M] M] M] M] M] M] O{ O{ N{ I~ E! n) 19 24 70 80 90 00 a0 b0 c0 d0 e0 f0 g0 h0 i0 j0 k0 l0 m0 n0 o0 p0 q0 r0 p& s0 t0 u0 v0 w0 x0 y0 z0 A0 B0 C0 D0 E0 F0 G0 G0 H0 I0 J0 K0 L0 M0 N0 O0 P0 Q0 R0 S0 ;; T0 U0 V0 W0 X0 Y0 Z0 `0  a .a +a t* @a #a $a %a &a *a =a -a -a ;a >a ,a    ",
"'a )a !a *8 ~a {a ]a ^a /a (a _a :a <a [a }a |a 1a 2a 3a 4a 5a 6a 7a 8a @= 9a 0a =, aa l) F! N{ O{ M] M] M] M] M] M] M] M] M] O{ O{ N{ L~ E! n) K1 ba ca da g2 ea fa ga ha ia ja ka la ma na oa pa qa ra sa ta ua va wa xa ~@ ya za Aa Ba Ca Da Ea Fa Ga Ha Ia v@ Ja Ja Ka La Ma Na Oa Pa Qa Qa Ra N9 Sa Ta W, a> Ua Va Wa L= Xa Ya t= Za `a  b .b +b %- @b #b $b %b &b *b =b -b ;b Y7 >b ,b    ",
"'b V} )b !b ~b {b ]b ^b /b (b 7> 7> _b :b <b |2 [b }b |b 1b 2b 3b 4b 5b 6b g- 45 7b 5' p) I~ R{ O{ M] M] M] M] M] M] M] M] M] O{ R{ M{ I~ O~ r) }| 8b 35 =1 9b 79 0b ab bb cb db eb fb gb hb ib jb kb lb mb nb ob {@ pb qb rb sb tb ub vb wb xb xb yb zb Ab Bb Cb Db {5 Eb Fb Gb Hb Ib Jb Kb Lb vb Mb Nb Ob Pb Qb 7> Rb Sb Tb Ub Vb Wb Xb Yb Zb `b  c .c R2 +c @c #c $c %c &c *c &c =c -c ;c    ",
">c ,c 'c )c !c ~c {c ]c S% ^c /c (c _c :c <c [c }c |c 1c 2c 3c 4c 5c 6c 7c 8c *1 .1 J1 O~ I~ O{ M] M] M] M] M] M] M] M] M] O{ O{ N{ L~ E! n) K1 9c 0c ac bc e5 cc dc (5 ec fc A8 z@ gc hc ic jc kc lc mc nc oc pc rb qc rc sc tc uc vc wc xc yc zc Ac Bc Cc Dc Ec Ec Fc Gc Hc Ic Jc Kc {/ Lc Mc Nc ,~ -^ Oc Pc Qc Rc >! Sc Tc Uc Vc Wc Xc Yc Zc `c 7|  d .d +d  & @d #d F% $d %d &d +d *d =d    ",
"-d ;d >d ,d 'd )d !d ~d {d ]d ^d /d (d _d :d <d [d }d |d 1d 2d 3d 4d 5d 6d 7d y2 h) k) J~ L~ O{ M] M] M] M] M] M] M] M] M] O{ Q{ M{ H~ 8d A^ I{ 9d 0d ad bd cd dd ed fd gd hd id jd kd ld md nd od pd qd rd sd td ud vd wd xd yd zd Ad Bd Cd Dd Ed Fd Gd Hd Id Jd Kd Ld Md Nd Od Pd E+ Qd Rd Sd $} Td Ud Vd Wd Xd Yd Zd `d  e .e +e @e #e $e %e &e *e =e -e ;e >e ,e 'e )e !e ~e {e ]e ^e /e    ",
"(e _e :e :e <e [e [e }e |e 1e 2e 3e 4e 5e 6e 7e 8e 9e 0e ae be ce de ee fe ge he ie je G[ ke P{ M] M] M] M] M] M] M] M] O{ P{ M{ d( G[ C[ le me ne oe pe qe re se te ue ve we xe ye ze Ae Be Ce De Ee Fe Ge He Ie Je Ke Le Me Ne Oe Pe Qe Re Se Te Ue Ve We Xe Ye Ze `e We  f .f +f @f #f $f %f &f *f =f -f ;f >f ,f 'f )f !f R( ~f {f ]f g[ ^f /f (f _f :f <f [f }f |f 1f V( 2f 3f 4f 5f 6f    ",
"7f Y[ 8f 9f 0f af bf cf df ef ff gf hf if jf kf lf mf nf of pf qf rf sf tf uf vf 7_ wf xf 3_ P{ P{ M] M] M] M] M] M] M] P{ P{ C^ yf e( O] zf Af Bf Cf Df Ef Ff Gf Hf If Jf Kf Lf Mf Nf Of Pf Qf Rf Sf Tf Uf Vf Wf Xf Yf Yf Zf `f  g .g +g @g #g #g $g %g &g *g =g -g ;g >g ,g 'g )g !g ~g {g ]g ^g /g (g _g :g <g [g }g |g 1g 2g 3g 4g 5g 6g 7g 8g 9g 0g ag bg cg dg eg fg gg gg hg ig jg kg    ",
"lg mg ng og pg qg rg sg tg ug vg wg xg yg zg Ag Bg Cg Dg Eg Fg Gg Hg Ig Jg Kg Lg Mg Ng {: Og C^ P{ M] M] M] M] M] M] P{ P{ C^ Og Pg Qg Rg Sg Tg Ug Vg Wg Xg Yg Zg `g  h .h +h @h #h $h %h &h *h =h -h -h ;h >h ,h 'h )h !h ~h {h ]h ^h /h (h _h :h <h [h 2g }h |h 1h 2h De 3h 4h 5h 6h <g 7h 8h 9h 0h ah bh ch dh eh fh gh hh ih jh kh lh mh nh oh ph qh rh sh th uh vh wh xh yh zh Ah Bh Ch    ",
"mg Dh ng Eh Fh Gh rg Hh Ih Jh Kh Lh Mh Nh Oh Ph Qh Rh Sh Th Uh Vh Wh Xh Yh Zh `h  i Ng {: 4_ C^ P{ M] M] M] M] M] M] P{ P{ C^ 4_ .i +i @i #i $i Ug %i &i *i =i -i ;i >i ,i 'i )i !i ~i {i ]i ^i /i (i _i :i <i [i }i |i 1i 2i 3i 4i 5i 6i 7i 8i 9i 0i ai bi ci di ei fi gi hi ii ji ki li mi ni oi pi qi ri si ch ti ui vi wi ah xi yi zi Ai Bi Ci Di Ei Fi Gi Hi Ii Ji Ki Li Mi Ni Oi Pi Ee    ",
"Qi Ri Si Ti Ui Vi `  Wi Xi Yi Zi `i  j .j +j @j #j $j %j &j *j =j -j ;j m( >j ,j 'j )j !j %< ~j P{ M] M] M] M] M] M] O{ P{ {j j/ D^ 1_ ]j ^j /j (j _j :j <j [j }j |j 1j 2j 3j 4j 5j 6j 7j 8j 9j 0j aj bj cj dj ej fj gj hj ij jj kj lj mj nj oj pj qj rj sj tj uj vj wj xj yj zj Aj Bj Cj Dj Ej Fj Gj Hj Ij Jj Kj Lj Mj Nj Oj Pj Qj Rj Sj Tj Uj Vj Wj Xj Yj Zj `j  k .k +k @k #k $k %k &k *k    ",
"=k -k ;k >k ,k 'k )k !k ~k {k ]k ^k /k (k _k :k <k [k }k |k 1k 2k 3k B] 4k 5k 6k 7k 0( 8k T< C^ P{ M] M] M] M] M] M] M] P{ P{ ~j e( !j 9k 0k ak bk ck dk ek fk gk hk ik jk kk lk mk nk ok pk qk rk sk tk uk vk wk xk yk zk Ak Bk Ck Dk Ek Fk Gk Hk Ik Jk Kk Lk Mk Nk Ok Pk Qk Rk Sk Tk Uk Vk Wk Xk Yk Zk `k  l .l +l @l #l $l %l &l *l =l -l ;l >l ,l 'l )l !l ~l {l ]l ^l /l (l Zj _l :l <l    ",
"[l }l |l 1l 2l 3l 4l 5l 6l 7l 8l 9l 0l al bl cl dl el fl gl hl il jl kl ll ml nl ol pl 8k N] M{ O{ M] M] M] M] M] M] M] O{ P{ C^ T< ql rl F~ }| 8b sl tl ul vl wl xl yl zl Al Bl Cl Dl l% El Fl Gl <7 Hl Il Jl Kl Ll Ml Nl Ol Pl e% ec Ql Rl Sl Tl Ul Vl Wl Xl Yl Zl `l  m .m +m @m #m $m %m &m *m =m -m ;m >m ,m 'm )m !m ~m {m ]m ^m /m (m _m :m <m [m }m #c |m N$ 1m Xa 2m 3m 4m 5m 6m 7m    ",
"8m 9m 0m am bm cm dm em fm gm hm /~ )3 im jm km lm mm nm om 3/ pm qm rm sm tm um 19 N~ L~ R{ O{ M] M] M] M] M] M] M] M] M] P{ ~j vm wm O~ xm ym sl zm B; Am Bm Cm Dm Em Fm Gm Hm Im Jm Km Lm Mm Nm Om Pm Qm Rm Sm Tm Um Vm Wm Xm Ym Zm `m  n .n +n @n #n $n Ra %n &n *n =n -n ;n >n ,n 'n )n !n ~n {n ]n `6 ^n /n `6 ]n (n _n :n <n [n }n |n 1n 2n 3n 5! 4n 5n 6n $9 7n 8n 9n 0n an b> bn cn    ",
"dn en fn gn hn in jn kn ln mn nn on 6; pn ]* qn L- rn sn tn un vn wn xn yn zn 70 An I! L~ M{ O{ M] M] M] M] M] M] M] M] M] P{ C^ 4_ Bn B! o} J1 _| Cn Dn En Fn Gn Hn In Jn Kn Ln Mn Nn On Pn Qn Rn Sn Tn H& Un Vn Wn Xn Yn Zn `n  o .o +o @o #o $o %o &o *o Oa =o -o ;o >o ,o 'o )o !o ~o {o ]o A, ^o /o (o _o (o T7 :o a{ <o [o }o |o 1o 5{ 2o +4 3o 4o $4 5o 6o 7o Q3 Ua Ua 8o 51 9o 0o ao    ",
"bo co do eo fo go ho io =% jo ko lo mo no oo ~] @& po qo ro so to uo vo wo xo yo 7' L1 I~ L~ O{ M] M] M] M] M] M] M] M] M] P{ C^ j/ E[ D! K{ 19 ym zo Ao 50 Bo Co Do Eo Fo Go Ho Io Jo Ko Lo Mo No Oo Po Qo Ro So To Uo Vo S1 Wo Fm Xo Yo Zo `o  p .p +p @p #p $p %p &p *p =p -p ;p >p ,p 'p )p !p b~ /a (a ~p $) {p ]p ^p /p /p (p (p 5{ _p :p <p [p }p |p 1p 2p 3p 4p C, bn 5p 5] 6p >! 7p    ",
"8p 9p 0p w# ap bp cp ,{ dp ep fp gp hp ip jp <> kp lp mp np op pp qp rp sp tp up p/ h) A! I~ M{ O{ M] M] M] M] M] M] M] M] P{ P{ ~j vp L~ F! wp K1 H1 7' xp yp -, zp Ap Bp Cp Dp Ep Fp Gp Hp Ip Jp Kp Lp '= Mp Np Op Pp Qp Rp Sp Tp Up Vp Wp Xp Yp Zp `p  q .q +q @q #q $q %q &q *q =q -q ;q >q ,q 'q )q !q ~q {q ]p ]q ^q ]n 6{ c{ /q (q ]n _q :q <q 71 [a [q }q ko |q 1q 2q 3q c& 4q 5q 6q    ",
"7q 8q 9q 0q aq bq cq dq Z- eq fq gq hq iq jq kq lq mq nq oq pq qq rq sq d} tq uq vq wq k} H~ M{ O{ M] M] M] M] M] M] M] M] M] P{ C^ ~j M{ I~ L] p) k2 i) 5' xq yq zq yo Aq ,, Bq Cq Dq =1 Eq Fq Gq Hq Iq h- j- Jq Kq d- Gp Lq Mq Nq Oq Pq Qq {| Rq Sq cc 1- Tq Uq Vq Wq Xq Yq Zq `q  r .r +r @r #r $r %r &r *r =r -r 4~ ;r >r =b ,r 'r )r !r ~r {r ]r ^r /r 9> (r _r :r <r [r }r |r 1r '9 ;3    ",
"2r 3r 4r 5r 6r 7r 8r 9r 0r ar br cr <1 dr er fr gr hr Bd ir jr kr lr mr nr or pr qr rr sr tr L~ O{ M] M] M] M] M] M] M] M] M] P{ P{ C^ M{ L~ I~ E! o) p) l) j) I1 2' aa ur &1 vr vr wr xr *1 yr `| zr Ar Br Cr Cr 56 Dr Er Fr Gr Hr Hr Ir Jr Kr Lr Mr Nr Or Pr Qr Rr Sr Tr Ur Vr Wr Xr Yr Zr .r `r Z1  s .s +s @s V4 #s $s %s &s *s =s -s ;s >s ,s 's )s !s ~s {s ]s ^s /s (s G$ _s :s <s [s    ",
"}s L5 |s 1s 2s 3s #! 4s 5@ 5s 6s 7s 8s 9s 0s as bs cs ds ir jr es fs gs hs is js ks ls ms ns K~ M{ O{ M] M] M] M] M] M] M] M] M] P{ P{ O{ O{ M{ I~ J~ E! N~ I! p) q) i) }| +1 7' os v2 b' ps 8b [8 qs rs ss 54 29 29 26 ts ts us h2 vs ws xs ys |4 zs Hq As Bs p6 Cs Ds Es Fs Gs Hs Is Js Ks V# Ls Ms Ns Os Ps Qs Rs Ss Ts Us Vs Ws Xs Ys Zs `s  t .t +t .3 @t #t $t %t -& &t *t 5; 9& 3& =t    ",
"-t ;t 4r >t ,t F' 't )t !t ~t {t ]t ^t /t (t _t :t <t [t }t |t 1t 2t 3t 4t 5t 6t 7t 8t 9t 0t H~ M{ O{ M] M] M] M] M] M] M] M] M] O{ P{ O{ O{ O{ N{ L~ L~ L~ I~ F! N~ O~ n) p) m) at r) i) bt ct <5 dt %1 +1 83 os os 16 16 |5 et 9' 0d ft gt ht ca -, it jt t5 kt lt mt nt ot pt qt rt st tt ut vt wt xt yt zt At Bt Ct Dt Et Ft Gt Xs Ht It Jt Ys Kt Lt Mt Nt Ot Pt n* Qt Rt <& St Tt Ut y,    ",
"Vt Wt Xt Yt Zt `t  u .u +u @u #u $u %u &u *u =u -u ;u >u ,u 'u )u !u ~u {u ]u ^u /u (u _u :u c( d( P{ O{ M] M] M] M] M] M] M] M] M] O{ M] M] O{ O{ O{ N{ N{ N{ L~ I~ I~ I~ F! F! F! E! B! O~ o) o) z! N~ o} k) k) L1 L1 at at at L1 s) %1 J1 4' <u t3 #, [u }u |u 1u 2u 3u 4u 5u 6u 7u 8u 9u 0u v@ au bu cu du eu fu gu hu #0 iu ju ku lu mu nu ou pu 5{ qu ru su tu 1& uu vu wu xu yu zu Au    ",
"*! Bu >> '~ Cu Du +u Eu Fu Gu Hu Iu Ju Ku Lu Mu }> Nu Ou Pu Qu Ru Su Tu Uu Vu Wu Xu Yu h/ Zu `u @1 M{ O{ M] M] M] M] M] M] M] M] M] M] M] M] M] M] O{ O{ O{ O{ O{ R{ N{ N{ M{ N{ R{ L~ L~ I~ I~ I~ J~ I~ J~ F! F! F! F! F! G! G! G!  v O~ L1 L1 q) .v 1' +v s2 @v #v $v %v &v *v =v -v ;v >v ,v 'v )v !v ~v {v ]v ^v /v (v 81 _v _v :v <v ]n [v }v |v @b 1v 2v J$ 3v 4v xu 5v 6v 7v 8v 9v 0v    ",
"av bv 9^ cv @u dv +u Eu ev fv gv hv iv jv kv lv mv nv ov pv qv rv Q^ sv tv uv vv wv xv yv zv Av $1 d( P{ M] M] M] M] M] M] M] M] M] M] M] M] M] M] M] M] O{ O{ O{ O{ O{ O{ O{ O{ O{ O{ O{ N{ M{ N{ M{ M{ M{ M{ N{ R{ N{ L~ L~ L~ L~ L~ I~ F! F! G! o) k) Bv |' Cv Dv Ev Fv Gv Hv r/ Iv Jv Kv Lv Mv Nv Ov Pv Qv Rv Sv Tv Uv Vv Wv Xv (p 8~ Yv <v Zv `v )!  w a] .w +w @w #w 5v Q| $w %w &w $w    ",
"*w T) =w -w ;w >w ,w 'w )w !w ~w {w ]w ^w /w (w _w :w <w [w }w |w 1w 2w 3w 4w M^ 5w 6w 7w 8w ms ns H~ M{ O{ M] M] M] M] M] M] M] M] M] M] M] M] M] M] M] M] M] M] M] M] M] O{ O{ O{ O{ O{ O{ O{ O{ O{ O{ O{ O{ O{ O{ O{ O{ O{ R{ R{ R{ R{ M{ N{ L~ F! J~ L] K{ n/ 9w 0w aw bw cw dw ew fw gw hw iw jw kw lw mw nw ow pw qw rw sw tw uw vw ww xw yw :o zw 5{ Aw Bw |~ 1~ [! Cw Dw Ew Fw Gw ^a    ",
"Hw Iw Jw Kw Lw Mw Nw Ow Jw Pw Qw Rw Sw :c Tw Uw Vw Ww Xw Yw Zw `w  x .x +x @x #x $x %x &x *x =x -x L{ I~ M{ O{ M] M] M] M] M] M] M] M] M] M] M] M] M] M] M] M] M] M] M] M] M] M] M] M] M] M] M] M] M] M] M] M] M] M] O{ O{ O{ O{ O{ O{ O{ O{ O{ O{ N{ L~ I~ J~ D! ;x wf >x ,x 'x qr f} )x !x ~x {x ]x k% ^x /x (x _x :x 0! 81 /o <x [x }x |x 1x 2x 3x &5 4x $5 (p T5 5x 6x 7x 8x 9x 0x ax ^r    ",
"#| bx cx dx ex fx gx hx ix jx kx lx mx nx ox px qx rx er sx tx }t ux vx wx xx yx zx Ax Bx Cx Dx Ex Fx C! L~ P{ O{ M] M] M] M] M] M] M] M] M] M] M] M] M] M] M] M] M] M] M] M] M] M] M] M] M] M] M] M] M] M] M] M] M] M] M] M] M] M] M] M] M] M] O{ O{ O{ N{ M{ L~ Gx Hx 6_ Ix Jx Kx y[ }u Lx Mx Nx Ox m7 Px I@ Qx Rx Sx Tx Ux Dw 9n Vx Wx =b Xx Yx Zx U2 +7 /q <v `x  y .y +y @y #y $y @t %y    ",
"&y *y =y -y ;y >y ,y 'y Pe )y !y ~y {y ]y ^y /y (y _y :y <y [y }y |y 1y 2y 3y 4y 5y 6y 7y 8y 9y 0y ay ;x by d( P{ O{ M] M] M] M] M] M] M] M] M] M] M] M] M] M] M] M] M] M] M] M] M] M] M] M] M] M] M] M] M] M] M] M] M] M] M] M] M] M] M] M] M] M] M] M] O{ O{ P{ ~j T< cy dy ey fy gy 9y hy iy jy ky ly my ny oy py qy ry sy ty ok uy vy wy xy yy zy Ay By Cy Dy Ey Fy Gy Hy Iy Jy Ky Ly My    ",
"Ny Oy Py Qy Ry Sy Ty Uy Vy Wy Xy Yy Zy `y  z .z +z @z #z $z %z &z *z =z -z ;z >z ,z 'z )z !z ~z {z ]z ^z ;x Gx d( M{ P{ P{ P{ /z M] M] M] M] M] M] M] M] M] M] M] M] M] M] M] M] M] M] M] M] M] M] M] M] M] M] M] M] M] M] M] M] M] M] M] M] M] M] M] M] M] M] ]: M{ j/ k/ <| (z _z ^z :z <z 03 [z }z |z 1z 2z 3z 4z 5z 6z 7z 8z 9z 0z az bz cz dz ez fz gz hz iz jz kz lz mz nz oz pz qz rz    ",
"sz Le tz uz vz wz xz yz zz Az Bz Cz Dz Ez Fz Gz Hz Iz Jz Kz Lz Mz Nz Oz Pz Qz Rz Sz Tz Uz Vz Wz i( Xz Yz 8k _z E[ 3_ d( C^ C^ P{ P{ P{ M] M] M] M] M] M] M] M] M] M] M] M] M] M] M] M] M] M] M] M] M] M] M] M] M] M] M] M] M] M] M] M] M] M] M] M] M] M] M] M] M] P{ P{ j/ Zz Pg %< V< `z  A .A +A @A #A $A %A &A *A =A -A ;A >A ,A 'A )A !A ~A {A ]A ^A /A (A _A :A <A [A }A |A 1A 2A 3A 4A    ",
"5A 6A 7A 8A 9A 0A yh aA bA cA dA eA fA gA hA iA jA kA lA mA nA oA pA qA rA sA tA uA vA wA xA yA zA AA BA S~ CA DA EA FA .i k/ j/ C^ C^ M{ P{ P{ P{ P{ P{ P{ P{ P{ P{ P{ M] M] M] M] M] M] M] M] M] M] M] M] M] M] M] M] M] M] M] M] M] M] M] M] M] M] M] M] M] M] P{ P{ C^ j/ GA HA IA JA KA LA MA NA OA PA QA RA SA TA UA VA WA wj XA YA ZA `A  B .B +B @B #B $B %B &B *B =B -B ;B >B e| ,B    ",
"'B )B !B !B ~B {B ]B ^B /B (B wh _B :B ^B <B [B }B |B 1B 2B 3B 4B 5B 6B 7B 8B 9B 0B aB bB cB dB eB fB gB hB iB jB kB lB #< (z HA D^ N] yf j/ C^ C^ C^ C^ C^ P{ P{ P{ P{ P{ P{ P{ P{ P{ P{ O{ P{ O{ M] M] M] M] M] M] M] M] M] M] M] M] M] M] M] M] M] M] M] M] M] M] O{ P{ {j j/ k/ <| mB nB oB pB qB Z: rB sB tB uB vB wB xB yB zB AB BB CB DB EB FB GB HB IB JB KB LB MB NB OB PB QB RB SB    ",
"TB UB VB WB XB YB ZB `B  C .C +C @C #C $C %C &C *C =C -C ;C >C ,C 'C )C !C ~C {C ]C ^C /C (C _C :C <C [C }C |C 1C 2C 3C 4C 5C 6C 7C 8C 5_ %< T< T< N] 3_ 3_ 3_ j/ j/ j/ j/ C^ C^ M{ P{ P{ P{ P{ P{ P{ P{ P{ P{ P{ P{ P{ P{ P{ P{ P{ P{ P{ O{ M] M] M] M] M] M] M] M] M] O{ P{ P{ j/ T< 9C 0C aC bC cC dC eC fC gC hC iC jC kC lC mC nC oC pC qa qC rC sC tC uC vC {i wC xC yC zC AC BC CC DC    ",
"EC FC GC HC IC JC KC LC MC NC OC PC QC RC SC TC UC VC WC XC lb YC ZC `C :y  D .D +D @D #D $D %D 07 &D *D =D -D ;D >D ,D 'D )D !D ~D ;x {D c( 3_ @1 H~ m} d( C^ d( d( d( d( M{ M{ M{ M{ M{ P{ P{ P{ C^ C^ M{ P{ P{ P{ P{ P{ O{ O{ O{ O{ O{ O{ M] M] M] M] M] M] M] M] M] M] M] M] O{ P{ M{ m} G[ k} ]D ^D /D J[ (D a5 _D :D <D [D }D |D 1D 2D 3D 4D 5D 6D 7D 8D 9D 0D aD bD cD dD eD fD gD hD    ",
"iD jD kD lD mD nD oD t* pD ;; qD rD sD tD uD $^ vD wD #f xD yD zD AD BD CD DD ED FD GD HD ID JD KD LD MD ND OD PD QD RD SD TD UD VD wp WD K{ F! G! D! D! I~ R{ H~ I~ I~ I~ L~ L~ L~ L~ L~ L~ M{ d( 4_ k/ L~ L~ M{ M{ M{ R{ R{ R{ O{ O{ O{ O{ O{ M] M] M] M] M] M] M] M] M] M] M] M] M] O{ O{ N{ F! I! }| 9' XD YD ZD `D  E .E +E @E #E $E ye %E &E *E =E -E ;E >E ,E 'E )E !E ~E Q9 {E ]E Rv    ",
"^E /E (E _E :E <E [E }E |E :! (o 5{ 1E :o 2E 3E 4E 5E 6E 7E 8E 9E 0E aE bE cE dE eE fE gE hE iE jE kE lE mE nE oE pE qE rE sE tE uE 60 vE :| wE xE xm q) q) O~ k) o} k} n/ K{ O~ O~ B! B! D! H~ c( yE $< tr H~ H~ I~ L~ I~ I~ I~ L~ M{ R{ O{ O{ O{ O{ M] M] M] M] M] M] M] M] M] M] M] M] O{ R{ M~ G! zE AE 15 BE CE DE EE FE GE HE IE JE KE LE ME NE OE PE QE RE SE TE UE y, `} +- VE Wa WE    ",
"]{ XE Au YE ZE `E  F .F +F @F #F $F %F &F *F =F -F ;F >F ,F 'F )F /@ !F ~F {F ]F ^F /F (F _F :F <F [F }F |F 1F 2F 3F 4F 5F 6F }9 ca 7F 8F 9F 0F w) xq aF 5' J1 bF J1 h) cF h) h) VD VD J{ dF je eF fF gF hF iF o) L] L] L] O~ E! F! I~ M~ N{ N{ R{ O{ O{ M] M] M] M] M] M] M] M] M] M] M] M] O{ R{ I~ N~ xm 7' sl jF kF lF mF nF oF pF qF rF sF tF uF vF wF xF yF zF AF BF CF DF EF FF GF HF    ",
"IF }* 9v JF 1q KF LF MF NF OF PF QF RF SF TF UF VF WF XF YF ZF `F  G /0 .G +G @G #G $G %G &G *G =G -G ;G >G ,G 'G )G !G ~G Dp {G ]G jF rE ^G /G (G _G :G <G <G [G ur }G |G |G v! 1G H{ 2G 3G 4G 5G 6G 7G 8G 9G k2 0G 0G j) aG r) n) N~ F! F! I~ L~ N{ O{ O{ O{ M] M] M] M] M] M] M] M] M] M] O{ O{ N{ F! L1 K1 9' bG cG dG eG fG gG hG iG jG kG lG mG nG oG pG qG @G rG sG tG uG bE vG wG xG    ",
"IF |* yG JF zG 4] AG w, BG CG DG EG FG CG GG ); HG IG JG KG LG MG NG ^@ 7; OG PG QG RG SG TG UG VG WG XG YG ZG `G  H .H +H Eo @H #H $H %H &H *H =H G; -H ;H ;H >H ;, ,H 'H  , D~ e3 )H !H ~H {H O< ]H ^H /H (H 1G f) f) q3 2' 83 K1 s) m) o) N~ F! N{ O{ O{ O{ O{ M] M] M] M] M] M] M] M] M] M] O{ R{ L~ G! o} 5' &1 _H 5F 3F Rq :H <H [H }H |H 1H 2H 3H 4H 5H 6H 7H )3 8H 9H 0H aH bH rG RE    ",
"~^ ,@ cH dH eH fH y, gH T' hH iH jH S' kH lH mH nH oH pH qH rH sH tH v= L- uH vH wH xH yH zH AH BH CH DH EH FH GH HH IH JH KH LH MH 3F NH OH PH QH j5 RH SH TH UH u5 xo VH WH XH YH ZH `H  I .I +I @I #I $I %I &I ., q} 'H N1 *I ur <8 3' %1 k) n) F! L~ R{ R{ O{ O{ M] M] M] M] M] M] M] M] M] O{ O{ N{ I~ B! i) ym $, =I -I ;I >I ,I 'I )I !I ~I {I ]I ^I /I (I _I :I <I [I }I |I 1I 2I 1p    ",
"3I 4I 5I 9o 6I 7I 4& >) ]a 8I 9I +3 3n 0I aI bI $d cI dI eI fI gI hI iI jI kI lI mI nI oI pI qI rI sI tI uI vI wI xI yI zI AI BI CI DI EI FI GI HI II JI 97 KI LI MI NI OI PI sp QI RI SI TI UI VI WI XI YI YH X> f} ZI `I  J .J -, +J @J xq H1 j) p) E! I~ M~ O{ O{ O{ M] M] M] M] M] M] M] M] M] O{ O{ M{ F! p) J1 [G #J $J %J &J *J =J -J ;J >J ,J 'J )J !J ~J {J '3 ]J ^J /J (J jn _J 31    ",
":J <J [J }J Vx >r |J 1J 2J 3J 4J 5J 6J 7J 8J 9J Tw 0J aJ bJ cJ dJ eJ fJ gJ K' hJ iJ &* jJ kJ lJ mJ nJ oJ pJ qJ rJ sJ tJ uJ vJ wJ xJ yJ zJ AJ BJ CJ DJ EJ FJ GJ HJ IJ JJ KJ LJ MJ NJ OJ PJ QJ RJ SJ TJ UJ VJ WJ XJ YJ ZJ `J  K .K F; +K n4 +J |G @K h) wp o) D! I~ N{ O{ O{ M] M] M] M] M] M] M] M] M] O{ R{ I~ O~ K1 v) #K 90 $K %K &K *K =K -K ;K >K ,K {b 'K )K !K ~K {K ~q ]K ^K /K (K eu    ",
"_K :K <K [K U5 }K |K 1K 2K 3K 4K 5K  3 6K 7K 8K 9K 0K aK bK cK 3e dK t$ eK fK gK hK iK jK kK lK mK nK oK pK qK rK sK tK uK vK wK xK yK zK AK BK CK DK EK FK GK HK IK JK KK LK MK NK OK PK QK RK SK TK UK VK WK XK YK ZK `K  L w6 vl .L ul +L @L (' #L $L wp A! H~ L~ O{ O{ M] M] M] M] M] M] M] M] M] O{ O{ L~ E! r) 3' %L /| &L *L =L -L ;L >L ,L 'L )L !L ~L {L ]L ^L /L ^K (L Ew _L :L <L    ",
"L= [L }L |L 1~ 1L 2L 3L 4L 5L 6L 7L 8L 9L 0L aL bL cL dL eL fL gL hL iL jL kL lL mL nL oL pL qL rL sL tL uL vL wL xL sK yL zL AL BL CL DL JE EL FL GL HL IL JL KL KL :- LL ML NL OL PL [, QL RL SL TL UL VL WL XL YL ZL q7 `L  M .M +M @M #M $M  , _' %M cF G~ L{ I~ M{ O{ O{ M] M] M] M] M] M] M] M] M] O{ N{ I~ o) %1 .1 -, zs &M *M =M -M ;M >M ,M 'M )M !M ~M ;/ {M ]M ^M /M (M _M :M <M    ",
"[M }M |M 5] :b ^b kH 1M 2M 3M 4M 5M 6M 7M 8M 9M V% 0M aM bM cM dM eM E% fM ^c gM hM iM jM kM lM mM nM oM pM qM rM sM tM uM vM wM xM yM zM AM BM CM DM EM FM GM HM IM M2 JM KM LM MM NM OM PM QM RM SM TM UM VM WM XM p^ YM ZM `M FI  N .N +N @N #N $N %N aF i) o) D! L~ N{ O{ O{ M] M] M] M] M] M] M] M] M] O{ N{ E! q) 7' vr &N *N =N -N ;N >N ,N 'N )N !N ~N {N ]N ^N /N (N _N AG :N g] <N    ",
"y> [N -- }N ^0 AG |N 1N 2N 3N 4N -0 5N 6N 7N 8N 9N 0N aN bN cN dN eN fN ^c gN kL hN iN jN kN lN mN nN oN pN qN rN sN tN uN vN wN xN yN zN AN BN CN DN EN z/ FN GN HN IN M+ JN KN LN MN NN ON PN QN RN SN TN UN VN WN 4b XN YN ZN `N  O .O +O @O #O $O ^' .1 4' m) L] J~ M{ O{ O{ M] M] M] M] M] M] M] M] M] O{ R{ F! L1 j2 %O }8 &O *O =O -O ;O >O ,O 'O )O !O ~O {O Rb 7> ]O ^O /O (O w, _O    ",
":O <O [O }O |O 1O 2O *% 3O 4O 5O 6O 7O 8O 9O 0O -@ aO bO 6: cO dO eO fO gO hO iO jO kO lO R) mO mO Q- Ow nO L- oO pO qO rO yL sO tO uO vO wO xO yO Hc zO AO BO CO DO EO FO GO HO IO JO KO LO MO NO OO PO QO RO SO TO UO VO WO D6 XO YO ZO `O  P  K .P +P %L 8' i) p) D! L~ N{ O{ O{ M] M] M] M] M] M] M] M] O{ O{ I~ I! AE 15 @P #P $P  N %P &P *P =P -P ;P >P +b BG ,P 'P V' )P %F %F !P ~P    ",
"$- {P S$ ]P ^P /P VE (P _P :P <P _P [P <P }P |P u$ 1P 2P 3P 4P 5P 6P 7P 8P 9P 0P aP bP cP dP eP fP gP hP iP jP kP lP mP nP oP pP qP rP sP tP H- uP vP wP xP yP zP AP }c BP CP DP BP EP b+ FP GP pa HP IP JP KP LP MP NP OP PP QP RP SP mF Hn TP UP VP WP 7F um K! n) F! L~ M{ O{ O{ M] M] M] M] M] M] M] M] O{ O{ L~ E! s) 9' XP 0a YP ZP `P  Q .Q +Q @Q #Q $Q %Q E' {b &c &Q *Q =Q -Q ;Q >Q    ",
"Wa ,Q 'Q )Q !Q ~Q {Q }L ]Q ^Q /Q (Q #- ^Q _Q l# :Q <Q [Q }Q |Q 1Q 2Q 3Q 4Q 5Q 6Q 7Q 8Q 9Q 0Q aQ bQ cQ dQ eQ fQ gQ hQ iQ jQ kQ lQ mQ nQ oQ pQ 1# qQ !d ]d rQ sQ tQ uQ vQ wQ wQ wQ xQ yQ zQ AQ BQ CQ DQ EQ FQ GQ HQ xP IQ JQ KQ LQ MQ NQ OQ PQ Bm QQ jF tm RQ SQ wE n) F! L~ M{ O{ O{ M] M] M] M] M] M] M] M] M] O{ N{ F! m) 6' || TQ UQ VQ WQ XQ YQ ZQ `Q  R .R +R @R #R $R %R &R d~ *R }v =R    ",
"-R ;R >R ,R 'R )R !R ~R {R ]R ^R /R (R _R :R <R [R }R |R 1R 2R 3R 4R 5R 6R 7R 8R 9R 0R aR bR cR dR eR fR AP gR hR iR jR kR lR mR nR oR pR qR rR sR tR uR vR wR xR yR zR AR BR CR DR ER FR GR HR IR JR KR LR MR NR OR PR QR RR SR `M z6 TR UR VR WR XR YR ZR `R wp A!  S L~ M{ M{ O{ M] M] M] M] M] M] M] M] M] O{ O{ M~ N~ %1 <' T] .S +S @S #S $S %S &S *S =S -S ;S >S ,S 'S )S {% |q !S ~S    ",
"{S ]S ^S /S (S _S :S <S [S }S |S 1S 2S 3S 4S 5S 6S 7S 8S 9S 0S 4i aS bS cS dS eS fS gS hS iS jS kS lS mS nS oS pS qS rS sS tS uS p+ vS wS xS yS zS AS BS CS DS ES FS GS HS IS JS KS LS MS NS OS PS QS RS SS TS US VS WS XS YS ZS `S  T .T +T @T #T $T %T &T *T =T -T xf T< 3_ C^ P{ O{ M] M] M] M] M] M] M] O{ P{ ~j T< ;T >T ,T 'T )T !T ~T {T ]T ^T /T (T _T :T <T [T }T |T )( 1T 2T 3T 4T    ",
"5T 6T 7T 8T 2i 9T 0T aT bT cT |} dT eT fT gT hT iT jT kT lT mT nT oT pT qT rT sT tT uT vT wT xT yT zT AT =  BT CT DT ET FT GT HT IP IT JT KT LT &q MT NT OT PT QT RT ST TT UT @' VT WT XT YT ZT `T  U .U +U @U #U $U %U &U *U =U -U ;U >U ,U 'U )U !U ~U O! {U ]U ^U /U .i 4_ C^ P{ P{ M] M] M] M] M] M] M] P{ {j 3_ Bn 7C (U _U :U <U [U }U |U 1U 2U 3U 4U 5U 6U 7U 8U 9U 0U aU bU cU dU eU    ",
"fU gU hU iU 9A jU kU lU mU nU mU mU oU pU qU 0A rU sU tU uU vU wU xU yU zU zU AU BU CU DU EU di FU GU HU IU JU KU LU MU NU OU PU QU RU SU TU UU VU WU XU YU ZU `U  V .V ZU +V @V #V $V %V &V *V =V -V ;V >V ,V 'V )V !V ~V {V ]V ^V /V (V _V :V <V [V }V |V 1V 2V 3V 4V 5V 6V 7V C^ P{ P{ M] M] M] M] M] M] M] P{ j/ 8V 9V 0V 1V aV bV cV dV eV fV gV ;[ 6: hV iV jV kV Oi yh lV mV nV oV pV    ",
"6. a; qV rV sV tV uV vV wV xV yV zV AV BV CV DV bT EV FV GV HV IV JV KV LV MV NV OV PV QV RV SV TV UV VV WV XV YV ZV `V  W .W +W @W @' tA #W $W %W &W *W =W -W ;W ;W >W ,W 'W )W !W ~W {W ]W ^W /W (W _W :W <W [W }W |W 1W 2W 3W 4W 5W 6W 7W 8W 9W 0W aW bW cW  A dW IA {: 6V 7V P{ P{ O{ M] M] M] M] M] M] M] P{ j/ eW fW gW vf hW iW jW kW lW mW nW oW pW qW rW sW tW pC uW vW wW xW yW zW    ",
"AW BW CW DW EW FW GW HW IW IW JW KW LW MW NW OW PW QW Xi RW SW TW UW VW WW XW _  YW ZW `W L4  X .X +X @X #X $X %X &X *X =X -X ;X >X ,X 'X )X !X ~X {X ]X ^X /X (X _X :X <X [X }X |X 1X 2X 3X 4X 5X 6X 7X 8X 9X 0X aX bX cX dX eX fX gX hX iX jX kX lX mX nX >T T{ oX O] pX 6V C^ P{ O{ M] M] M] M] M] M] M] O{ P{ 3_ wm qX bC rX sX tX uX vX wX xX yX zX AX BX CX Ti DX EX FX GX HX IX JX gj    ",
"KX LX MX NX OX PX QX ]} RX SX TX UX VX WX XX YX ZX `X  Y .Y +Y @Y #Y $Y %Y &Y *Y =Y -Y ;Y >Y ,Y 'Y )Y )Y !Y ~Y {Y ]Y ^Y /Y (Y _Y :Y <Y [Y }Y |Y 1Y 2Y 3Y 4Y 5Y 6Y 7Y 8Y 9Y 0Y aY bY cY dY nr eY fY gY hY iY jY kY lY mY nY oY pY qY rY sY tY uY vY wY wq xY yY 9w G[ @1 yf j/ C^ P{ M] M] M] M] M] M] M] M] M] P{ L~ G[ fy zY AY BY CY DY EY FY GY HY IY JY KY LY MY NY OY PY QY RY wP SY TY    ",
"UY VY WY XY %/ YY ZY `Y  Z  Z .Z +Z @Z #Z $Z %Z &Z *Z =Z Zw -Z ;Z >Z ,Z 'Z u$ 6@ oJ )Z !Z ~Z {Z ]Z ^Z /Z (Z _Z :Z <Z [Z }Z |Z 1Z 2Z 3Z 4Z 5Z 6Z 7Z e} 8Z 9Z 0Z aZ bZ cZ dZ eZ fZ gZ hZ iZ jZ kZ .S .S lZ mZ nZ qe oZ pZ qZ rZ sZ tZ (G zq 7b uZ aa bF vZ o) rl l} wZ xZ C^ C^ P{ O{ M] M] M] M] M] M] M] M] M] O{ M{ yZ zZ AZ BZ CZ DZ EZ FZ GZ HZ qR IZ JZ KZ LZ MZ NZ OZ PZ QZ o, RZ -} SZ    ",
"TZ Y' UZ VZ 2{ WZ XZ YZ ZZ `Z  ` .` +` @` #` =r (o $` Ew %` &` *` =` ') 5O -` s> ;` 4! >`  4 ,` '` )` !` ~` {` Gc JO ]` ^` /` (` _` :` <` [` }` |` 1` &H 2` 3` tZ tZ 4` 5` 6` 7` (| 39 zm 8` 8` 9` ', 39 0` 6` a` _G s4 n4 b` &, c` d` e` 3' |' %1 r) J! N~ I~ L~ M{ P{ P{ P{ P{ M] M] M] M] M] M] M] M] M] M] O{ L~ G! q) 6' vr D; f` g` h` i` j` k` l` m` n` o` p` q` r` Q} N6 s` t` r` u`    ",
"VE I5 v` w` x` y` `6 5n z` #F A` 5! B` C` Z8 D` E` F` G` H` I` J` K` K` L` ^K M` N` O` =Q P` &` Q` R` S` T` U` V` W` X` Y` Z` <C ``   .. .+ .@ .# .$ .it 6` % .& .* .|G }G [' [' = .v) v) v) v) ba 8' ba aa aa aa xq t3 t3 e` s3 83 J1 %1 l) m) O~ E! F! I~ N{ R{ O{ O{ P{ P{ P{ M] M] M] M] M] M] M] M] M] O{ O{ L~ E! r) 6' |6 - .; .> ., .' .) .! .~ .{ .] .^ ./ .( ._ .: .< .[ .} .| .1 .   ",
"@a 2 .3 .4 .5 .6 .Bw 7 .8 .do 9 .0 .a .b .D` c .d .e .f .g .h .Uv i .j .i .k .l .m .O` n .o .p .q .r .s .t .u .v .w .x .y .z .6W A .B .C .D .E .F .G ._' xp @K 6' 5' I1 J1 %1 .v j) i) i) i) i) i) s) l) l) l) l) i) j) j) i) l) p) o) o) N~ E! I~ L~ L~ N{ O{ O{ O{ M] O{ P{ M] M] M] M] M] M] M] M] M] M] O{ N{ I~ N~ i) b' ', t4 e5 H .J& Ll I .J .K .{ .L .M .N .O .P .Q .R .S .T .S .'9    ",
"0] l~ U .V .h .W .@a X .Y .Z .*4 ` ._O Z . .....+..@..#..$..%..&..*..=..-..;..>..,..'..)..!..I5 ~..{..]..^../..(.._..:..<..[..}..|..1..2..3..4..5..6..z^ y! I1 19 q) q) o} L1 p) n) L] L] L] E! L] o) L] B! B! B! B! B! E! E! E! E! F! I~ I~ L~ M{ R{ O{ O{ O{ O{ M] M] M] M] M] M] M] M] M] M] M] M] M] M] O{ N{ I~ N~ K1 7..8..9..v4 0..a..b..c..d..e..f..g..TZ h..i..j..k..l..m..n..o..p..   ",
"q..r..7! s..t..u..]M v..w..;9 a~ a~ x..y..z..A..B..C..D..E..F..&r G..H..I..J..a] `= P .3M 6M K..0| L.._x M..N..O..P..Q..9/ R..S..T..U..V..W..X..Y..J{ G~ o} O~ B! E! G! F! F! F! F! I~ J~ H~ I~ I~ K~ I~ I~ L~ I~ I~ L~ L~ L~ L~ L~ M{ M{ N{ O{ O{ O{ O{ O{ M] M] M] M] M] M] M] M] M] M] M] M] M] M] M] O{ O{ L~ E! m) 8' $, Z..`.. +.So .+.++.@+._x #+.$+.%+.&+.'` 7! *+.=+.-+.7] ;+.>+.,+.   ",
"'+.)+.*9 Y5 m{ !+.~+.~+.^K {+.{K :a Vv Ew ]+.^+./+.(+._+.:+.<+.[+.}+.|+.1+.,9 %c  F 2+.<p 3+.4+.pG 5+.6+.7+.8+.9+.0+.a+.b+.c+.d+.e+.f+.g+.h+.j} B^ 8d C! J~ I~ L~ L~ L~ M{ M{ M{ M{ M{ M{ M{ M{ M{ M{ M{ N{ R{ N{ N{ R{ O{ O{ O{ O{ O{ O{ O{ O{ O{ M] M] M] M] M] M] M] M] M] M] M] M] M] M] M] M] M] M] O{ N{ I~ O~ K1 ur ', i+.j+.k+.l+.m+.n+.o+.p+.q+.r+.s+.t+.3N 3; u+.v+.9> A, J7 w+.x+.   ",
"y+.z+.A+.s> E* B+.C+.D+.E+.F+.G+.H+.I+.J+.K+.L+.M+.N+.O+.P+.Q+.#4 R+.3n S+.T+.U+.9I V+.W+.X+.Y+.Z+.`+. @.T| .@.+@.@@.#@.As $@.%@.&@.*@.=@.zZ rl D! H~ I~ L~ M{ Q{ O{ O{ O{ O{ O{ O{ O{ O{ O{ O{ O{ O{ O{ O{ O{ O{ O{ O{ O{ O{ O{ M] M] M] M] M] M] M] M] M] M] M] M] M] M] M] M] M] M] M] M] M] M] M] O{ N{ I~ B! l) 6' $, -@.;@.>@.,@.S& '@.)@.!@.~@.{@.]@.^@./@.(@._@.D..81 d{ >9 :@.<@.[@.   ",
"}@.|@.1@.(+.2@.(+.3@.4@.(K (K (v 4@.(v 5@.6@.7@.8@.9@.+s C..0@.Vv :+.a@.'0 b@.c@.&r d@.e@.f@.g@.h@.p~ i@.j@.k@.8a l@.m@.n@.o@.6k p@.q@.r@.l} H~ L~ M{ Q{ O{ O{ O{ O{ O{ M] M] O{ M] M] M] M] M] M] M] M] M] M] M] M] M] M] M] M] M] M] M] M] M] M] M] M] M] M] M] M] M] M] M] M] M] M] M] M] M] M] O{ O{ L~ F! p) J1 d) *1 i+.s@.t@.u@.v@.I .w@.x@.y@.z@.A@.k..B@.C@.D@.E@.d{ M` F@.G@.( .H@.   ",
"I@.J@.K@.J@.L@.L@.M@.N@.O@.P@.Q@.^r @7 R@.S@.<x c@.T@.`7 U@.V@.:L f .W@.X@.Y@.Z@./L `@. #.e$ .#.+#.@#.##.$#.%#.&#.*#.=#.-#.;#.>#.,#.nB '#.xZ L~ M{ O{ O{ M] M] M] M] M] M] M] M] M] M] M] M] M] M] M] M] M] M] M] M] M] M] M] M] M] M] M] M] M] M] M] M] M] M] M] M] M] M] M] M] M] M] M] M] M] O{ O{ L~ J~ O~ K1 M1 q4 l4 )#.!#.~#.{#.]#.^#./#.(#._#.:#.<#.[#.}#.|#.K= Z9 1#.K..j~ [+.2#.3#.   ",
",` 4#.5#.5#.6#.3M ^@.w..w..y..1#.e{ x..|+.7#.8#.9#.%9 6N 0#.a#.K..K..w..b#.c#.d#.e#.d#.o{ /P f#.g#.h#.i#.j#.k#.l#.m#.7) Bx lX +< n#.o#.Gx Q{ O{ O{ O{ M] M] M] M] M] M] M] M] M] M] M] M] M] M] M] M] M] M] M] M] M] M] M] M] M] M] M] M] M] M] M] M] M] M] M] M] M] M] M] M] M] M] M] M] O{ O{ N{ L~ F! O~ i) xq @J p#.q#.r#.s#.t#.u#.V& v#.w#.x#.y#.z#.A#.B#.C#.D#.E#.5H F#.kn G#.H#.I#.J#.   ",
"%3 K#..4 .4 #3 R+.4N *9 ,0 *9 L#.L#.M#.2N N#.O#.P#.Q#.>2 ,0 ^@.L#.R#.M#.6N (a 41 ]@.S#.T#.(r U#.!@.V#.W#.G0 X#.Y#.Z#.`{ `#. $.*T n#.mB 3_ M] M] O{ M] M] M] M] M] M] M] M] M] M] M] M] M] M] M] M] M] M] M] M] M] M] M] M] M] M] M] M] M] M] M] M] M] M] M] M] M] M] M] M] M] P{ O{ O{ O{ N{ M{ I~ E! o) i) aF 7` TQ .$.i- +$.@$.n^ #$.$$.%$.t] &$.*$.O9 D#.=$.-$.Z9 a] A, ;$.:N >$.i# i# g]    ",
",$.'$.)$.!$.~$.{$._! ]$.#3 ^$.^$./$.7O 4O ($._$.:$.8#.<$.[$.S+.S+.)) ]a }$.|$.g{ ,9 1$.2$.3$.4$.5$.6$.7$.8$.9$.0$.a$.b$.c$.d$.e$.f$.g$.@1 O{ M] O{ M] M] M] M] M] M] M] M] M] M] M] M] M] M] M] M] M] M] M] M] M] M] M] M] M] M] M] M] M] M] M] M] M] M] M] M] M] M] M] P{ P{ P{ P{ P{ L~ L~ J~ I! k) K! ym 7` 1| h$.+M II i$.w9 j$.k$.l$.m$.n$.e$ 0> ^o {K 0~ o$.p$.q$.r$.>) >) >) 4& 1v  w    ",
"s$.t$.u$.v$.XZ rw w$.x$.y$.z$.A$.2@.B$.(o C$.D$.E$.F$.G$.H$.H$.I$.I$.J$.K$.L$.:+.<+.M$.N$.O$.P$.Q$.R$.S$.T$.U$.L& V$.W$.X$.Y$.Z$.aw )j `$.M{ Q{ O{ O{ M] M] M] M] M] M] M] M] M] M] M] M] M] M] M] M] M] M] M] M] M] M] M] M] M] M] M] M] M] M] M] M] M] O{ O{ O{ O{ ]: M{ j/ 3_ L~ L~ H~ C! iF i) 5' e) d'  %..%.+%.@%.YM #%.$%.%%.&%.*%.=%.-%.Wa ;%.9n 9n 3{ ;b /q (p >%.,%.'%.)%.2o (+.!%.   ",
"(r ~%.]0 {%.~L 9> ]%.^%.%{ /%.(%._%.:%.<%.[%.}%.|%.1%.|^ 2%.3%.1^ 4%.5%.6%.7%.8%.9%.0%.a%.b%.c%.d%.e%.f%.g%.h%.i%.j%.k%.l%.m%.n%.o%.q@.V< F[ L~ M{ O{ O{ O{ O{ O{ O{ M] M] M] M] M] M] M] M] M] M] M] M] M] M] M] M] M] M] M] M] M] M] O{ O{ O{ O{ O{ O{ O{ O{ M{ M{ M{ 3_ D^ eW p%.l} rl sr q%.q3 t2 r%..J WR k5 s%.t%.u%.k8 s9 v%.w%.x%.y%.z%.A%.B%.C%.C%.D%.C%.&Q b> .w |O *- E%.{%.F%.G%.   ",
"H%.I%.J%.K%.L%.M%.N%.O%.P%.Q%.R%.wy S%.T%. r U%.A} V%.W%.X%.Y%.Z%.`%. &..&.+&.@&.#&.$&.%&.&&.*&.=&.-&.;&.>&.,&.'&.)&.!&.mt ~&.{&.]&.}_ ^&.%< /&.Gx d( d( d( {j P{ P{ P{ P{ P{ P{ P{ P{ O{ O{ O{ O{ O{ M] O{ O{ P{ P{ P{ P{ O{ P{ P{ P{ P{ P{ M{ M{ M{ M{ M{ M{ d( m} [| (&.(z 7C oX !D _&.:&.<&.h/ [&.}&.|&.1&.2&.3&.4&.5&.6&.7&.wk 8&.9&.0&.0&.a&.b&.c&.d&.e&.f&.g&.h&.i&.j&.k&.l&.m&.n&._/    ",
"o&.p&.p&.q&.r&.s&.t&.u&.v&.w&.x&.y&.x&.z&.A&.B&.C&.D&.E&.F&.G&.H&.I&.J&.K&.L&.M&.N&.O&.P&.Q&.R&.S&.T&.U&.V&.W&.uB X&.Y&.Z&.`&. *..*.+*.@*.#*.$*.Hx <| 8V k/ 4_ yf j/ j/ ~j d( d( d( C^ C^ C^ C^ {j C^ C^ C^ C^ C^ C^ d( d( j/ j/ j/ j/ 3_ 4_ N] T< ^: Bn xf eW %*.&*.**.mB =*.-*.;*.>*.,*.'*.)*.!*.~*.{*.]*.^*./*.(*._*.:*.<*.[*.}*.|*.1*.2*.3*.4*.5*.6*.7*.8*.9*.0*.a*.b*.c*.d*.e*.f*.g*.h*.   ",
"i*.j*.k*.l*.m*.n*.2< o*.p*.q*.r*.s*.t*.u*.v*.w*.x*.y*.z*.A*.3D B*.C*.D*.E*.F*.G*.H*.I*.J*.K*.L*.M*.N*.O*.P*.Q*.R*.S*.T*.U*.V*.W*.X*.Y*.Z*.`*. =..=.#*.dy +=.FA <| <| pX ^: ^: e( e( e( e( k/ vm N] vm k/ vm k/ k/ T< T< %< pX eW eW pX <| @=.8C #=.$=.$=.%=.dW &=.*=.==.0V -=.n2 ;=.>=.,=.'=.)=.!=.~=.{=.]=.^=./=.(=._=.:=.<=.[=.}=.|=.1=.2=.3=.4=.5=.6=.7=.8=.9=.0=.3c a=.b=.c=.d=.e=.f=.g=.   ",
"h=.i=.j=.k=.l=.m=.n=.o=.p=.q=.r=.s=.t=.u=.v=.w=.x=.y=.>[ z=.A=.B=.C=.D=.E=.F=.G=.H=.I=.J=.K=.L=.M=.N=.O=.P=.ZF Q=.R=.S=.T=.U=.V=.W=.<V X=.9_ Y=.Z=.`=. -.oB .-.V{ .-..-.+-.nB dW #*.@-.U{ @-.EA EA 4V #-.$-.%-.4V 4V &-.*-.=-.Rg 3V --.;-.;-.>-.9( ): ,-.'-.)-.!-.~-.{-.]-.^-./-.(-._-.:-.<-.[-.rf }-.|-.1-.2-.3-.4-.5-.6-.|$ 7-.8-.9-.0-.a-.b-.c-.d-.e-.f-.g-.h-.i-.j-.k-.l-.m-.n-.o-.p-.q-.   ",
"r-.s-.t-.u-.v-.w-.x-.y-.z-.A-.B-.C-.D-.E-.F-.G-.H-.I-.J-.K-.L-.M-.N-.O-.P-.Q-.R-.S-.T-.U-.V-.W-.X-.Y-.sW Z-.`-. ;..;.+;.@;.#;.$;.%;.&;.*;.=;.-;.;;.>;.,;.';.);.*T !;.~;.{;.];.0w ];.^;. A /;.h( (;.;-._;.:;.;-.<;.[;.[;.};.|;.1;.2;.3;.4;.5;.6;.7;.8;.9;.0;.a;.b;.c;.d;.e;.f;.g;.h;.i;.j;.k;.l;.m;.n;.o;.p;.q;.r;.s;.t;.u;.v;.w;.x;.y;.z;.A;.B;.C;.D;.E;.F;.G;.H;.I;.J;.K;.L;.M;.N;.O;.P;.Q;.   ",
"R;.S;.G( T;.U;.V;.W;.X;.Y;.Z;.`;. >..>.+>.@>.#>.$>.%>.&>.*>.N| =>.->.;>.>>.,>.'>.)>.!>.~>.{>.]>.^>./>.(>._>.:>.<>.[>.}>.|>.1>.2>.3>.4>.5>.6>.7>.8>.9>.0>.d/ a>.b>.c>.d>.e>.f>.g>.h>.h>.Ev i>.j>.W{ k>.l>.m>.}_ {U ': n>.o>.p>.q>.!*.qB r>.s>.|C t>.u>.v>.w>.x>.y>.z>.A>.B>.C>.D>.E>.tB F>.G>.H>.I>.J>.K>.L>.M>.N>.O>.P>.Q>.R>.S>.T>.U>.V>.W>.X>.Y>.Z>.`>. ,..,.+,.@,.#,.$,.%,.&,.*,.=,.-,.;,.   ",
">,.,,.~^ ',.),.!,.~,.{,.],.^,./,.jQ (,._,.:,.<,.[,.},.|,.1,.2,.3,.4,.5,.6,.7,.8,.9,.0,.a,.b,.7@ c,.|# d,.e,.f,.g,.h,.i,.j,.k,.l,.m,.n,.o,.p,.q,.gZ r,.s,.t,.E .u,.v,.w,.uY x,.tE y,.z,.A,.B,.C,.D,.E,.F,.G,.H,.I,.J,.K,.L,.M,.N,.it O,.P,.Q,.R,.S,.T,.U,.V,.W,.X,.Y,.+ .Z,.`,. '..'.+'.@'.X& IK #'.$'.%'.&'.*'.='.-'.;'.>'.,'.''.)'.!'.~'.{'.]'.LB ^'./'.('._'.:'.<'.['.}'.|'.1'.2'.3'.4'._x    ",
"5'.6'.7'.8'.9'.0'.a'.dx b'.c'.d'.e'.f'.g'.h'.Fd i'.j'.k'.l'.m'.n'.o'.p'.q'.r'.s'.t'.u'.v'.w'.x'.y'.z'.A'.B'.C'.D'.E'.F'.G'.H'.I'.J'.K'.L'.M'.N'..O O'.P'.Q'.@ .R'.S'.T'.U'.V'.Ap W'.X'.Y'.Z'.`'. )..).+).@).#).$).%).&x &).*).n5 =).-).;).>).,).').)).!).~).{).]).]).^)./).()._).:).<).[).}).|).1).2).3).4).5).6).7).8).9).0).a).b).c).d).e).f).g).h).aQ >+.9%.i).y> c& g$ j).k).l).m).n).o).   ",
"p).q).r).s).t).u).v).w).4# x).y).z).A).B).C).D).E).F).G).H).I).J).U/ K).L).M).N).O).sG P).S7 j1 Q).R).S).T).U).V).W).X).Y).Z).to K@ `). !..!.+!.wn @!.#!.DI s- $!.%!.&!.*!.=!.-!.;!.>!.,!.'!.)!.!!.@).~!.{!.]!.^!./!.(!._!.Ip :!.<!.[!.}!.|!.1!.2!.3!.4!.5!.=L 6!.7!.8!.9!.0!.a!.b!.c!.d!.e!.f!.g!.h!.i!.j!.k!.l!.m!.n!.o!.p!.q!.r!.s!.t!.u!.v!.w!.x!.y!.z!.A!.B!.C!.@b ]! D!.C* K, &r E!.E@.   ",
"F!.G!.H!.kI R) I!.J!.-- K!.L!.M!.N!.O!.P!.Q!.R!.S!.T!.U!.V!.W!.X!.Y!.Z!.`!. ~..~.+~.@~.#~.$~.%~.&~.*~.=~.-~.;~.>~.,~.'~.)~.!~.~~.{~.]~.^~./~.(~._~._~.NQ :~.<~.[~.}~.|~.1~.2~.2~.2~.3~.4~.5~.6~.7~.8~.9~.0~.a~.fY b~.c~.d~.e~.f~.k6 g~.m@.h~.i~.j~.k~.l~.m~.n~.o~.p~.q~.r~.s~.t~.u~.v~.w~.x~.y~.z~.A~.B~.C~.D~.E~.Jb F~.G~.H~.I~.J~.K~.L~.M~.N~.kc _S X- O~.P~.Q~.R~.S~.:b T~.U~.V~.W~.X~.Y~.   ",
"Z~.`~. {..{.+{.}{ @{.y> #{.${.%{.&{.*{.={.-{.0'.;{.>{.,{.'{.){.!{.~{.{{.]{.^{./{.({._{.:{.<{.[{.}{.|{.1{.-~.2{.3{.4{.5{.6{.7{.8{.9{.0{.a{.b{.f% ' .c{.d{.e{.f{.g{.09 09 h{.i{.j{.k{.l{.m{.n{.o{.p{.q{.r{.s{.t{.u{.v{.w{.x{.y{.{#.z{.A{.B{.C{.D{.E{.F{.G{.H{.I{.J{.K{.L{.M{.N{.O{.P{.Q{.R{.S{.T{.U{.V{.W{.X{.Y{.Z{.`{.~@  ]..].+].@].#].$].%].&].*].iS =].-].P4 ;].>].,].'].)].!].~].{].]].^].   ",
"/].(]._].mL |@ :].k] <].[].}].|].1].2].3].%~ 4].5].,k 6].7].8].9].0].a].b].c].d].e].f].Yr g].[m h].i].j].k].l].m].n].o].p].q].r].s].t].u].v].E9 w].x].y].z].A].B].C].D].E].F].G].D].H].I].J].K].L].M].N].O].P].Q].R].S].T].U].V& V].W].X].Y].Z].`]. ^..^.+^.@^.#^.2% C3 $^.@^.%^.&^.ma *^.=^.-^.;^.>^.C4 ,^.'^.xb )^.!^.N* ~^.{^.]^.^^./^.(^._^.:^.<^.[^.1q }^.!Q |^.1^.Sc !~ 2^.3^.4^.5^.N-    ",
"!F I7 6^.7^.%w 8^.9^.]L 0^.a^.VF b^.c^.d^.e^.f^.g^.h^.i^.j^.k^.l^.m^.n^.o^.p^.q^.r^.R| s^.|^ dH sb t^.u^.v^.w^.^E x^.y^.z^.W# A^.B^.C^.D^.E^.F^.G^.H^.I^.J^.K^.t{ L^.M^.N^.O^.P^.Q^.R^.d{.y8 S^.T^.U^.V^.W^.X^.Y^.Z^.`^. /../.+/.@/.#/.PP r% $/.%/.YG &/.*/.U1 =/.-/.;/.>/.,/.'/.)/.!/.~/.{/.N$.]/.^/.//.(/.{` _/.:/.</.[/.}/.|/.1/.2/.3/.4/.5/.6/.7/.zO ,3 8/.9/.0/.}2 a/.av b/.c/.7^.)3 d/.   ",
"-- e/.f/.g/.g/.h/.i/.j/.J8 on ~^ k/.>~ l/.m/.n/.o/.p/.q/.7].r/.s/.t/.u/.#u  ~.%^ &w OG v/.Nb jo B' 9/.5v /%.w/.]L x/.O9 y/.z/.A/.B/.C/.D/.E/.F/.G/.H/.I/.J/.K/.L/.M/.w#.N/.u .O/.P/.Q/.P/.R/.S/.T/.U/.V/.W/.X/.Y/.Z/.`/. (..(.+(.@(.#(.$(.%(.IE &(.*(.=(.-(.;(.;(.>(.,(.'(.)(.!(.~(.{(.](.^(./(.((._(.:(.<(.{` [(.xO }(.|(.1(.2(.1/.3(.4(.w_ 5(.6(.7(.8(.9(.0(.a(.b(.c(.Rc d(.e(.av 6^.f(.g(.   ",
"!; &Q h(.i(.j(.k(.3v <^ l(.hm m(.n(.yG o(.p(.q(.r(.s(.t(.u(.v(.w(.x(.y(.z(.A(.B(.'].C(.D(.E(.:~ F(.l] G(.P) H(.[^ H5 Q .I(.J(.K(.L(.M(.N(.O(.P(.Q(.R(.S(.T(.U(.V(.W(.X(.Y(.Z(.`(. _.._.+_.@_.#_.$_.%_.&_.*_.=_.-_.;_.v$ >_.,_.'_.)_.!_.~_.{_.L..]_.^_./_.4^.(_.__.:_.4^.hN <_.jK [_.}_.|_.1_.2_.3_.4_.5_.6_.hN 7_.8_.jK 9_.0_.a_.b_.c_.d_.e_.f_.g_.h_.i_.j_.Pc k_.l_.J} 7^ m_.n_.o_.Qb :b m_.   ",
"Z' p_.q_.>; r_.s_.t_.u_.8^ v_.)3 w_.x_.y_.z_.#{.A_.B_.C_.D_.E_.F_.G_.W^ H_.I_.,3 DF fm J_.K_.L_.M_.N_.O_.P_.Q_.R_.S_.T_.Q .U_.V_.Z1 W_.X_.o).Y_.n~ Z_.`_. :..:.+:.+:.@:.#:.$:.%:.&:.*:.=:.-:.;:.>:.,:.':.):.!:.~:.{:.]:.^:./:.(:._:.::.<:.[:.~F <:.}:.|:.1:.yH 2:.3:.]* oo 4:.5:.6:.7:.E(.8:.9:.0:.a:._{ _{ b:.c:.)> d:.}{ @d e:._] f:.g:.h:.i:.j:.k:.l:.m:.n:.3^.'> p] o:.p:.o:.o:.q:.F#.o:.   ",
"9o 5p z* r:.s_.s:.t:.3I u:.8^ '3 f(.v:./~ V(.w:.x:.y:.z:.A:.B:.C:.-F D:.E:.>3 F:.G:.H:.J_.I:.J:.'3 K:.L:.<] M:.N:.O:.P:.Q:.R:.~1 S:.u..T:.9] L(.'q U:.V:.W:.X:.X:.Y:.Z:.R| `:.lN  <..<.+<.@<.#<.$<.%<.&<.*<.=<.-<.;<.><.,<.'<.)<.!<.~<.{<.]<.^<.-! @{.K:./<.(<._<.:<.W~.V~.=> <<.[<.G:.}<.|<.1<.2<.I!.Sc 3<.b:.mO mO b:.4<.5<.e:.6<.7<.8<.9<.0<.a<.b<.c<.d<.e<.$~ W~.f<.EF g<.G:.h<.J7 o:.[<.   ",
"{%.i<.j<.k<.l<.m<.n<.o<.[N p<.q<.#w r<.s<.t<.u<.h].v<.w<.x<.y<.z<.A<.B<.(I -4 C<.D<.E<.F<.G<.H<.I<.p<.J<.K<.L<.N:.M<.N<.Q:.O<.P<.Q<.81 d@.T:.R<.S<.T<.U<.V<.'..W<.|^ X<.:(.Y<.Z<.`<. [..[.+[.@[.#[.$[.%[.&[.*[.=[.-[.I!.;[.>[.,[.'[.)[.![.~[.{[.][.&^ ^[.b/.!J /[.([._[.8^ !] ][.:[.RE <[.[[.}[.|[.1[.nN 2[.3[.4[.5[.ob 6[.7[.:% 8[.9[.0[.a[.b[.c[.d[.e[.f[.g[.h[.{F i[.|<.G:.j[._<.gm G:.k[.   ",
"Ux $~.j<.#c ZE >m n<.s<.#w #w #w s<.p<.[N l[.m[.W:.n[.o[.p[.q[.r[.6; y> s[.}N t[.u[.(O G#.v[.|a w[.#w Mb x[.y[.z[.6* _%..w r$.A[.d{ B[.C[.E@.0> o{ D[.E[.k~ F[.n{ G[.H[.I[.ko J[.I7 K[./R L[.M[.N[.O[.P[.Q[.M..;..E<.R[.R[.S[.T[.U[.V[._~ W[.,3 /~ X[.a(.c$ Y[.Z[.w+.W~.X[.`[.S) :[.j[. }..}.+}.@}.m] #}.4[.5[.#}.$}.#}.mm %}.&}.*}.z= 0[.=}.-}.c[.;}.rc >}.a/.<_.,}.'}.2<.rG j[.)}.gm [<.rG    ",
"u+.@a j<.#c 2q >m !}.#w I<.r<.~}.YE {}.]}.^}./}.(}.n[._}.:}.<}.[}.ub ~}.q<.G<.q:._b *4 =4 }}.|}.}N 1}.|q w/.2}.3}.<O >}.>].8o 4}.qw 5}.6}.2; 7}.8}.p* 9}.{%.0}.R<.a}.b}.c}.0(.^].)3 |q d}.e}.l[.f}.g}.h}.i}.j}.I5 k}.l}.R[.}a m}.U[.>! n}.o}.B(.p}.)3 q}.!].r}.x# DF W~.X[.`[.S) :[.1<.k[.RE RE s}.x_.t}.ob #}.u}.>{ nN 6@ v}.w}.x}.y}.kp z}.4U A}.B}.C}.D}.`[.E}.F}.G}.:[.H}.j[.rG rG gm RE    "};
