/* XPM */
static char * West_xpm[] = {
"128 128 10517 3",
"   	c None",
".  	c #B89D9C",
"+  	c #C0A6A4",
"@  	c #C4ABA9",
"#  	c #C4ADAA",
"$  	c #BCA7A4",
"%  	c #BAA6A3",
"&  	c #B9A29E",
"*  	c #B89F99",
"=  	c #B89D96",
"-  	c #B79B95",
";  	c #B59993",
">  	c #BDA19B",
",  	c #B19790",
"'  	c #BEA7A0",
")  	c #BDA59D",
"!  	c #BBA39B",
"~  	c #C5ADA5",
"{  	c #BBA49C",
"]  	c #AF978F",
"^  	c #AD958D",
"/  	c #BDA19C",
"(  	c #B1928F",
"_  	c #A58582",
":  	c #A1827F",
"<  	c #A28380",
"[  	c #A68784",
"}  	c #AC8D8A",
"|  	c #AD8E8B",
"1  	c #B39694",
"2  	c #B19795",
"3  	c #AF9494",
"4  	c #B59A99",
"5  	c #BFA4A3",
"6  	c #C0A6A5",
"7  	c #AA8F8E",
"8  	c #B79D9F",
"9  	c #B09298",
"0  	c #A5878D",
"a  	c #96797B",
"b  	c #8C7272",
"c  	c #8B7978",
"d  	c #847E7C",
"e  	c #747573",
"f  	c #7A7E7D",
"g  	c #888889",
"h  	c #8E8182",
"i  	c #A78F8C",
"j  	c #B3A29A",
"k  	c #BAB1A7",
"l  	c #BAAFA5",
"m  	c #B6A5A5",
"n  	c #C7B6B8",
"o  	c #CEBBBD",
"p  	c #CAB6B7",
"q  	c #D0BBBB",
"r  	c #D6C1C0",
"s  	c #D7C1BF",
"t  	c #D8C1C0",
"u  	c #D5BDBC",
"v  	c #D7BCC0",
"w  	c #C4A8AC",
"x  	c #CCB1B5",
"y  	c #BFA3A7",
"z  	c #C9ADB1",
"A  	c #D1B8BB",
"B  	c #BEB2B5",
"C  	c #C3BBBC",
"D  	c #B7B1B2",
"E  	c #ACA3A5",
"F  	c #AA9EA1",
"G  	c #BCA6AC",
"H  	c #D2B3BC",
"I  	c #D9BAC1",
"J  	c #CCB3B1",
"K  	c #CEB4B2",
"L  	c #C6AEAC",
"M  	c #C7AEAC",
"N  	c #C8AFAD",
"O  	c #B19394",
"P  	c #B89498",
"Q  	c #BA9B9B",
"R  	c #AA8E8D",
"S  	c #917575",
"T  	c #B89DA4",
"U  	c #BDA9B2",
"V  	c #A29CA5",
"W  	c #878C97",
"X  	c #8B8896",
"Y  	c #948C97",
"Z  	c #92888F",
"`  	c #918282",
" . 	c #8B7B7B",
".. 	c #9A8A8B",
"+. 	c #9A8D90",
"@. 	c #9D9196",
"#. 	c #9F9398",
"$. 	c #AA9CA1",
"%. 	c #AA9CA2",
"&. 	c #A8979D",
"*. 	c #A6959B",
"=. 	c #A6949A",
"-. 	c #A7959A",
";. 	c #A8969B",
">. 	c #A9979C",
",. 	c #8D7B80",
"'. 	c #A39196",
"). 	c #AA989D",
"!. 	c #C1ADAF",
"~. 	c #C1ABAD",
"{. 	c #B6A3A4",
"]. 	c #C1AEAE",
"^. 	c #B8A6A6",
"/. 	c #BAA9A9",
"(. 	c #C1B1B0",
"_. 	c #BBABA9",
":. 	c #B2A4A0",
"<. 	c #B1A29D",
"[. 	c #B09F9A",
"}. 	c #AD9A96",
"|. 	c #B39C9A",
"1. 	c #B39A99",
"2. 	c #AE9493",
"3. 	c #956565",
"4. 	c #A07070",
"5. 	c #A67878",
"6. 	c #A27675",
"7. 	c #A47978",
"8. 	c #A17876",
"9. 	c #A07370",
"0. 	c #9C6D68",
"a. 	c #976761",
"b. 	c #91625C",
"c. 	c #8C5D58",
"d. 	c #895A55",
"e. 	c #8B5D57",
"f. 	c #885954",
"g. 	c #855A55",
"h. 	c #815651",
"i. 	c #7B514C",
"j. 	c #855B55",
"k. 	c #815650",
"l. 	c #885C56",
"m. 	c #875A55",
"n. 	c #8B5B59",
"o. 	c #8D5C59",
"p. 	c #8F5E5B",
"q. 	c #92615E",
"r. 	c #946361",
"s. 	c #976663",
"t. 	c #986765",
"u. 	c #906160",
"v. 	c #936463",
"w. 	c #966665",
"x. 	c #996A69",
"y. 	c #9C6C6B",
"z. 	c #7D4E4E",
"A. 	c #906364",
"B. 	c #926768",
"C. 	c #885D5D",
"D. 	c #845B5A",
"E. 	c #876462",
"F. 	c #866C6C",
"G. 	c #817778",
"H. 	c #918E90",
"I. 	c #99999B",
"J. 	c #A39192",
"K. 	c #9A7A7B",
"L. 	c #996C6A",
"M. 	c #956C67",
"N. 	c #85635B",
"O. 	c #89645E",
"P. 	c #946A67",
"Q. 	c #956D68",
"R. 	c #8E6561",
"S. 	c #8A615C",
"T. 	c #89605A",
"U. 	c #8D625B",
"V. 	c #94675F",
"W. 	c #956860",
"X. 	c #90625B",
"Y. 	c #8B5E58",
"Z. 	c #8A5A55",
"`. 	c #895B55",
" + 	c #90625D",
".+ 	c #92625C",
"++ 	c #895A54",
"@+ 	c #92645E",
"#+ 	c #825B56",
"$+ 	c #8D6862",
"%+ 	c #97736D",
"&+ 	c #A27E77",
"*+ 	c #9E7871",
"=+ 	c #956A66",
"-+ 	c #936462",
";+ 	c #916160",
">+ 	c #855B59",
",+ 	c #7A5150",
"'+ 	c #7B5150",
")+ 	c #865B5A",
"!+ 	c #906463",
"~+ 	c #966A68",
"{+ 	c #976969",
"]+ 	c #97696A",
"^+ 	c #8C6463",
"/+ 	c #916A67",
"(+ 	c #936B68",
"_+ 	c #967074",
":+ 	c #B5989F",
"<+ 	c #B7A7AE",
"[+ 	c #A4A2AB",
"}+ 	c #B1ACB6",
"|+ 	c #B7ACB3",
"1+ 	c #AA9A9D",
"2+ 	c #A48B8A",
"3+ 	c #A38786",
"4+ 	c #A88987",
"5+ 	c #997979",
"6+ 	c #8F6D6C",
"7+ 	c #8C6A66",
"8+ 	c #8E6B68",
"9+ 	c #8D6765",
"0+ 	c #8B6463",
"a+ 	c #835C5B",
"b+ 	c #815959",
"c+ 	c #7E5656",
"d+ 	c #795250",
"e+ 	c #7B5451",
"f+ 	c #805855",
"g+ 	c #774F4D",
"h+ 	c #774C49",
"i+ 	c #815957",
"j+ 	c #79514E",
"k+ 	c #855C5E",
"l+ 	c #795355",
"m+ 	c #7D5657",
"n+ 	c #7E595A",
"o+ 	c #8F696A",
"p+ 	c #846161",
"q+ 	c #856262",
"r+ 	c #886565",
"s+ 	c #8A6665",
"t+ 	c #84605F",
"u+ 	c #7B5655",
"v+ 	c #835B5B",
"w+ 	c #8B6062",
"x+ 	c #855A5B",
"y+ 	c #885A5C",
"z+ 	c #935C5D",
"A+ 	c #9B6565",
"B+ 	c #A16D6E",
"C+ 	c #9B6968",
"D+ 	c #A1706F",
"E+ 	c #9F6E6C",
"F+ 	c #9B6966",
"G+ 	c #97635E",
"H+ 	c #935E58",
"I+ 	c #8F5A54",
"J+ 	c #8A5550",
"K+ 	c #86514C",
"L+ 	c #87524C",
"M+ 	c #88524D",
"N+ 	c #8A5751",
"O+ 	c #83504B",
"P+ 	c #78443E",
"Q+ 	c #814D47",
"R+ 	c #7F4A45",
"S+ 	c #88544E",
"T+ 	c #86534E",
"U+ 	c #87524E",
"V+ 	c #8B5553",
"W+ 	c #905A57",
"X+ 	c #935D59",
"Y+ 	c #945E5B",
"Z+ 	c #955F5C",
"`+ 	c #965F5E",
" @ 	c #8D5755",
".@ 	c #915A59",
"+@ 	c #925C5B",
"@@ 	c #945E5D",
"#@ 	c #935C5B",
"$@ 	c #996261",
"%@ 	c #864F4E",
"&@ 	c #915D5D",
"*@ 	c #91605F",
"=@ 	c #865655",
"-@ 	c #845755",
";@ 	c #86605E",
">@ 	c #856A6A",
",@ 	c #877C7E",
"'@ 	c #9B989B",
")@ 	c #A3A2A5",
"!@ 	c #A69091",
"~@ 	c #9B7778",
"{@ 	c #996765",
"]@ 	c #966561",
"^@ 	c #885C55",
"/@ 	c #8B5B57",
"(@ 	c #95625E",
"_@ 	c #92615A",
":@ 	c #8D5B53",
"<@ 	c #8A574F",
"[@ 	c #855147",
"}@ 	c #855045",
"|@ 	c #8B5549",
"1@ 	c #8D574B",
"2@ 	c #8A5348",
"3@ 	c #834C41",
"4@ 	c #854C42",
"5@ 	c #834B40",
"6@ 	c #885147",
"7@ 	c #8F574D",
"8@ 	c #834A40",
"9@ 	c #885248",
"0@ 	c #7E4940",
"a@ 	c #83534A",
"b@ 	c #8E6158",
"c@ 	c #9A6F65",
"d@ 	c #956960",
"e@ 	c #8C5A52",
"f@ 	c #89514C",
"g@ 	c #88504B",
"h@ 	c #875251",
"i@ 	c #7C4846",
"j@ 	c #74403E",
"k@ 	c #814D4B",
"l@ 	c #8C5856",
"m@ 	c #915D5B",
"n@ 	c #976262",
"o@ 	c #956262",
"p@ 	c #8A5C5A",
"q@ 	c #8D635E",
"r@ 	c #906462",
"s@ 	c #8C6266",
"t@ 	c #A7888F",
"u@ 	c #B09EA5",
"v@ 	c #A7A3AB",
"w@ 	c #B6B1B9",
"x@ 	c #B9ADB2",
"y@ 	c #A49294",
"z@ 	c #A28584",
"A@ 	c #A28180",
"B@ 	c #A2807E",
"C@ 	c #977272",
"D@ 	c #906765",
"E@ 	c #8D645F",
"F@ 	c #89615D",
"G@ 	c #895D59",
"H@ 	c #875957",
"I@ 	c #825250",
"J@ 	c #7F504D",
"K@ 	c #7B4B48",
"L@ 	c #764541",
"M@ 	c #794943",
"N@ 	c #7F4E48",
"O@ 	c #74433E",
"P@ 	c #6F403A",
"Q@ 	c #784A46",
"R@ 	c #73423C",
"S@ 	c #7C4C4E",
"T@ 	c #764447",
"U@ 	c #7B4C4D",
"V@ 	c #794B4D",
"W@ 	c #875C5E",
"X@ 	c #815657",
"Y@ 	c #815556",
"Z@ 	c #835858",
"`@ 	c #805453",
" # 	c #7C4E4E",
".# 	c #835353",
"+# 	c #815153",
"@# 	c #7F4D4F",
"## 	c #875255",
"$# 	c #985A5A",
"%# 	c #9F6262",
"&# 	c #965B5A",
"*# 	c #A36867",
"=# 	c #A06866",
"-# 	c #965C59",
";# 	c #935651",
"># 	c #945751",
",# 	c #955852",
"'# 	c #935751",
")# 	c #90534D",
"!# 	c #90514D",
"~# 	c #955753",
"{# 	c #A56A64",
"]# 	c #9C615B",
"^# 	c #854943",
"/# 	c #8B5049",
"(# 	c #8E534D",
"_# 	c #945953",
":# 	c #935750",
"<# 	c #975B58",
"[# 	c #985C59",
"}# 	c #9D635F",
"|# 	c #A16662",
"1# 	c #9C615D",
"2# 	c #955A56",
"3# 	c #965956",
"4# 	c #8E504D",
"5# 	c #925250",
"6# 	c #915250",
"7# 	c #8E4F4D",
"8# 	c #9A5B59",
"9# 	c #9C5D5B",
"0# 	c #A66765",
"a# 	c #A06461",
"b# 	c #985E5A",
"c# 	c #8B524E",
"d# 	c #895552",
"e# 	c #875A58",
"f# 	c #856868",
"g# 	c #968A8C",
"h# 	c #AFAAAF",
"i# 	c #B7B3B7",
"j# 	c #A68C8B",
"k# 	c #997070",
"l# 	c #9F6663",
"m# 	c #A26864",
"n# 	c #A16B64",
"o# 	c #9E6460",
"p# 	c #A16460",
"q# 	c #9D615A",
"r# 	c #9F645A",
"s# 	c #9F6257",
"t# 	c #94564B",
"u# 	c #8B4C40",
"v# 	c #8C4C40",
"w# 	c #904F41",
"x# 	c #955447",
"y# 	c #8B4A3C",
"z# 	c #8C4B3E",
"A# 	c #8E4D40",
"B# 	c #945346",
"C# 	c #8C4A3D",
"D# 	c #854437",
"E# 	c #874437",
"F# 	c #7D3A2D",
"G# 	c #7B3B2D",
"H# 	c #834536",
"I# 	c #7F4233",
"J# 	c #7E3E2F",
"K# 	c #844033",
"L# 	c #8C4B43",
"M# 	c #A26563",
"N# 	c #9B5F5C",
"O# 	c #7F4340",
"P# 	c #8E524F",
"Q# 	c #925653",
"R# 	c #9E605F",
"S# 	c #995F5D",
"T# 	c #915C59",
"U# 	c #8A5953",
"V# 	c #885553",
"W# 	c #774748",
"X# 	c #7D565B",
"Y# 	c #927D82",
"Z# 	c #A9A1A7",
"`# 	c #BAB4BA",
" $ 	c #B6A8AA",
".$ 	c #8B7575",
"+$ 	c #967271",
"@$ 	c #976D6C",
"#$ 	c #8D5F5E",
"$$ 	c #926565",
"%$ 	c #936360",
"&$ 	c #94615B",
"*$ 	c #84504A",
"=$ 	c #89524E",
"-$ 	c #8C5450",
";$ 	c #8A514D",
">$ 	c #814743",
",$ 	c #7C433B",
"'$ 	c #874C45",
")$ 	c #8B5149",
"!$ 	c #632B24",
"~$ 	c #6B312A",
"{$ 	c #743A33",
"]$ 	c #7D4445",
"^$ 	c #854C50",
"/$ 	c #8B5556",
"($ 	c #875052",
"_$ 	c #844F51",
":$ 	c #8B5758",
"<$ 	c #8A5859",
"[$ 	c #845151",
"}$ 	c #7E4A4A",
"|$ 	c #824D4D",
"1$ 	c #8E5757",
"2$ 	c #733B3A",
"3$ 	c #7E4545",
"4$ 	c #8F5556",
"5$ 	c #8F4F4A",
"6$ 	c #965752",
"7$ 	c #945852",
"8$ 	c #925651",
"9$ 	c #995F59",
"0$ 	c #9B625B",
"a$ 	c #9B6159",
"b$ 	c #975C52",
"c$ 	c #945A4F",
"d$ 	c #8E5449",
"e$ 	c #8A5044",
"f$ 	c #894F44",
"g$ 	c #91574C",
"h$ 	c #995F55",
"i$ 	c #93584D",
"j$ 	c #8B4F45",
"k$ 	c #8E5549",
"l$ 	c #9B6155",
"m$ 	c #9B5F54",
"n$ 	c #995E52",
"o$ 	c #975D53",
"p$ 	c #92564E",
"q$ 	c #8F544B",
"r$ 	c #925850",
"s$ 	c #965B53",
"t$ 	c #945950",
"u$ 	c #965B52",
"v$ 	c #995D54",
"w$ 	c #95574E",
"x$ 	c #8F4F48",
"y$ 	c #915149",
"z$ 	c #9B5B52",
"A$ 	c #95554D",
"B$ 	c #8D4D46",
"C$ 	c #9F6058",
"D$ 	c #A2625A",
"E$ 	c #97554C",
"F$ 	c #925047",
"G$ 	c #925751",
"H$ 	c #7E4D4A",
"I$ 	c #72585B",
"J$ 	c #9D8F96",
"K$ 	c #B6AFB6",
"L$ 	c #BCB8BD",
"M$ 	c #B49C96",
"N$ 	c #AF8881",
"O$ 	c #9A6058",
"P$ 	c #965D53",
"Q$ 	c #9E665B",
"R$ 	c #A1645C",
"S$ 	c #A2625E",
"T$ 	c #9E5F5C",
"U$ 	c #A3645F",
"V$ 	c #9E5E59",
"W$ 	c #8F4E48",
"X$ 	c #8C4942",
"Y$ 	c #934F47",
"Z$ 	c #8F4B42",
"`$ 	c #8C4A40",
" % 	c #8E4C42",
".% 	c #8D4A40",
"+% 	c #904D43",
"@% 	c #934F46",
"#% 	c #8B483E",
"$% 	c #823E35",
"%% 	c #8C4137",
"&% 	c #8A4035",
"*% 	c #823A2F",
"=% 	c #8E483C",
"-% 	c #904A3D",
";% 	c #8D473B",
">% 	c #8F4A3F",
",% 	c #935146",
"'% 	c #9B5D54",
")% 	c #975950",
"!% 	c #8E4E46",
"~% 	c #8F5048",
"{% 	c #91534A",
"]% 	c #92544B",
"^% 	c #8F4D46",
"/% 	c #924E49",
"(% 	c #8A4A44",
"_% 	c #965850",
":% 	c #965852",
"<% 	c #79403E",
"[% 	c #764547",
"}% 	c #987B7C",
"|% 	c #B2A3A5",
"1% 	c #B6ADAF",
"2% 	c #B6A4A3",
"3% 	c #8E706E",
"4% 	c #9B6866",
"5% 	c #9F6866",
"6% 	c #A06765",
"7% 	c #975E5E",
"8% 	c #905956",
"9% 	c #8D5654",
"0% 	c #864E4D",
"a% 	c #763D3C",
"b% 	c #693232",
"c% 	c #763E3E",
"d% 	c #814544",
"e% 	c #793E3D",
"f% 	c #6D3230",
"g% 	c #6A312E",
"h% 	c #7B3F3D",
"i% 	c #824544",
"j% 	c #874949",
"k% 	c #864847",
"l% 	c #7E4544",
"m% 	c #824848",
"n% 	c #8F5956",
"o% 	c #895351",
"p% 	c #915D59",
"q% 	c #8E5A55",
"r% 	c #8C5956",
"s% 	c #875451",
"t% 	c #834E4A",
"u% 	c #844E4B",
"v% 	c #945D5A",
"w% 	c #88524F",
"x% 	c #96615E",
"y% 	c #8B4C45",
"z% 	c #92554E",
"A% 	c #90554D",
"B% 	c #8F564E",
"C% 	c #965C54",
"D% 	c #986057",
"E% 	c #996056",
"F% 	c #955C50",
"G% 	c #92594D",
"H% 	c #90584C",
"I% 	c #885044",
"J% 	c #854D40",
"K% 	c #844B40",
"L% 	c #8C5448",
"M% 	c #935B4E",
"N% 	c #8E5448",
"O% 	c #8C5347",
"P% 	c #9A6054",
"Q% 	c #9A5F53",
"R% 	c #955B50",
"S% 	c #8B5147",
"T% 	c #8F554A",
"U% 	c #93584F",
"V% 	c #92584D",
"W% 	c #995D53",
"X% 	c #97594F",
"Y% 	c #915249",
"Z% 	c #93534A",
"`% 	c #9D5E54",
" & 	c #93544A",
".& 	c #8A4A41",
"+& 	c #9C5D54",
"@& 	c #A26157",
"#& 	c #965247",
"$& 	c #935045",
"%& 	c #90544D",
"&& 	c #774542",
"*& 	c #6D5458",
"=& 	c #A19299",
"-& 	c #B9B1B9",
";& 	c #BFBABF",
">& 	c #B59E97",
",& 	c #B18B83",
"'& 	c #9C6559",
")& 	c #A1635A",
"!& 	c #A0605D",
"~& 	c #9D5E5C",
"{& 	c #A36360",
"]& 	c #9D5C59",
"^& 	c #8F4E4A",
"/& 	c #8E4B45",
"(& 	c #945049",
"_& 	c #8E4A44",
":& 	c #8A4840",
"<& 	c #904E46",
"[& 	c #8E4C44",
"}& 	c #8C4A42",
"|& 	c #8F4C44",
"1& 	c #914E47",
"2& 	c #8A473F",
"3& 	c #813D35",
"4& 	c #8D4239",
"5& 	c #8B4036",
"6& 	c #833A30",
"7& 	c #90483E",
"8& 	c #934B40",
"9& 	c #90493F",
"0& 	c #924D42",
"a& 	c #965448",
"b& 	c #995B50",
"c& 	c #95574C",
"d& 	c #905047",
"e& 	c #8D4F45",
"f& 	c #925449",
"g& 	c #925349",
"h& 	c #8F4842",
"i& 	c #89453D",
"j& 	c #96564D",
"k& 	c #985750",
"l& 	c #7B3E3C",
"m& 	c #784244",
"n& 	c #9A797A",
"o& 	c #B4A3A3",
"p& 	c #B5ACAC",
"q& 	c #B3A09F",
"r& 	c #8E6D6B",
"s& 	c #9B6563",
"t& 	c #9F6563",
"u& 	c #A16765",
"v& 	c #965C5B",
"w& 	c #905958",
"x& 	c #8C5655",
"y& 	c #834C4C",
"z& 	c #733B3C",
"A& 	c #60292B",
"B& 	c #6E3637",
"C& 	c #7A4041",
"D& 	c #74393A",
"E& 	c #672D2E",
"F& 	c #622929",
"G& 	c #793D3D",
"H& 	c #844848",
"I& 	c #894C4D",
"J& 	c #874A4A",
"K& 	c #7C4542",
"L& 	c #7F4644",
"M& 	c #8D5954",
"N& 	c #895450",
"O& 	c #925F59",
"P& 	c #8E5A54",
"Q& 	c #8C5A55",
"R& 	c #885450",
"S& 	c #834F4B",
"T& 	c #854F4B",
"U& 	c #8C5653",
"V& 	c #8D5855",
"W& 	c #8A5551",
"X& 	c #98635F",
"Y& 	c #844942",
"Z& 	c #854B43",
"`& 	c #8E564D",
" * 	c #8F584F",
".* 	c #925E53",
"+* 	c #935F55",
"@* 	c #8E5B4F",
"#* 	c #8C584A",
"$* 	c #8C5849",
"%* 	c #865143",
"&* 	c #784436",
"** 	c #794638",
"=* 	c #754133",
"-* 	c #7D493C",
";* 	c #8A5548",
">* 	c #824C3E",
",* 	c #865041",
"'* 	c #8B5548",
")* 	c #8F574A",
"!* 	c #90594C",
"~* 	c #8D5549",
"{* 	c #8F564C",
"]* 	c #91584D",
"^* 	c #90574C",
"/* 	c #8F564B",
"(* 	c #90584D",
"_* 	c #92594E",
":* 	c #985E52",
"<* 	c #9F6458",
"[* 	c #9C6055",
"}* 	c #9D6156",
"|* 	c #8E5348",
"1* 	c #8D5246",
"2* 	c #92574C",
"3* 	c #9C5D53",
"4* 	c #904D44",
"5* 	c #945047",
"6* 	c #783C35",
"7* 	c #4B1512",
"8* 	c #6A5458",
"9* 	c #A9989E",
"0* 	c #BEB6BE",
"a* 	c #C5C1C6",
"b* 	c #AB948C",
"c* 	c #A37F76",
"d* 	c #9E685D",
"e* 	c #9C6659",
"f* 	c #976456",
"g* 	c #985F54",
"h* 	c #965B58",
"i* 	c #945959",
"j* 	c #9A5F5E",
"k* 	c #975959",
"l* 	c #965856",
"m* 	c #985955",
"n* 	c #955550",
"o* 	c #8E4C49",
"p* 	c #8E4F4A",
"q* 	c #965854",
"r* 	c #8A4B47",
"s* 	c #894B47",
"t* 	c #824440",
"u* 	c #8D4E4A",
"v* 	c #874844",
"w* 	c #7E3F39",
"x* 	c #8C4941",
"y* 	c #7F3A33",
"z* 	c #823C35",
"A* 	c #914A44",
"B* 	c #8D4A42",
"C* 	c #925249",
"D* 	c #9E5E54",
"E* 	c #975A4F",
"F* 	c #92554A",
"G* 	c #8A4D42",
"H* 	c #84473C",
"I* 	c #985C51",
"J* 	c #905348",
"K* 	c #88463D",
"L* 	c #8A413B",
"M* 	c #8A453D",
"N* 	c #8F4C45",
"O* 	c #83413F",
"P* 	c #875051",
"Q* 	c #9C7978",
"R* 	c #AF9F9F",
"S* 	c #B8AFAF",
"T* 	c #A89593",
"U* 	c #856361",
"V* 	c #9A615D",
"W* 	c #9B605E",
"X* 	c #915B59",
"Y* 	c #935F60",
"Z* 	c #8A595A",
"`* 	c #845254",
" = 	c #844F52",
".= 	c #6B373B",
"+= 	c #5F292F",
"@= 	c #5C252A",
"#= 	c #612B2E",
"$= 	c #743E41",
"%= 	c #6E383B",
"&= 	c #773F41",
"*= 	c #7C4446",
"== 	c #81484B",
"-= 	c #7F4648",
";= 	c #774240",
">= 	c #78453F",
",= 	c #885650",
"'= 	c #83534C",
")= 	c #8F5E57",
"!= 	c #8E5F58",
"~= 	c #8A5B53",
"{= 	c #875751",
"]= 	c #86534F",
"^= 	c #895752",
"/= 	c #8D5C57",
"(= 	c #8A5954",
"_= 	c #885752",
":= 	c #946560",
"<= 	c #7F413C",
"[= 	c #7F443F",
"}= 	c #8D534D",
"|= 	c #8E544F",
"1= 	c #8C564F",
"2= 	c #89544A",
"3= 	c #824F42",
"4= 	c #7B473B",
"5= 	c #7C483D",
"6= 	c #7E4B3F",
"7= 	c #7E4B3E",
"8= 	c #824E44",
"9= 	c #8B554A",
"0= 	c #895146",
"a= 	c #895247",
"b= 	c #8C5549",
"c= 	c #895145",
"d= 	c #955A52",
"e= 	c #985C53",
"f= 	c #975A52",
"g= 	c #94584F",
"h= 	c #90534B",
"i= 	c #894C44",
"j= 	c #884A42",
"k= 	c #8C4E46",
"l= 	c #8C4F45",
"m= 	c #92564A",
"n= 	c #8D5045",
"o= 	c #96584E",
"p= 	c #93554A",
"q= 	c #8B4F48",
"r= 	c #8E524B",
"s= 	c #7F4944",
"t= 	c #653937",
"u= 	c #776062",
"v= 	c #AC9FA4",
"w= 	c #C3BDC4",
"x= 	c #CDC9CD",
"y= 	c #A58882",
"z= 	c #A67C77",
"A= 	c #9D635A",
"B= 	c #9B6459",
"C= 	c #926153",
"D= 	c #956055",
"E= 	c #955C57",
"F= 	c #975E5B",
"G= 	c #985E59",
"H= 	c #935753",
"I= 	c #90544E",
"J= 	c #91544D",
"K= 	c #92544C",
"L= 	c #8F5049",
"M= 	c #874A44",
"N= 	c #915552",
"O= 	c #915551",
"P= 	c #945956",
"Q= 	c #925754",
"R= 	c #975C58",
"S= 	c #905651",
"T= 	c #935C4F",
"U= 	c #8C5246",
"V= 	c #87483E",
"W= 	c #8B473F",
"X= 	c #914C44",
"Y= 	c #94534A",
"Z= 	c #9A5A50",
"`= 	c #99594F",
" - 	c #95564B",
".- 	c #8F4E45",
"+- 	c #8C4C42",
"@- 	c #925348",
"#- 	c #8B4B41",
"$- 	c #87403A",
"%- 	c #8C4940",
"&- 	c #8D4D43",
"*- 	c #904F47",
"=- 	c #834340",
"-- 	c #844E4E",
";- 	c #9B7A79",
">- 	c #AD9F9D",
",- 	c #AFA9A8",
"'- 	c #AC9B99",
")- 	c #8B6B69",
"!- 	c #905D5B",
"~- 	c #915B57",
"{- 	c #8F5A57",
"]- 	c #895E59",
"^- 	c #8E615E",
"/- 	c #885A58",
"(- 	c #825453",
"_- 	c #7E4E4D",
":- 	c #7D4D4D",
"<- 	c #734342",
"[- 	c #703F3E",
"}- 	c #724040",
"|- 	c #744240",
"1- 	c #764241",
"2- 	c #723F3D",
"3- 	c #72403E",
"4- 	c #7B4847",
"5- 	c #804C4A",
"6- 	c #7E4A49",
"7- 	c #784341",
"8- 	c #76413F",
"9- 	c #85524E",
"0- 	c #85534F",
"a- 	c #875550",
"b- 	c #85544F",
"c- 	c #7F504B",
"d- 	c #7D4C48",
"e- 	c #804B49",
"f- 	c #854E4D",
"g- 	c #8A5554",
"h- 	c #8D5957",
"i- 	c #8A5855",
"j- 	c #8B5B58",
"k- 	c #956663",
"l- 	c #7A3C38",
"m- 	c #7D403C",
"n- 	c #8B514D",
"o- 	c #8B524D",
"p- 	c #87514C",
"q- 	c #86504B",
"r- 	c #834F47",
"s- 	c #7C483E",
"t- 	c #734135",
"u- 	c #744036",
"v- 	c #7C493E",
"w- 	c #7D4B40",
"x- 	c #7E4C41",
"y- 	c #814F45",
"z- 	c #885349",
"A- 	c #875046",
"B- 	c #895248",
"C- 	c #8C554B",
"D- 	c #864E44",
"E- 	c #8A5248",
"F- 	c #985C54",
"G- 	c #9B5D56",
"H- 	c #995953",
"I- 	c #955650",
"J- 	c #91514B",
"K- 	c #85453F",
"L- 	c #83423B",
"M- 	c #894741",
"N- 	c #87473E",
"O- 	c #8C4E43",
"P- 	c #8C4D42",
"Q- 	c #86473D",
"R- 	c #995A50",
"S- 	c #95564C",
"T- 	c #935449",
"U- 	c #8D5048",
"V- 	c #8A514B",
"W- 	c #8B534E",
"X- 	c #724746",
"Y- 	c #81696B",
"Z- 	c #AFA4A9",
"`- 	c #C4C0C6",
" ; 	c #D1CCD0",
".; 	c #A2817D",
"+; 	c #A87A77",
"@; 	c #9C605A",
"#; 	c #9A6359",
"$; 	c #906052",
"%; 	c #936055",
"&; 	c #955C56",
"*; 	c #99615B",
"=; 	c #975D56",
"-; 	c #90564F",
";; 	c #8D5149",
">; 	c #8D5148",
",; 	c #8F5349",
"'; 	c #8F5248",
"); 	c #844842",
"!; 	c #8E5451",
"~; 	c #995F5C",
"{; 	c #9C625E",
"]; 	c #9A605D",
"^; 	c #975F5A",
"/; 	c #966455",
"(; 	c #915A4D",
"_; 	c #8A4E42",
":; 	c #89473E",
"<; 	c #904C44",
"[; 	c #955249",
"}; 	c #94544A",
"|; 	c #98584E",
"1; 	c #99574E",
"2; 	c #96554B",
"3; 	c #914F46",
"4; 	c #904D45",
"5; 	c #904F45",
"6; 	c #863F39",
"7; 	c #8D4A41",
"8; 	c #8D4F44",
"9; 	c #915148",
"0; 	c #834441",
"a; 	c #9A7A79",
"b; 	c #AC9F9E",
"c; 	c #A9A5A4",
"d; 	c #AD9B9A",
"e; 	c #8D6F6D",
"f; 	c #8C5B59",
"g; 	c #8B5854",
"h; 	c #875753",
"i; 	c #855F59",
"j; 	c #89605C",
"k; 	c #855956",
"l; 	c #815450",
"m; 	c #7B4E4B",
"n; 	c #784A48",
"o; 	c #744543",
"p; 	c #744442",
"q; 	c #774644",
"r; 	c #784844",
"s; 	c #74433F",
"t; 	c #71413D",
"u; 	c #6E3E3B",
"v; 	c #794845",
"w; 	c #7C4A48",
"x; 	c #784241",
"y; 	c #83504E",
"z; 	c #865350",
"A; 	c #82514D",
"B; 	c #804F4B",
"C; 	c #7A4945",
"D; 	c #784644",
"E; 	c #7C4646",
"F; 	c #834B4C",
"G; 	c #8A5354",
"H; 	c #8B5757",
"I; 	c #8A5856",
"J; 	c #8C5C5A",
"K; 	c #956664",
"L; 	c #7A3A38",
"M; 	c #7E3D3C",
"N; 	c #884B4A",
"O; 	c #854A47",
"P; 	c #804744",
"Q; 	c #7D4643",
"R; 	c #7C4640",
"S; 	c #78443C",
"T; 	c #723F36",
"U; 	c #713D34",
"V; 	c #77433A",
"W; 	c #77443B",
"X; 	c #7B473F",
"Y; 	c #7D4941",
"Z; 	c #824C44",
"`; 	c #804A42",
" > 	c #854E46",
".> 	c #8A524A",
"+> 	c #895049",
"@> 	c #8C524A",
"#> 	c #8D534B",
"$> 	c #9C5C58",
"%> 	c #9F5E59",
"&> 	c #9B5A55",
"*> 	c #995551",
"=> 	c #914E4A",
"-> 	c #7F3A36",
";> 	c #8B4541",
">> 	c #924C46",
",> 	c #924F47",
"'> 	c #9A574F",
")> 	c #99564E",
"!> 	c #96544C",
"~> 	c #96534B",
"{> 	c #93564F",
"]> 	c #955F5B",
"^> 	c #925E5A",
"/> 	c #90605D",
"(> 	c #9C7472",
"_> 	c #B59A9A",
":> 	c #C6BABE",
"<> 	c #BAB6BC",
"[> 	c #C7C2C7",
"}> 	c #A77D7D",
"|> 	c #AB7677",
"1> 	c #A2615D",
"2> 	c #985D55",
"3> 	c #986459",
"4> 	c #976059",
"5> 	c #9A5E57",
"6> 	c #A1675C",
"7> 	c #955B4E",
"8> 	c #8A4F43",
"9> 	c #86493D",
"0> 	c #86483A",
"a> 	c #88493A",
"b> 	c #8D4E40",
"c> 	c #8F534C",
"d> 	c #9C5F59",
"e> 	c #975B55",
"f> 	c #9F635C",
"g> 	c #9E615B",
"h> 	c #965B54",
"i> 	c #945A51",
"j> 	c #936351",
"k> 	c #8F5B4A",
"l> 	c #8F5345",
"m> 	c #8E4B40",
"n> 	c #8F493E",
"o> 	c #924E42",
"p> 	c #975448",
"q> 	c #965349",
"r> 	c #904943",
"s> 	c #8C453F",
"t> 	c #9D554F",
"u> 	c #954E48",
"v> 	c #833C36",
"w> 	c #88433C",
"x> 	c #83433A",
"y> 	c #8F5148",
"z> 	c #864946",
"A> 	c #814F4E",
"B> 	c #9C8080",
"C> 	c #B2A5A5",
"D> 	c #AAA6A7",
"E> 	c #A89A9A",
"F> 	c #8A6C6D",
"G> 	c #875754",
"H> 	c #835653",
"I> 	c #83625D",
"J> 	c #845C55",
"K> 	c #81554D",
"L> 	c #7F534C",
"M> 	c #7A4D47",
"N> 	c #6D3F3A",
"O> 	c #6C3E38",
"P> 	c #70413A",
"Q> 	c #75453E",
"R> 	c #70403A",
"S> 	c #6F3F37",
"T> 	c #73433B",
"U> 	c #78473F",
"V> 	c #78463E",
"W> 	c #7B4444",
"X> 	c #773F40",
"Y> 	c #865050",
"Z> 	c #8A5454",
"`> 	c #824D4C",
" , 	c #7D4746",
"., 	c #794242",
"+, 	c #793F42",
"@, 	c #804449",
"#, 	c #884C51",
"$, 	c #884E52",
"%, 	c #8C5558",
"&, 	c #915C5E",
"*, 	c #976465",
"=, 	c #773835",
"-, 	c #7B3D3A",
";, 	c #824743",
">, 	c #824844",
",, 	c #7C4440",
"', 	c #78423D",
"), 	c #75403B",
"!, 	c #74413A",
"~, 	c #6F3D36",
"{, 	c #6D3B34",
"], 	c #724139",
"^, 	c #72423B",
"/, 	c #75453D",
"(, 	c #77463E",
"_, 	c #7A453F",
":, 	c #7C4740",
"<, 	c #7E4941",
"[, 	c #854E47",
"}, 	c #864F47",
"|, 	c #965953",
"1, 	c #945650",
"2, 	c #92534D",
"3, 	c #8B4B46",
"4, 	c #793631",
"5, 	c #87433E",
"6, 	c #8D4A43",
"7, 	c #94524A",
"8, 	c #97564D",
"9, 	c #925149",
"0, 	c #95554C",
"a, 	c #8F4E46",
"b, 	c #8F524C",
"c, 	c #905957",
"d, 	c #8E5A57",
"e, 	c #8B5C59",
"f, 	c #946D6C",
"g, 	c #AD9394",
"h, 	c #C3B8BC",
"i, 	c #BDBBC0",
"j, 	c #C9C4C9",
"k, 	c #A07676",
"l, 	c #A67070",
"m, 	c #9E5C59",
"n, 	c #9B5E56",
"o, 	c #9A655C",
"p, 	c #9A635D",
"q, 	c #9C6058",
"r, 	c #A06458",
"s, 	c #94584B",
"t, 	c #8A4D40",
"u, 	c #884A3C",
"v, 	c #884A3B",
"w, 	c #8C4E3F",
"x, 	c #945546",
"y, 	c #905245",
"z, 	c #9E5F56",
"A, 	c #985A51",
"B, 	c #9F6258",
"C, 	c #9C5E56",
"D, 	c #92564D",
"E, 	c #965B50",
"F, 	c #905D4D",
"G, 	c #905949",
"H, 	c #925748",
"I, 	c #935346",
"J, 	c #8F4D40",
"K, 	c #8D4B3E",
"L, 	c #915043",
"M, 	c #924E46",
"N, 	c #924D45",
"O, 	c #8F4942",
"P, 	c #8F4941",
"Q, 	c #944C45",
"R, 	c #8F4741",
"S, 	c #833B34",
"T, 	c #854137",
"U, 	c #804034",
"V, 	c #8E4D43",
"W, 	c #854844",
"X, 	c #7B4848",
"Y, 	c #907776",
"Z, 	c #A89E9E",
"`, 	c #A8A5A7",
" ' 	c #AB9D9D",
".' 	c #8A6E6D",
"+' 	c #8B5D59",
"@' 	c #865853",
"#' 	c #805551",
"$' 	c #7F5E5C",
"%' 	c #805A55",
"&' 	c #7D544E",
"*' 	c #774E49",
"=' 	c #794F4A",
"-' 	c #6E4540",
";' 	c #6D433F",
">' 	c #6A3F3A",
",' 	c #693C38",
"'' 	c #6C3F3B",
")' 	c #673834",
"!' 	c #683935",
"~' 	c #6D3E39",
"{' 	c #74443F",
"]' 	c #784742",
"^' 	c #764141",
"/' 	c #703A3B",
"(' 	c #834D4E",
"_' 	c #875152",
":' 	c #7F4949",
"<' 	c #794142",
"[' 	c #783E40",
"}' 	c #7E4447",
"|' 	c #894E51",
"1' 	c #8C5254",
"2' 	c #8A5153",
"3' 	c #8C5557",
"4' 	c #976062",
"5' 	c #753733",
"6' 	c #793D39",
"7' 	c #7C423D",
"8' 	c #7F4741",
"9' 	c #79413C",
"0' 	c #733D38",
"a' 	c #6F3C36",
"b' 	c #6E3D37",
"c' 	c #6B3C35",
"d' 	c #683933",
"e' 	c #6C3E37",
"f' 	c #6E403A",
"g' 	c #6F413B",
"h' 	c #713F39",
"i' 	c #76433C",
"j' 	c #73403A",
"k' 	c #733F38",
"l' 	c #7F4B44",
"m' 	c #7F4A42",
"n' 	c #875049",
"o' 	c #8C544D",
"p' 	c #8C524B",
"q' 	c #8B5048",
"r' 	c #844841",
"s' 	c #71332C",
"t' 	c #73332D",
"u' 	c #83423A",
"v' 	c #87473F",
"w' 	c #94554C",
"x' 	c #94554D",
"y' 	c #94544B",
"z' 	c #8C4D44",
"A' 	c #894940",
"B' 	c #8A4F48",
"C' 	c #8B5453",
"D' 	c #895553",
"E' 	c #865755",
"F' 	c #8D6665",
"G' 	c #A68D8E",
"H' 	c #C0B7BA",
"I' 	c #C0BFC4",
"J' 	c #CBC6CA",
"K' 	c #996F6E",
"L' 	c #A06969",
"M' 	c #9B5856",
"N' 	c #9E5F58",
"O' 	c #9B665E",
"P' 	c #9C6660",
"Q' 	c #9E6259",
"R' 	c #9E6154",
"S' 	c #935547",
"T' 	c #8B4C3E",
"U' 	c #8A4B3C",
"V' 	c #8B4C3D",
"W' 	c #915243",
"X' 	c #9A5B4C",
"Y' 	c #8F5145",
"Z' 	c #9F5F54",
"`' 	c #995A4E",
" ) 	c #9E6054",
".) 	c #9A5B50",
"+) 	c #985C4F",
"@) 	c #8E5749",
"#) 	c #905849",
"$) 	c #955A4C",
"%) 	c #985A4B",
"&) 	c #905042",
"*) 	c #894839",
"=) 	c #894939",
"-) 	c #8C4D3E",
";) 	c #955449",
">) 	c #955248",
",) 	c #8E4941",
"') 	c #924C43",
")) 	c #8B433B",
"!) 	c #893F39",
"~) 	c #833B32",
"{) 	c #833F32",
"]) 	c #7C3D2E",
"^) 	c #89493B",
"/) 	c #8A483C",
"() 	c #844642",
"_) 	c #754343",
":) 	c #846E6D",
"<) 	c #9E9897",
"[) 	c #A7A4A7",
"}) 	c #AD9E9E",
"|) 	c #8A6F6C",
"1) 	c #8A5F58",
"2) 	c #845851",
"3) 	c #7C544F",
"4) 	c #7A5A59",
"5) 	c #7B5653",
"6) 	c #78504C",
"7) 	c #6F4844",
"8) 	c #754F4B",
"9) 	c #6D4743",
"0) 	c #6B4643",
"a) 	c #694440",
"b) 	c #623C38",
"c) 	c #5F3633",
"d) 	c #623836",
"e) 	c #5C302F",
"f) 	c #603332",
"g) 	c #653836",
"h) 	c #6F403E",
"i) 	c #764644",
"j) 	c #703D3D",
"k) 	c #683336",
"l) 	c #7F4A4C",
"m) 	c #834D4F",
"n) 	c #804B4C",
"o) 	c #7A4546",
"p) 	c #7A4445",
"q) 	c #784142",
"r) 	c #773E3F",
"s) 	c #7E4445",
"t) 	c #8A5052",
"u) 	c #905456",
"v) 	c #884E4E",
"w) 	c #874E4F",
"x) 	c #965C5E",
"y) 	c #814B48",
"z) 	c #784441",
"A) 	c #6F3A39",
"B) 	c #713F3C",
"C) 	c #6F3E3C",
"D) 	c #6A3A37",
"E) 	c #653530",
"F) 	c #673731",
"G) 	c #673831",
"H) 	c #63352E",
"I) 	c #643730",
"J) 	c #643832",
"K) 	c #663932",
"L) 	c #673530",
"M) 	c #66342E",
"N) 	c #5A2821",
"O) 	c #65332C",
"P) 	c #703D36",
"Q) 	c #713E36",
"R) 	c #76423A",
"S) 	c #7D4940",
"T) 	c #834A42",
"U) 	c #7E423B",
"V) 	c #763830",
"W) 	c #783831",
"X) 	c #84433C",
"Y) 	c #86453C",
"Z) 	c #88483E",
"`) 	c #8A4B42",
" ! 	c #89493F",
".! 	c #8B4D45",
"+! 	c #894E49",
"@! 	c #8D534F",
"#! 	c #875C5A",
"$! 	c #9B8285",
"%! 	c #C6BAC0",
"&! 	c #C6C4CB",
"*! 	c #C5C3C8",
"=! 	c #957169",
"-! 	c #9F6E68",
";! 	c #A16359",
">! 	c #9F665B",
",! 	c #9A6A5C",
"'! 	c #9A6A5F",
")! 	c #A46B64",
"!! 	c #A0655E",
"~! 	c #8C514A",
"{! 	c #935850",
"]! 	c #9A5E56",
"^! 	c #9D6159",
"/! 	c #995D55",
"(! 	c #975B54",
"_! 	c #8C5149",
":! 	c #9B5F57",
"<! 	c #975C55",
"[! 	c #9A605B",
"}! 	c #965D56",
"|! 	c #945B54",
"1! 	c #985D54",
"2! 	c #9A5D54",
"3! 	c #9B5E54",
"4! 	c #9C5D52",
"5! 	c #97574C",
"6! 	c #914D40",
"7! 	c #914D41",
"8! 	c #965044",
"9! 	c #914A3E",
"0! 	c #8B4136",
"a! 	c #8C3F35",
"b! 	c #8F4439",
"c! 	c #8D4537",
"d! 	c #8A4637",
"e! 	c #8F4B3D",
"f! 	c #8C483D",
"g! 	c #81504F",
"h! 	c #8C7574",
"i! 	c #9D9797",
"j! 	c #A5A0A4",
"k! 	c #AD9B9C",
"l! 	c #856665",
"m! 	c #84554E",
"n! 	c #82514A",
"o! 	c #7B4D48",
"p! 	c #764E4E",
"q! 	c #6F4947",
"r! 	c #6C4441",
"s! 	c #6F4846",
"t! 	c #67413F",
"u! 	c #684341",
"v! 	c #623E3C",
"w! 	c #5C3837",
"x! 	c #593633",
"y! 	c #573532",
"z! 	c #583632",
"A! 	c #593532",
"B! 	c #56312D",
"C! 	c #5A3431",
"D! 	c #633937",
"E! 	c #6A3F3C",
"F! 	c #643636",
"G! 	c #6C3E3C",
"H! 	c #734544",
"I! 	c #774846",
"J! 	c #7C4C4A",
"K! 	c #7E504C",
"L! 	c #7C4E4B",
"M! 	c #82524E",
"N! 	c #885653",
"O! 	c #8B5753",
"P! 	c #8A5451",
"Q! 	c #8A5351",
"R! 	c #85504B",
"S! 	c #844E49",
"T! 	c #7C4845",
"U! 	c #74423F",
"V! 	c #6D3C3B",
"W! 	c #6E3E3C",
"X! 	c #6A3B3A",
"Y! 	c #633735",
"Z! 	c #5D312C",
"`! 	c #5F322C",
" ~ 	c #5E322B",
".~ 	c #5A2E28",
"+~ 	c #582E28",
"@~ 	c #592F29",
"#~ 	c #59302A",
"$~ 	c #5A302A",
"%~ 	c #5C2E28",
"&~ 	c #5E2F2A",
"*~ 	c #53251F",
"=~ 	c #5E2F29",
"-~ 	c #683831",
";~ 	c #693A32",
">~ 	c #6D3B33",
",~ 	c #6E3C35",
"'~ 	c #74423B",
")~ 	c #7A463F",
"!~ 	c #7D453E",
"~~ 	c #7A3F38",
"{~ 	c #74362F",
"]~ 	c #763730",
"^~ 	c #84433D",
"/~ 	c #87463D",
"(~ 	c #87473D",
"_~ 	c #89493E",
":~ 	c #8C4B40",
"<~ 	c #8C4B41",
"[~ 	c #8D4C42",
"}~ 	c #894A42",
"|~ 	c #8A4E48",
"1~ 	c #8D524D",
"2~ 	c #8C5754",
"3~ 	c #875B59",
"4~ 	c #9B8184",
"5~ 	c #C3B8BE",
"6~ 	c #C1BEC6",
"7~ 	c #C6C4CA",
"8~ 	c #96736A",
"9~ 	c #9E6E67",
"0~ 	c #9D6256",
"a~ 	c #9E675A",
"b~ 	c #9A6A5B",
"c~ 	c #A26962",
"d~ 	c #9E645D",
"e~ 	c #915750",
"f~ 	c #8D524C",
"g~ 	c #935851",
"h~ 	c #9C615A",
"i~ 	c #995E58",
"j~ 	c #945952",
"k~ 	c #8A5049",
"l~ 	c #985D57",
"m~ 	c #995E59",
"n~ 	c #955B56",
"o~ 	c #965952",
"p~ 	c #995B53",
"q~ 	c #9A5B52",
"r~ 	c #97564C",
"s~ 	c #955143",
"t~ 	c #955043",
"u~ 	c #954E41",
"v~ 	c #944D40",
"w~ 	c #8E4338",
"x~ 	c #8D4136",
"y~ 	c #904439",
"z~ 	c #8D4437",
"A~ 	c #8B4638",
"B~ 	c #904C3F",
"C~ 	c #8B463B",
"D~ 	c #824642",
"E~ 	c #8B5F5E",
"F~ 	c #98827F",
"G~ 	c #9E9898",
"H~ 	c #A49EA3",
"I~ 	c #A99698",
"J~ 	c #806161",
"K~ 	c #7F4F49",
"L~ 	c #7D4D46",
"M~ 	c #784944",
"N~ 	c #704746",
"O~ 	c #6B4543",
"P~ 	c #653F3B",
"Q~ 	c #66413F",
"R~ 	c #603C39",
"S~ 	c #5E3C3A",
"T~ 	c #583734",
"U~ 	c #533231",
"V~ 	c #50312E",
"W~ 	c #4F322D",
"X~ 	c #50322E",
"Y~ 	c #4F2F2C",
"Z~ 	c #4F2F2A",
"`~ 	c #53302C",
" { 	c #603935",
".{ 	c #5D3432",
"+{ 	c #643937",
"@{ 	c #683D3B",
"#{ 	c #714442",
"${ 	c #774A47",
"%{ 	c #7B4F4B",
"&{ 	c #7A4E4A",
"*{ 	c #84544F",
"={ 	c #87534E",
"-{ 	c #88534F",
";{ 	c #835049",
">{ 	c #844F49",
",{ 	c #935D57",
"'{ 	c #6F3F3D",
"){ 	c #6D3F3E",
"!{ 	c #6B3F3D",
"~{ 	c #653A39",
"{{ 	c #5C3332",
"]{ 	c #552C28",
"^{ 	c #552B25",
"/{ 	c #532A23",
"({ 	c #4F2720",
"_{ 	c #4D261F",
":{ 	c #4C261F",
"<{ 	c #4C2620",
"[{ 	c #4D2620",
"}{ 	c #4F241F",
"|{ 	c #562B25",
"1{ 	c #4F241E",
"2{ 	c #562B24",
"3{ 	c #60332C",
"4{ 	c #64362E",
"5{ 	c #683931",
"6{ 	c #64342D",
"7{ 	c #6A3832",
"8{ 	c #723E37",
"9{ 	c #753E38",
"0{ 	c #733933",
"a{ 	c #71322D",
"b{ 	c #75362F",
"c{ 	c #86433F",
"d{ 	c #8A4A40",
"e{ 	c #8D4C41",
"f{ 	c #88483C",
"g{ 	c #8C4B3F",
"h{ 	c #8D4B40",
"i{ 	c #85453B",
"j{ 	c #8C4F47",
"k{ 	c #8D504A",
"l{ 	c #8B5350",
"m{ 	c #9C8184",
"n{ 	c #BEB2BA",
"o{ 	c #B6B3BC",
"p{ 	c #C9C6CD",
"q{ 	c #98766B",
"r{ 	c #9C6E64",
"s{ 	c #965D4F",
"t{ 	c #9D6859",
"u{ 	c #996B5A",
"v{ 	c #9B6B5E",
"w{ 	c #9D645D",
"x{ 	c #935A54",
"y{ 	c #8D534E",
"z{ 	c #915852",
"A{ 	c #99605A",
"B{ 	c #99605B",
"C{ 	c #925853",
"D{ 	c #935A53",
"E{ 	c #8C534C",
"F{ 	c #874D48",
"G{ 	c #874F49",
"H{ 	c #8D554F",
"I{ 	c #9C625D",
"J{ 	c #8F554F",
"K{ 	c #874E4A",
"L{ 	c #9A5D5C",
"M{ 	c #9C605D",
"N{ 	c #975C59",
"O{ 	c #91534F",
"P{ 	c #91514C",
"Q{ 	c #95544F",
"R{ 	c #97554E",
"S{ 	c #9D5849",
"T{ 	c #9B5647",
"U{ 	c #924A3C",
"V{ 	c #9A5244",
"W{ 	c #93483B",
"X{ 	c #904538",
"Y{ 	c #904539",
"Z{ 	c #8C473B",
"`{ 	c #904D41",
" ] 	c #87453A",
".] 	c #7A413D",
"+] 	c #9F7573",
"@] 	c #AC9492",
"#] 	c #A09C9C",
"$] 	c #A59CA3",
"%] 	c #A48F92",
"&] 	c #795A5A",
"*] 	c #794944",
"=] 	c #784740",
"-] 	c #734440",
";] 	c #69403C",
">] 	c #69423F",
",] 	c #5C3833",
"'] 	c #5C3936",
")] 	c #553533",
"!] 	c #4F302D",
"~] 	c #4A2C2A",
"{] 	c #482C28",
"]] 	c #482E29",
"^] 	c #482E2A",
"/] 	c #442924",
"(] 	c #492C27",
"_] 	c #4B2C28",
":] 	c #502F2B",
"<] 	c #55322E",
"[] 	c #58322F",
"}] 	c #59322F",
"|] 	c #57312C",
"1] 	c #704843",
"2] 	c #784F49",
"3] 	c #794E48",
"4] 	c #794D47",
"5] 	c #7C4E46",
"6] 	c #805048",
"7] 	c #83514B",
"8] 	c #85534B",
"9] 	c #825148",
"0] 	c #835149",
"a] 	c #925E56",
"b] 	c #7E4C47",
"c] 	c #784843",
"d] 	c #623530",
"e] 	c #613631",
"f] 	c #5D332F",
"g] 	c #552E2A",
"h] 	c #4E2924",
"i] 	c #48241F",
"j] 	c #41201A",
"k] 	c #3F1E1A",
"l] 	c #40201C",
"m] 	c #3E201B",
"n] 	c #3F211C",
"o] 	c #462522",
"p] 	c #482623",
"q] 	c #421F1D",
"r] 	c #492623",
"s] 	c #512D29",
"t] 	c #56312C",
"u] 	c #5E3832",
"v] 	c #613936",
"w] 	c #653B38",
"x] 	c #6B3F3C",
"y] 	c #724441",
"z] 	c #774643",
"A] 	c #794442",
"B] 	c #79413F",
"C] 	c #7A403E",
"D] 	c #7E4743",
"E] 	c #824B44",
"F] 	c #884F48",
"G] 	c #854B44",
"H] 	c #895048",
"I] 	c #844B43",
"J] 	c #844A43",
"K] 	c #894F48",
"L] 	c #864B43",
"M] 	c #8C5753",
"N] 	c #885B5A",
"O] 	c #92777B",
"P] 	c #B2A6AF",
"Q] 	c #B9B5C0",
"R] 	c #ACA6AE",
"S] 	c #996F69",
"T] 	c #95615A",
"U] 	c #A1665B",
"V] 	c #A06A5D",
"W] 	c #9B695C",
"X] 	c #9F6960",
"Y] 	c #A3675E",
"Z] 	c #9E6358",
"`] 	c #91564B",
" ^ 	c #985E53",
".^ 	c #A0665A",
"+^ 	c #9A5F54",
"@^ 	c #985D52",
"#^ 	c #9A5D53",
"$^ 	c #96594F",
"%^ 	c #9F6358",
"&^ 	c #8C5046",
"*^ 	c #8B4F44",
"=^ 	c #8E4D46",
"-^ 	c #95524C",
";^ 	c #8D4B44",
">^ 	c #86433B",
",^ 	c #89433B",
"'^ 	c #8C463C",
")^ 	c #8E473D",
"!^ 	c #8E493F",
"~^ 	c #7A3C30",
"{^ 	c #7F4135",
"]^ 	c #87483D",
"^^ 	c #77392E",
"/^ 	c #7E3E32",
"(^ 	c #87473C",
"_^ 	c #84463F",
":^ 	c #743D34",
"<^ 	c #6E3730",
"[^ 	c #6F3D3B",
"}^ 	c #6C4746",
"|^ 	c #8C7D7D",
"1^ 	c #ABA4A6",
"2^ 	c #A99DA6",
"3^ 	c #978189",
"4^ 	c #705256",
"5^ 	c #6D4141",
"6^ 	c #6A3D3B",
"7^ 	c #623734",
"8^ 	c #5D3532",
"9^ 	c #54322E",
"0^ 	c #533330",
"a^ 	c #503230",
"b^ 	c #4B2F2D",
"c^ 	c #452B29",
"d^ 	c #422927",
"e^ 	c #3D2523",
"f^ 	c #39221F",
"g^ 	c #38211E",
"h^ 	c #39211E",
"i^ 	c #3C2220",
"j^ 	c #3E2420",
"k^ 	c #432623",
"l^ 	c #472725",
"m^ 	c #52302D",
"n^ 	c #583332",
"o^ 	c #552E2D",
"p^ 	c #5A3231",
"q^ 	c #69403E",
"r^ 	c #6A413D",
"s^ 	c #724744",
"t^ 	c #754945",
"u^ 	c #774945",
"v^ 	c #7B4A46",
"w^ 	c #804D48",
"x^ 	c #834F4A",
"y^ 	c #8D5752",
"z^ 	c #935C57",
"A^ 	c #7B4A44",
"B^ 	c #724540",
"C^ 	c #5D322C",
"D^ 	c #5A322C",
"E^ 	c #4D2925",
"F^ 	c #452420",
"G^ 	c #3E1F1B",
"H^ 	c #381B17",
"I^ 	c #351A16",
"J^ 	c #341A17",
"K^ 	c #331A16",
"L^ 	c #341B18",
"M^ 	c #381D1C",
"N^ 	c #3A1E1D",
"O^ 	c #371B19",
"P^ 	c #3D201E",
"Q^ 	c #452623",
"R^ 	c #4D2D2A",
"S^ 	c #54322F",
"T^ 	c #593634",
"U^ 	c #5D3836",
"V^ 	c #633C3A",
"W^ 	c #6B413F",
"X^ 	c #724544",
"Y^ 	c #734140",
"Z^ 	c #743E3D",
"`^ 	c #7C4843",
" / 	c #824D47",
"./ 	c #814A45",
"+/ 	c #86514B",
"@/ 	c #814C46",
"#/ 	c #814B45",
"$/ 	c #88504A",
"%/ 	c #844D45",
"&/ 	c #895753",
"*/ 	c #845958",
"=/ 	c #8D7377",
"-/ 	c #ADA1AA",
";/ 	c #B6B2BE",
">/ 	c #A69FA8",
",/ 	c #9B706B",
"'/ 	c #935E59",
")/ 	c #9F655C",
"!/ 	c #9F6A5E",
"~/ 	c #98665B",
"{/ 	c #9E675F",
"]/ 	c #A0645B",
"^/ 	c #9B6255",
"// 	c #92594C",
"(/ 	c #93594E",
"_/ 	c #A1665A",
":/ 	c #9B6154",
"</ 	c #995E53",
"[/ 	c #9C5F54",
"}/ 	c #985B50",
"|/ 	c #A06459",
"1/ 	c #965A4F",
"2/ 	c #8C4F43",
"3/ 	c #975A50",
"4/ 	c #8E4C43",
"5/ 	c #86433A",
"6/ 	c #874138",
"7/ 	c #894238",
"8/ 	c #8B453A",
"9/ 	c #8C473D",
"0/ 	c #73382E",
"a/ 	c #793E33",
"b/ 	c #7E4339",
"c/ 	c #693127",
"d/ 	c #75392E",
"e/ 	c #80453A",
"f/ 	c #874943",
"g/ 	c #80403D",
"h/ 	c #793F3A",
"i/ 	c #6F3C35",
"j/ 	c #6E4140",
"k/ 	c #613D3D",
"l/ 	c #847878",
"m/ 	c #A9A1A5",
"n/ 	c #A499A1",
"o/ 	c #917C84",
"p/ 	c #6A4E53",
"q/ 	c #643C3C",
"r/ 	c #5F3735",
"s/ 	c #59312F",
"t/ 	c #54302C",
"u/ 	c #4B2D2A",
"v/ 	c #482C2B",
"w/ 	c #442B29",
"x/ 	c #3F2826",
"y/ 	c #392322",
"z/ 	c #362120",
"A/ 	c #311E1D",
"B/ 	c #2E1A18",
"C/ 	c #2D1916",
"D/ 	c #311C1A",
"E/ 	c #331C1A",
"F/ 	c #39201E",
"G/ 	c #3E2220",
"H/ 	c #492B29",
"I/ 	c #4E2C2C",
"J/ 	c #4C2828",
"K/ 	c #532E2E",
"L/ 	c #633C3B",
"M/ 	c #663D3D",
"N/ 	c #6E4442",
"O/ 	c #704544",
"P/ 	c #734643",
"Q/ 	c #784846",
"R/ 	c #7D4C47",
"S/ 	c #7F4D49",
"T/ 	c #83504C",
"U/ 	c #8A5652",
"V/ 	c #905B56",
"W/ 	c #915C58",
"X/ 	c #72463E",
"Y/ 	c #653B34",
"Z/ 	c #59322B",
"`/ 	c #522D26",
" ( 	c #492721",
".( 	c #41221D",
"+( 	c #391D1A",
"@( 	c #351C19",
"#( 	c #311B18",
"$( 	c #2B1715",
"%( 	c #261311",
"&( 	c #251311",
"*( 	c #291715",
"=( 	c #251211",
"-( 	c #281413",
";( 	c #2C1615",
">( 	c #2E1817",
",( 	c #331B1A",
"'( 	c #452D2A",
")( 	c #4A2F2F",
"!( 	c #523433",
"~( 	c #583838",
"{( 	c #5E3C3C",
"]( 	c #643F3F",
"^( 	c #684040",
"/( 	c #693E3E",
"(( 	c #663839",
"_( 	c #663836",
":( 	c #6A3D3A",
"<( 	c #6E413F",
"[( 	c #784A47",
"}( 	c #7D4E4B",
"|( 	c #7E4E4A",
"1( 	c #7A4A47",
"2( 	c #7D4E4A",
"3( 	c #81504B",
"4( 	c #82514B",
"5( 	c #7D504C",
"6( 	c #734C4B",
"7( 	c #7D666A",
"8( 	c #9F969E",
"9( 	c #ABA9B3",
"0( 	c #A19AA3",
"a( 	c #A27775",
"b( 	c #905B5A",
"c( 	c #9A685F",
"d( 	c #8D5B55",
"e( 	c #975F5C",
"f( 	c #90554E",
"g( 	c #925A4D",
"h( 	c #996154",
"i( 	c #9B6355",
"j( 	c #9C6557",
"k( 	c #9D6558",
"l( 	c #9B6356",
"m( 	c #9A6255",
"n( 	c #9C6356",
"o( 	c #9C6155",
"p( 	c #965A4E",
"q( 	c #9A5E53",
"r( 	c #94584D",
"s( 	c #8B5044",
"t( 	c #905448",
"u( 	c #91554A",
"v( 	c #9A5A52",
"w( 	c #97574E",
"x( 	c #97584E",
"y( 	c #8D4B41",
"z( 	c #843F34",
"A( 	c #874337",
"B( 	c #89473D",
"C( 	c #723E39",
"D( 	c #723F38",
"E( 	c #592922",
"F( 	c #441915",
"G( 	c #58251E",
"H( 	c #6A3831",
"I( 	c #7E4946",
"J( 	c #673132",
"K( 	c #431311",
"L( 	c #6B433D",
"M( 	c #754E4D",
"N( 	c #5B3D3E",
"O( 	c #7E7677",
"P( 	c #A49DA2",
"Q( 	c #9A9097",
"R( 	c #89777F",
"S( 	c #5F474C",
"T( 	c #512F31",
"U( 	c #4A2829",
"V( 	c #492A28",
"W( 	c #452926",
"X( 	c #442C2B",
"Y( 	c #3A2524",
"Z( 	c #352220",
"`( 	c #301E1E",
" _ 	c #2D1D1C",
"._ 	c #271817",
"+_ 	c #231615",
"@_ 	c #221312",
"#_ 	c #221211",
"$_ 	c #241413",
"%_ 	c #251413",
"&_ 	c #271313",
"*_ 	c #2F1919",
"=_ 	c #361E1E",
"-_ 	c #402626",
";_ 	c #3F2123",
">_ 	c #3F2021",
",_ 	c #452425",
"'_ 	c #583436",
")_ 	c #633D3F",
"!_ 	c #6B4445",
"~_ 	c #6A4142",
"{_ 	c #6C4142",
"]_ 	c #764846",
"^_ 	c #784746",
"/_ 	c #804F4C",
"(_ 	c #8B5A57",
"__ 	c #8E5959",
":_ 	c #593E3E",
"<_ 	c #523939",
"[_ 	c #553F40",
"}_ 	c #503D3D",
"|_ 	c #4C3A3A",
"1_ 	c #443334",
"2_ 	c #392C2D",
"3_ 	c #322728",
"4_ 	c #2C2222",
"5_ 	c #251C1D",
"6_ 	c #1F1717",
"7_ 	c #1D1516",
"8_ 	c #1E1516",
"9_ 	c #201819",
"0_ 	c #21191B",
"a_ 	c #241B1E",
"b_ 	c #31282B",
"c_ 	c #352B2E",
"d_ 	c #382F31",
"e_ 	c #43393B",
"f_ 	c #4D4346",
"g_ 	c #584E4F",
"h_ 	c #605557",
"i_ 	c #695D5F",
"j_ 	c #746668",
"k_ 	c #7A6B6D",
"l_ 	c #7C696C",
"m_ 	c #867376",
"n_ 	c #948286",
"o_ 	c #958286",
"p_ 	c #8D797E",
"q_ 	c #978287",
"r_ 	c #90797F",
"s_ 	c #8A7579",
"t_ 	c #9B868A",
"u_ 	c #A38E93",
"v_ 	c #A38B8E",
"w_ 	c #A88E90",
"x_ 	c #A3888B",
"y_ 	c #9A8183",
"z_ 	c #A19195",
"A_ 	c #B8B3BA",
"B_ 	c #BDBDC6",
"C_ 	c #B6B5BD",
"D_ 	c #AD969C",
"E_ 	c #987B80",
"F_ 	c #907170",
"G_ 	c #9A807D",
"H_ 	c #896F6D",
"I_ 	c #957276",
"J_ 	c #7E585A",
"K_ 	c #997774",
"L_ 	c #9A7974",
"M_ 	c #A68481",
"N_ 	c #997773",
"O_ 	c #896763",
"P_ 	c #8C6965",
"Q_ 	c #8F6B67",
"R_ 	c #906B68",
"S_ 	c #8C6561",
"T_ 	c #966F6D",
"U_ 	c #9D7673",
"V_ 	c #77514F",
"W_ 	c #7D5856",
"X_ 	c #896360",
"Y_ 	c #87625F",
"Z_ 	c #7B5353",
"`_ 	c #866261",
" : 	c #86605F",
".: 	c #7C5453",
"+: 	c #7A514F",
"@: 	c #7B504E",
"#: 	c #7A4E4B",
"$: 	c #784F4D",
"%: 	c #654749",
"&: 	c #6A4E50",
"*: 	c #6F585A",
"=: 	c #796668",
"-: 	c #857071",
";: 	c #867272",
">: 	c #856D6F",
",: 	c #7F656A",
"': 	c #847375",
"): 	c #877977",
"!: 	c #8C7C7A",
"~: 	c #998489",
"{: 	c #9E8C93",
"]: 	c #A49CA4",
"^: 	c #A8A6AD",
"/: 	c #A09DA3",
"(: 	c #90888E",
"_: 	c #7E747A",
":: 	c #776A6F",
"<: 	c #6C6064",
"[: 	c #605456",
"}: 	c #554B4D",
"|: 	c #504547",
"1: 	c #43393C",
"2: 	c #3B3335",
"3: 	c #312A2C",
"4: 	c #2B2527",
"5: 	c #272123",
"6: 	c #231D1F",
"7: 	c #201B1C",
"8: 	c #1F191A",
"9: 	c #20191A",
"0: 	c #221B1C",
"a: 	c #261E1F",
"b: 	c #2B2223",
"c: 	c #281C1E",
"d: 	c #332528",
"e: 	c #332327",
"f: 	c #3C2B31",
"g: 	c #4D3D42",
"h: 	c #544248",
"i: 	c #5B474D",
"j: 	c #675258",
"k: 	c #79656B",
"l: 	c #7C686D",
"m: 	c #7A6368",
"n: 	c #7C6467",
"o: 	c #7E6469",
"p: 	c #81666B",
"q: 	c #83686C",
"r: 	c #886B71",
"s: 	c #514043",
"t: 	c #4D3C3F",
"u: 	c #524245",
"v: 	c #4D3E41",
"w: 	c #493C3E",
"x: 	c #403436",
"y: 	c #352C2E",
"z: 	c #2C2527",
"A: 	c #251E1F",
"B: 	c #1E1819",
"C: 	c #171213",
"D: 	c #141011",
"E: 	c #151011",
"F: 	c #191417",
"G: 	c #1D181A",
"H: 	c #292326",
"I: 	c #2E282B",
"J: 	c #332C30",
"K: 	c #3C3538",
"L: 	c #474144",
"M: 	c #534D4F",
"N: 	c #5E5759",
"O: 	c #686062",
"P: 	c #736A6C",
"Q: 	c #7B7072",
"R: 	c #7E7074",
"S: 	c #8A7C80",
"T: 	c #98888D",
"U: 	c #9C8E93",
"V: 	c #9D8F95",
"W: 	c #978890",
"X: 	c #A09197",
"Y: 	c #968890",
"Z: 	c #928389",
"`: 	c #A7979E",
" < 	c #B0A0A7",
".< 	c #B09DA1",
"+< 	c #B59FA3",
"@< 	c #B19A9E",
"#< 	c #A99497",
"$< 	c #AEA0A4",
"%< 	c #C1BDC4",
"&< 	c #C1C3CA",
"*< 	c #BDBEC6",
"=< 	c #B1A0A9",
"-< 	c #9F8A90",
";< 	c #937E7F",
">< 	c #9D8D8A",
",< 	c #8B7B7A",
"'< 	c #997E84",
")< 	c #7F6569",
"!< 	c #9C8282",
"~< 	c #9C8381",
"{< 	c #AA8F8F",
"]< 	c #998080",
"^< 	c #866E6D",
"/< 	c #8B7271",
"(< 	c #8F7676",
"_< 	c #907474",
":< 	c #8B6E6E",
"<< 	c #977879",
"[< 	c #9D7E7E",
"}< 	c #755B5D",
"|< 	c #7F6467",
"1< 	c #896C6D",
"2< 	c #876A6B",
"3< 	c #795F62",
"4< 	c #886F72",
"5< 	c #856B6D",
"6< 	c #7B5F61",
"7< 	c #7B5C5D",
"8< 	c #7C5B5C",
"9< 	c #795959",
"0< 	c #765859",
"a< 	c #665156",
"b< 	c #6E5A5F",
"c< 	c #7A686B",
"d< 	c #88777A",
"e< 	c #918284",
"f< 	c #908284",
"g< 	c #8B7B7F",
"h< 	c #8A777D",
"i< 	c #938689",
"j< 	c #908887",
"k< 	c #948989",
"l< 	c #A49399",
"m< 	c #AB9CA5",
"n< 	c #ABA4AD",
"o< 	c #A6A6AE",
"p< 	c #9E9CA1",
"q< 	c #8F8990",
"r< 	c #827C81",
"s< 	c #7B7176",
"t< 	c #6D6569",
"u< 	c #5F585A",
"v< 	c #524C4E",
"w< 	c #4C4548",
"x< 	c #3E383B",
"y< 	c #363134",
"z< 	c #2B2729",
"A< 	c #242022",
"B< 	c #1F1C1E",
"C< 	c #1A1719",
"D< 	c #171416",
"E< 	c #161314",
"F< 	c #171314",
"G< 	c #191516",
"H< 	c #1E191B",
"I< 	c #241E20",
"J< 	c #211A1D",
"K< 	c #2C2326",
"L< 	c #2E2529",
"M< 	c #3A2E34",
"N< 	c #4D4247",
"O< 	c #52474C",
"P< 	c #594D53",
"Q< 	c #665A60",
"R< 	c #7B6D74",
"S< 	c #807178",
"T< 	c #7E6E74",
"U< 	c #806F74",
"V< 	c #837176",
"W< 	c #857378",
"X< 	c #87757A",
"Y< 	c #837178",
"Z< 	c #88757B",
"`< 	c #685E67",
" [ 	c #5F575F",
".[ 	c #585058",
"+[ 	c #4F484F",
"@[ 	c #494349",
"#[ 	c #403B3F",
"$[ 	c #353134",
"%[ 	c #2A2629",
"&[ 	c #201D1F",
"*[ 	c #191718",
"=[ 	c #141213",
"-[ 	c #100E0F",
";[ 	c #110F10",
">[ 	c #121011",
",[ 	c #151315",
"'[ 	c #1A171A",
")[ 	c #1C191D",
"![ 	c #232124",
"~[ 	c #2F2D30",
"{[ 	c #353337",
"][ 	c #3D3B3F",
"^[ 	c #504F51",
"/[ 	c #5E5D5F",
"([ 	c #676567",
"_[ 	c #6C6A6B",
":[ 	c #737073",
"<[ 	c #7F7A7E",
"[[ 	c #8A8488",
"}[ 	c #968E94",
"|[ 	c #958E96",
"1[ 	c #9D97A2",
"2[ 	c #AFA9B3",
"3[ 	c #ABA5B0",
"4[ 	c #AEA9B5",
"5[ 	c #ADA8B2",
"6[ 	c #BDB7C3",
"7[ 	c #C4BDC8",
"8[ 	c #C7BDC5",
"9[ 	c #C8BAC1",
"0[ 	c #D0C0C4",
"a[ 	c #D1C0C4",
"b[ 	c #CCC1C6",
"c[ 	c #CDCCD1",
"d[ 	c #B8BDC2",
"e[ 	c #C6CDD5",
"f[ 	c #B1AFB9",
"g[ 	c #BCB5BC",
"h[ 	c #B3AEB0",
"i[ 	c #B6B4B2",
"j[ 	c #A4A2A2",
"k[ 	c #B3A8AE",
"l[ 	c #B2A3AB",
"m[ 	c #A69BA2",
"n[ 	c #ADA1A8",
"o[ 	c #A599A0",
"p[ 	c #9E9299",
"q[ 	c #B0A5AC",
"r[ 	c #A99CA3",
"s[ 	c #AB9CA4",
"t[ 	c #9B8B93",
"u[ 	c #998992",
"v[ 	c #AB9AA2",
"w[ 	c #AF9DA5",
"x[ 	c #9E8E96",
"y[ 	c #9C8B93",
"z[ 	c #B0A5AE",
"A[ 	c #B8AAB4",
"B[ 	c #9C8D95",
"C[ 	c #96878E",
"D[ 	c #95848A",
"E[ 	c #938187",
"F[ 	c #907F85",
"G[ 	c #887B85",
"H[ 	c #948891",
"I[ 	c #978E95",
"J[ 	c #999299",
"K[ 	c #A29EA4",
"L[ 	c #A3A0A5",
"M[ 	c #A6A0A7",
"N[ 	c #AAA2AA",
"O[ 	c #A6A3A8",
"P[ 	c #A3A5A4",
"Q[ 	c #A5A3A3",
"R[ 	c #B5AAB1",
"S[ 	c #B1A5AF",
"T[ 	c #A8A2AD",
"U[ 	c #9FA0A9",
"V[ 	c #939598",
"W[ 	c #8A8A8E",
"X[ 	c #818085",
"Y[ 	c #79767C",
"Z[ 	c #656469",
"`[ 	c #5D5B5F",
" } 	c #4E4F51",
".} 	c #4A494C",
"+} 	c #3D3C3F",
"@} 	c #343235",
"#} 	c #29272A",
"$} 	c #201F21",
"%} 	c #19181A",
"&} 	c #141315",
"*} 	c #111011",
"=} 	c #0E0E0F",
"-} 	c #0F0E0F",
";} 	c #121213",
">} 	c #181719",
",} 	c #1F1E1F",
"'} 	c #272527",
")} 	c #302D2F",
"!} 	c #3B373B",
"~} 	c #474348",
"{} 	c #59545A",
"]} 	c #625E64",
"^} 	c #6E6B71",
"/} 	c #7B797F",
"(} 	c #848188",
"_} 	c #8C898F",
":} 	c #949096",
"<} 	c #9A959B",
"[} 	c #9E98A0",
"}} 	c #A49FA7",
"|} 	c #9E99A1",
"1} 	c #9B959C",
"2} 	c #716668",
"3} 	c #706567",
"4} 	c #695F61",
"5} 	c #5E5556",
"6} 	c #50494A",
"7} 	c #403A3B",
"8} 	c #342F30",
"9} 	c #282425",
"0} 	c #1E1A1B",
"a} 	c #100E0E",
"b} 	c #0B0A0A",
"c} 	c #0A0809",
"d} 	c #0F0D0E",
"e} 	c #141112",
"f} 	c #252629",
"g} 	c #323234",
"h} 	c #3D3A3D",
"i} 	c #4B4747",
"j} 	c #575353",
"k} 	c #605B5B",
"l} 	c #6A6464",
"m} 	c #7A7473",
"n} 	c #8D8585",
"o} 	c #968E8D",
"p} 	c #918889",
"q} 	c #ABA2A2",
"r} 	c #BCB2B2",
"s} 	c #B1A6A7",
"t} 	c #B6A9AB",
"u} 	c #BDB1B0",
"v} 	c #CFC2C0",
"w} 	c #C7BAB9",
"x} 	c #C0B2B3",
"y} 	c #D7C7C8",
"z} 	c #E1D0D0",
"A} 	c #DECCCB",
"B} 	c #DECDCB",
"C} 	c #E3D3D3",
"D} 	c #E3D7D6",
"E} 	c #E2D8D7",
"F} 	c #DFD6D7",
"G} 	c #DAD0D4",
"H} 	c #DFD2D5",
"I} 	c #D3C4C5",
"J} 	c #D5C6C5",
"K} 	c #C8B5B5",
"L} 	c #DAC2C4",
"M} 	c #D2B7BB",
"N} 	c #CFB5B7",
"O} 	c #CEB5B6",
"P} 	c #CCB3B5",
"Q} 	c #C7AFB0",
"R} 	c #CFB8B9",
"S} 	c #D4BEC0",
"T} 	c #C7B5B5",
"U} 	c #C2B3B3",
"V} 	c #CFBDBD",
"W} 	c #D8C5C6",
"X} 	c #CBBABE",
"Y} 	c #C9BDC3",
"Z} 	c #A7A5AE",
"`} 	c #B2B1BB",
" | 	c #C7C1C7",
".| 	c #CDC4C8",
"+| 	c #C6BBBF",
"@| 	c #C3B4B4",
"#| 	c #C4B4B2",
"$| 	c #C2B2B0",
"%| 	c #BEAEAC",
"&| 	c #C1B1B1",
"*| 	c #C3B2B6",
"=| 	c #C4B4B8",
"-| 	c #CBBFC2",
";| 	c #C8BFC1",
">| 	c #BCB6B7",
",| 	c #AFACAC",
"'| 	c #AEADAF",
")| 	c #A6A6A9",
"!| 	c #AEB0B2",
"~| 	c #A6AAA9",
"{| 	c #ABABAB",
"]| 	c #BEB6B7",
"^| 	c #B5AAAD",
"/| 	c #AFA3A9",
"(| 	c #B0A4A9",
"_| 	c #9D9192",
":| 	c #817576",
"<| 	c #7D7273",
"[| 	c #766A6B",
"}| 	c #665B5C",
"|| 	c #5D5453",
"1| 	c #4A4342",
"2| 	c #40393A",
"3| 	c #332D2E",
"4| 	c #2A2526",
"5| 	c #171414",
"6| 	c #100D0D",
"7| 	c #0A0808",
"8| 	c #070606",
"9| 	c #050404",
"0| 	c #060505",
"a| 	c #110F0F",
"b| 	c #1B1919",
"c| 	c #1D1B1D",
"d| 	c #262528",
"e| 	c #3C3A3B",
"f| 	c #494445",
"g| 	c #645859",
"h| 	c #6A6060",
"i| 	c #786D6F",
"j| 	c #847678",
"k| 	c #928487",
"l| 	c #A09696",
"m| 	c #ABA3A1",
"n| 	c #B5ABA9",
"o| 	c #B6ABA8",
"p| 	c #C0B3B1",
"q| 	c #A69694",
"r| 	c #746867",
"s| 	c #756A69",
"t| 	c #6D6262",
"u| 	c #605656",
"v| 	c #4E4746",
"w| 	c #3C3636",
"x| 	c #2F2A2A",
"y| 	c #231F1F",
"z| 	c #191616",
"A| 	c #090808",
"B| 	c #030303",
"C| 	c #090807",
"D| 	c #0D0B0B",
"E| 	c #181819",
"F| 	c #1D1F21",
"G| 	c #2B2C2E",
"H| 	c #373435",
"I| 	c #423D3D",
"J| 	c #4E4847",
"K| 	c #57514F",
"L| 	c #635C5A",
"M| 	c #786F6E",
"N| 	c #8E8482",
"O| 	c #988E8C",
"P| 	c #8B817F",
"Q| 	c #B2A8A5",
"R| 	c #C8BBB5",
"S| 	c #AFA29D",
"T| 	c #BAA9A5",
"U| 	c #C3B2AB",
"V| 	c #DDCCC4",
"W| 	c #CAB8B0",
"X| 	c #BCA9A3",
"Y| 	c #DDCBC7",
"Z| 	c #EDD9D6",
"`| 	c #E4D1CD",
" 1 	c #E4D2CE",
".1 	c #EEDCD8",
"+1 	c #EDDBD7",
"@1 	c #F5E5E0",
"#1 	c #EAD9D6",
"$1 	c #EDDFE0",
"%1 	c #F0E0E1",
"&1 	c #E2CFCF",
"*1 	c #E4CECE",
"=1 	c #D9BEBE",
"-1 	c #EBCECE",
";1 	c #E1C0C1",
">1 	c #E2C1C0",
",1 	c #DFBFBE",
"'1 	c #DABABA",
")1 	c #D6B8B7",
"!1 	c #D9BCBA",
"~1 	c #E1C5C4",
"{1 	c #E4CAC8",
"]1 	c #D4C0BC",
"^1 	c #CCBDB9",
"/1 	c #E6D2CF",
"(1 	c #F3DEDC",
"_1 	c #DBCACC",
":1 	c #D7CCD2",
"<1 	c #AEB2BC",
"[1 	c #BFC5CF",
"}1 	c #D3CFD4",
"|1 	c #D7D0D3",
"11 	c #D5CBCC",
"21 	c #D6C6C4",
"31 	c #DAC9C4",
"41 	c #D8C8C2",
"51 	c #D3C4BF",
"61 	c #D9C9C6",
"71 	c #DECACD",
"81 	c #DAC8CA",
"91 	c #E3D5D6",
"01 	c #DED4D4",
"a1 	c #CAC3C1",
"b1 	c #B6B3B0",
"c1 	c #B4B5B4",
"d1 	c #A6A9AA",
"e1 	c #B3B7B8",
"f1 	c #A9ADAC",
"g1 	c #B0B0AF",
"h1 	c #C3BCBB",
"i1 	c #B6ABAB",
"j1 	c #B1A1A3",
"k1 	c #9E8A89",
"l1 	c #786664",
"m1 	c #766563",
"n1 	c #6F5E5D",
"o1 	c #625350",
"p1 	c #594C49",
"q1 	c #443836",
"r1 	c #372E2C",
"s1 	c #2B2321",
"t1 	c #221C1B",
"u1 	c #161110",
"v1 	c #0F0B0A",
"w1 	c #090606",
"x1 	c #040303",
"y1 	c #030202",
"z1 	c #010101",
"A1 	c #020101",
"B1 	c #050303",
"C1 	c #0B0909",
"D1 	c #151516",
"E1 	c #1F1F21",
"F1 	c #3A3838",
"G1 	c #464140",
"H1 	c #544746",
"I1 	c #615250",
"J1 	c #655653",
"K1 	c #746462",
"L1 	c #816B6B",
"M1 	c #927E7E",
"N1 	c #A39592",
"O1 	c #B2A8A3",
"P1 	c #C1B4AF",
"Q1 	c #C1B2AC",
"R1 	c #CDBBB4",
"S1 	c #D1BEB7",
"T1 	c #AA948D",
"U1 	c #665151",
"V1 	c #604E4D",
"W1 	c #4D3B3B",
"X1 	c #3C2D2D",
"Y1 	c #2A1E1E",
"Z1 	c #211617",
"`1 	c #191010",
" 2 	c #110B0B",
".2 	c #0A0606",
"+2 	c #040302",
"@2 	c #000000",
"#2 	c #010000",
"$2 	c #040202",
"%2 	c #151618",
"&2 	c #202022",
"*2 	c #262122",
"=2 	c #251D1D",
"-2 	c #2F2423",
";2 	c #362A29",
">2 	c #3D2E2D",
",2 	c #453534",
"'2 	c #4F3D3D",
")2 	c #604C4C",
"!2 	c #685151",
"~2 	c #6B4C4C",
"{2 	c #9B7879",
"]2 	c #80595A",
"^2 	c #966B6B",
"/2 	c #835554",
"(2 	c #7E4F4D",
"_2 	c #7E4C4A",
":2 	c #7F5351",
"<2 	c #83605D",
"[2 	c #876663",
"}2 	c #896967",
"|2 	c #9A7C79",
"12 	c #AB8B89",
"22 	c #A58583",
"32 	c #A07F7C",
"42 	c #A3817F",
"52 	c #AF9294",
"62 	c #A88A8C",
"72 	c #BC9A9B",
"82 	c #AB898A",
"92 	c #784E4F",
"02 	c #75494A",
"a2 	c #6F4041",
"b2 	c #704141",
"c2 	c #6D3F3F",
"d2 	c #6A3D3D",
"e2 	c #693E3D",
"f2 	c #704543",
"g2 	c #774D4B",
"h2 	c #764D4C",
"i2 	c #674442",
"j2 	c #6F4F4D",
"k2 	c #7E5B5A",
"l2 	c #856260",
"m2 	c #AA8F93",
"n2 	c #B5A2A7",
"o2 	c #B9B6C1",
"p2 	c #C8C4CF",
"q2 	c #B6A3AA",
"r2 	c #B7A2A6",
"s2 	c #BFA8A8",
"t2 	c #BB9F9D",
"u2 	c #C3A5A1",
"v2 	c #CBAFAB",
"w2 	c #CAAEAB",
"x2 	c #C3A5A4",
"y2 	c #BF9DA0",
"z2 	c #B29193",
"A2 	c #AA8C8D",
"B2 	c #B9A1A1",
"C2 	c #C6AFAD",
"D2 	c #C5B0AD",
"E2 	c #D0BFBD",
"F2 	c #D2C2C3",
"G2 	c #CEBFC0",
"H2 	c #D5C9C8",
"I2 	c #DDD0CF",
"J2 	c #CCBABB",
"K2 	c #AB9595",
"L2 	c #806668",
"M2 	c #5E4040",
"N2 	c #543838",
"O2 	c #513635",
"P2 	c #4D3432",
"Q2 	c #4A3332",
"R2 	c #331E1B",
"S2 	c #2D1C19",
"T2 	c #271715",
"U2 	c #201312",
"V2 	c #1C1110",
"W2 	c #110908",
"X2 	c #080403",
"Y2 	c #050202",
"Z2 	c #030201",
"`2 	c #070505",
" 3 	c #1E1C1E",
".3 	c #282424",
"+3 	c #28201F",
"@3 	c #2B1A19",
"#3 	c #372220",
"$3 	c #392320",
"%3 	c #3E2623",
"&3 	c #482729",
"*3 	c #502D2F",
"=3 	c #5C393A",
"-3 	c #734F50",
";3 	c #8C6667",
">3 	c #865B5B",
",3 	c #7B4E4C",
"'3 	c #815150",
")3 	c #804B4A",
"!3 	c #5B3F3F",
"~3 	c #523B3B",
"{3 	c #422C2C",
"]3 	c #352121",
"^3 	c #281717",
"/3 	c #1F1010",
"(3 	c #160B0B",
"_3 	c #0F0706",
":3 	c #040201",
"<3 	c #0B0809",
"[3 	c #0F0F10",
"}3 	c #1A181A",
"|3 	c #1F1A1A",
"13 	c #1F1515",
"23 	c #281A19",
"33 	c #301F1F",
"43 	c #372322",
"53 	c #3D2727",
"63 	c #48302E",
"73 	c #583D3C",
"83 	c #614241",
"93 	c #694141",
"03 	c #855D5D",
"a3 	c #784A4A",
"b3 	c #8A5858",
"c3 	c #7D4946",
"d3 	c #844B47",
"e3 	c #834743",
"f3 	c #844C49",
"g3 	c #895855",
"h3 	c #8E5F5C",
"i3 	c #966A67",
"j3 	c #9D7370",
"k3 	c #9C6F6D",
"l3 	c #996C69",
"m3 	c #9D7678",
"n3 	c #9C7273",
"o3 	c #AC7F80",
"p3 	c #9C6F6F",
"q3 	c #7C4343",
"r3 	c #7B4041",
"s3 	c #743737",
"t3 	c #763939",
"u3 	c #783B3A",
"v3 	c #753938",
"w3 	c #783F3C",
"x3 	c #7E4542",
"y3 	c #7E4844",
"z3 	c #7C4744",
"A3 	c #784442",
"B3 	c #7B4947",
"C3 	c #835050",
"D3 	c #865654",
"E3 	c #9C7B7E",
"F3 	c #AE9599",
"G3 	c #B9B2BC",
"H3 	c #D0C7D1",
"I3 	c #AB8E95",
"J3 	c #AA8A8E",
"K3 	c #AC8B8B",
"L3 	c #A98381",
"M3 	c #AF8783",
"N3 	c #B58F8B",
"O3 	c #B38F8C",
"P3 	c #AF8786",
"Q3 	c #AF8283",
"R3 	c #A77A7A",
"S3 	c #9B7272",
"T3 	c #A48180",
"U3 	c #AF8E8B",
"V3 	c #AF908C",
"W3 	c #B39896",
"X3 	c #B79D9D",
"Y3 	c #B59C9C",
"Z3 	c #B7A1A0",
"`3 	c #B7A4A2",
" 4 	c #A68F8F",
".4 	c #8D7071",
"+4 	c #714E4F",
"@4 	c #5A3232",
"#4 	c #532F2F",
"$4 	c #573535",
"%4 	c #4F302E",
"&4 	c #462A29",
"*4 	c #311816",
"=4 	c #2C1715",
"-4 	c #23110F",
";4 	c #1B0C0B",
">4 	c #150A09",
",4 	c #0D0504",
"'4 	c #060202",
")4 	c #030101",
"!4 	c #1B191B",
"~4 	c #221717",
"{4 	c #2A1514",
"]4 	c #351B1A",
"^4 	c #3E2320",
"/4 	c #462724",
"(4 	c #522A2B",
"_4 	c #5D3032",
":4 	c #663939",
"<4 	c #724646",
"[4 	c #845555",
"}4 	c #865151",
"|4 	c #804845",
"14 	c #844A48",
"24 	c #874946",
"34 	c #4F2424",
"44 	c #421C1C",
"54 	c #391818",
"64 	c #2F1313",
"74 	c #271010",
"84 	c #1E0B0B",
"94 	c #150706",
"04 	c #0E0403",
"a4 	c #070202",
"b4 	c #060405",
"c4 	c #0B0A0B",
"d4 	c #191414",
"e4 	c #1B100F",
"f4 	c #22100F",
"g4 	c #2C1515",
"h4 	c #331817",
"i4 	c #361817",
"j4 	c #432120",
"k4 	c #512B2A",
"l4 	c #592F2E",
"m4 	c #673737",
"n4 	c #673130",
"o4 	c #713735",
"p4 	c #7C403E",
"q4 	c #773C36",
"r4 	c #8C4A45",
"s4 	c #8B433E",
"t4 	c #8B4742",
"u4 	c #94524E",
"v4 	c #965551",
"w4 	c #93534F",
"x4 	c #8D4C48",
"y4 	c #92504C",
"z4 	c #945450",
"A4 	c #8F4E4C",
"B4 	c #844547",
"C4 	c #8E4C4D",
"D4 	c #985354",
"E4 	c #884444",
"F4 	c #833A3A",
"G4 	c #863D3C",
"H4 	c #7E3432",
"I4 	c #813735",
"J4 	c #873E3C",
"K4 	c #843C3A",
"L4 	c #8B4642",
"M4 	c #8F4B47",
"N4 	c #8A4742",
"O4 	c #874540",
"P4 	c #8C4A48",
"Q4 	c #894645",
"R4 	c #8B4848",
"S4 	c #8B4B4B",
"T4 	c #8B5D5F",
"U4 	c #A68486",
"V4 	c #B9ADB5",
"W4 	c #D9CBD3",
"X4 	c #9C6F76",
"Y4 	c #996469",
"Z4 	c #92595A",
"`4 	c #8F5250",
" 5 	c #91524F",
".5 	c #935552",
"+5 	c #935553",
"@5 	c #915251",
"#5 	c #995553",
"$5 	c #985451",
"%5 	c #894744",
"&5 	c #864643",
"*5 	c #8E504B",
"=5 	c #8E544E",
"-5 	c #834843",
";5 	c #8C5552",
">5 	c #905B59",
",5 	c #875551",
"'5 	c #794742",
")5 	c #622C28",
"!5 	c #5B211E",
"~5 	c #5D2522",
"{5 	c #5A2624",
"]5 	c #562A29",
"^5 	c #5E3635",
"/5 	c #532E2D",
"(5 	c #311412",
"_5 	c #2D1312",
":5 	c #200B0A",
"<5 	c #170605",
"[5 	c #0F0403",
"}5 	c #090202",
"|5 	c #050101",
"15 	c #0F0C0D",
"25 	c #241B1C",
"35 	c #1D0E0E",
"45 	c #2A1111",
"55 	c #341514",
"65 	c #512B28",
"75 	c #5F3030",
"85 	c #6B3638",
"95 	c #723C3C",
"05 	c #743C3C",
"a5 	c #7A3F3D",
"b5 	c #884A47",
"c5 	c #874542",
"d5 	c #8E4944",
"e5 	c #512522",
"f5 	c #3F1816",
"g5 	c #351312",
"h5 	c #2D100F",
"i5 	c #28100F",
"j5 	c #1F0B0A",
"k5 	c #160706",
"l5 	c #0E0404",
"m5 	c #080202",
"n5 	c #020100",
"o5 	c #070707",
"p5 	c #0E0D0D",
"q5 	c #110E0D",
"r5 	c #1C0B0A",
"s5 	c #26110F",
"t5 	c #301714",
"u5 	c #3A1C19",
"v5 	c #43201D",
"w5 	c #49231F",
"x5 	c #502723",
"y5 	c #5E332E",
"z5 	c #6D4139",
"A5 	c #6D3C36",
"B5 	c #744038",
"C5 	c #874B41",
"D5 	c #8F4F43",
"E5 	c #A15C55",
"F5 	c #A56059",
"G5 	c #97534B",
"H5 	c #8F4A43",
"I5 	c #955048",
"J5 	c #924B46",
"K5 	c #8F4A48",
"L5 	c #944E4C",
"M5 	c #8A4140",
"N5 	c #8B423F",
"O5 	c #8B413C",
"P5 	c #863934",
"Q5 	c #883D37",
"R5 	c #853A35",
"S5 	c #843A35",
"T5 	c #883F3A",
"U5 	c #88413A",
"V5 	c #8A443D",
"W5 	c #8D4841",
"X5 	c #8E4A43",
"Y5 	c #934E47",
"Z5 	c #8B4442",
"`5 	c #864642",
" 6 	c #8A6B6C",
".6 	c #C4BDC1",
"+6 	c #D1C8CC",
"@6 	c #936468",
"#6 	c #925A5C",
"$6 	c #925656",
"%6 	c #9B5B56",
"&6 	c #9C5A53",
"*6 	c #94524D",
"=6 	c #96534F",
"-6 	c #A0574F",
";6 	c #9A524A",
">6 	c #924C45",
",6 	c #88423A",
"'6 	c #824036",
")6 	c #7E3D33",
"!6 	c #74362E",
"~6 	c #71332E",
"{6 	c #743933",
"]6 	c #642E27",
"^6 	c #6B362E",
"/6 	c #693129",
"(6 	c #682C25",
"_6 	c #662C26",
":6 	c #622D28",
"<6 	c #5B2F2C",
"[6 	c #421F1C",
"}6 	c #3C1D1A",
"|6 	c #331815",
"16 	c #28110F",
"26 	c #1C0907",
"36 	c #120403",
"46 	c #0B0202",
"56 	c #060101",
"66 	c #020000",
"76 	c #010100",
"86 	c #0B090A",
"96 	c #141314",
"06 	c #231A1B",
"a6 	c #1D0F0F",
"b6 	c #2D1414",
"c6 	c #351715",
"d6 	c #42221D",
"e6 	c #48241E",
"f6 	c #582A28",
"g6 	c #63312F",
"h6 	c #673531",
"i6 	c #693530",
"j6 	c #713C36",
"k6 	c #7F4840",
"l6 	c #783E35",
"m6 	c #82463B",
"n6 	c #84473B",
"o6 	c #4D2320",
"p6 	c #3D1614",
"q6 	c #361513",
"r6 	c #2D110F",
"s6 	c #270F0E",
"t6 	c #1D0B0A",
"u6 	c #140606",
"v6 	c #020202",
"w6 	c #050505",
"x6 	c #0A0A0A",
"y6 	c #0F0D0C",
"z6 	c #110807",
"A6 	c #170907",
"B6 	c #210E0C",
"C6 	c #2A1411",
"D6 	c #341916",
"E6 	c #3D1E19",
"F6 	c #44211C",
"G6 	c #4C2520",
"H6 	c #572E28",
"I6 	c #673A33",
"J6 	c #693831",
"K6 	c #703B33",
"L6 	c #905950",
"M6 	c #84463C",
"N6 	c #864639",
"O6 	c #8E4B41",
"P6 	c #9B574E",
"Q6 	c #9F5B52",
"R6 	c #8F4B41",
"S6 	c #934F45",
"T6 	c #8F4A42",
"U6 	c #8F4945",
"V6 	c #924D49",
"W6 	c #87403B",
"X6 	c #8D463F",
"Y6 	c #8C433B",
"Z6 	c #883E35",
"`6 	c #894038",
" 7 	c #833A32",
".7 	c #853E36",
"+7 	c #864138",
"@7 	c #88453B",
"#7 	c #914B43",
"$7 	c #8C4943",
"%7 	c #8A4C46",
"&7 	c #673B39",
"*7 	c #967C7B",
"=7 	c #C4C2C4",
"-7 	c #CCC7CA",
";7 	c #926466",
">7 	c #8F5958",
",7 	c #915754",
"'7 	c #995B54",
")7 	c #9A5A51",
"!7 	c #91534C",
"~7 	c #94544D",
"{7 	c #985248",
"]7 	c #944F44",
"^7 	c #8E4A41",
"/7 	c #874338",
"(7 	c #814034",
"_7 	c #803F34",
":7 	c #75372D",
"<7 	c #73352E",
"[7 	c #743931",
"}7 	c #663027",
"|7 	c #6B362C",
"17 	c #6A3329",
"27 	c #693128",
"37 	c #673029",
"47 	c #612F29",
"57 	c #572E2A",
"67 	c #502B28",
"77 	c #3F1F1C",
"87 	c #391C19",
"97 	c #301613",
"07 	c #240F0C",
"a7 	c #180705",
"b7 	c #100403",
"c7 	c #090201",
"d7 	c #0A0909",
"e7 	c #121212",
"f7 	c #1E1717",
"g7 	c #1A0D0D",
"h7 	c #2B1312",
"i7 	c #3F201B",
"j7 	c #46231D",
"k7 	c #552926",
"l7 	c #62302D",
"m7 	c #67342F",
"n7 	c #6A352F",
"o7 	c #723A34",
"p7 	c #80463E",
"q7 	c #783C32",
"r7 	c #824538",
"s7 	c #85483A",
"t7 	c #451D17",
"u7 	c #3A1612",
"v7 	c #3B1B17",
"w7 	c #2E1310",
"x7 	c #250F0D",
"y7 	c #1B0908",
"z7 	c #110404",
"A7 	c #0C0303",
"B7 	c #100E0D",
"C7 	c #0E0807",
"D7 	c #120604",
"E7 	c #1B0B08",
"F7 	c #23110C",
"G7 	c #2D1610",
"H7 	c #361B14",
"I7 	c #3F2119",
"J7 	c #4A271F",
"K7 	c #50251F",
"L7 	c #5A2922",
"M7 	c #642E26",
"N7 	c #6C322A",
"O7 	c #73342A",
"P7 	c #7E3B30",
"Q7 	c #874135",
"R7 	c #884336",
"S7 	c #834334",
"T7 	c #894739",
"U7 	c #8A4A3A",
"V7 	c #8B4B3B",
"W7 	c #8F4E3F",
"X7 	c #904F40",
"Y7 	c #8D4E3E",
"Z7 	c #8B483F",
"`7 	c #823F35",
" 8 	c #914E42",
".8 	c #8B483A",
"+8 	c #8B4839",
"@8 	c #8A4638",
"#8 	c #7D392C",
"$8 	c #7F3C2F",
"%8 	c #7E3C2E",
"&8 	c #814233",
"*8 	c #874839",
"=8 	c #8A4C3D",
"-8 	c #8D4F40",
";8 	c #914F43",
">8 	c #905247",
",8 	c #935B50",
"'8 	c #4F2A23",
")8 	c #B19F9B",
"!8 	c #C2CACB",
"~8 	c #C3C6C8",
"{8 	c #906866",
"]8 	c #875851",
"^8 	c #8D5951",
"/8 	c #91594E",
"(8 	c #93594C",
"_8 	c #965C4F",
":8 	c #975F52",
"<8 	c #90574B",
"[8 	c #824536",
"}8 	c #844637",
"|8 	c #804434",
"18 	c #824435",
"28 	c #793B30",
"38 	c #7E4038",
"48 	c #7C4338",
"58 	c #754033",
"68 	c #6D3B2E",
"78 	c #6B392B",
"88 	c #6C3B2E",
"98 	c #62352C",
"08 	c #512C26",
"a8 	c #482823",
"b8 	c #42241F",
"c8 	c #361D18",
"d8 	c #2A1511",
"e8 	c #1F0D0A",
"f8 	c #140604",
"g8 	c #070201",
"h8 	c #101112",
"i8 	c #15100F",
"j8 	c #120706",
"k8 	c #271210",
"l8 	c #361C19",
"m8 	c #3A1F17",
"n8 	c #43231B",
"o8 	c #61312B",
"p8 	c #6C352F",
"q8 	c #70342F",
"r8 	c #773831",
"s8 	c #84423A",
"t8 	c #7A392E",
"u8 	c #844134",
"v8 	c #8B493A",
"w8 	c #4A221D",
"x8 	c #421E19",
"y8 	c #381814",
"z8 	c #2D120F",
"A8 	c #240D0A",
"B8 	c #1A0806",
"C8 	c #130605",
"D8 	c #0D0403",
"E8 	c #0C0605",
"F8 	c #100604",
"G8 	c #170906",
"H8 	c #200F0B",
"I8 	c #2B1611",
"J8 	c #341A14",
"K8 	c #3C1F18",
"L8 	c #3E1D15",
"M8 	c #4B211B",
"N8 	c #56241F",
"O8 	c #5E2721",
"P8 	c #662A24",
"Q8 	c #6C2B23",
"R8 	c #7C372C",
"S8 	c #873C32",
"T8 	c #8C4538",
"U8 	c #8B4A3A",
"V8 	c #8A4A3B",
"W8 	c #8B4A3B",
"X8 	c #894838",
"Y8 	c #874636",
"Z8 	c #864535",
"`8 	c #844333",
" 9 	c #894638",
".9 	c #8F4C43",
"+9 	c #884439",
"@9 	c #894639",
"#9 	c #864434",
"$9 	c #864235",
"%9 	c #843D33",
"&9 	c #843E33",
"*9 	c #823D32",
"=9 	c #813F32",
"-9 	c #844436",
";9 	c #89493C",
">9 	c #8B4B3D",
",9 	c #89483B",
"'9 	c #8C4A3E",
")9 	c #894F45",
"!9 	c #845E5B",
"~9 	c #C7B1B0",
"{9 	c #BEC2C6",
"]9 	c #CBCDD2",
"^9 	c #8F6866",
"/9 	c #8A5A53",
"(9 	c #915D55",
"_9 	c #996156",
":9 	c #995F52",
"<9 	c #975D51",
"[9 	c #935B4F",
"}9 	c #895045",
"|9 	c #83473A",
"19 	c #874D40",
"29 	c #874C3F",
"39 	c #84483B",
"49 	c #8B5042",
"59 	c #8F5346",
"69 	c #8B4F43",
"79 	c #884F46",
"89 	c #7F4C40",
"99 	c #77473A",
"09 	c #724135",
"a9 	c #6A3A2E",
"b9 	c #65362C",
"c9 	c #5E332B",
"d9 	c #502B26",
"e9 	c #452520",
"f9 	c #391D19",
"g9 	c #301712",
"h9 	c #26100D",
"i9 	c #1C0B08",
"j9 	c #150705",
"k9 	c #0C0302",
"l9 	c #060201",
"m9 	c #090809",
"n9 	c #101011",
"o9 	c #191313",
"p9 	c #160909",
"q9 	c #261110",
"r9 	c #311714",
"s9 	c #3A1E17",
"t9 	c #44241B",
"u9 	c #622F2A",
"v9 	c #6D332F",
"w9 	c #733430",
"x9 	c #76332E",
"y9 	c #823E37",
"z9 	c #813C32",
"A9 	c #874036",
"B9 	c #8E483A",
"C9 	c #4C221D",
"D9 	c #441F1B",
"E9 	c #391815",
"F9 	c #2F1310",
"G9 	c #250E0B",
"H9 	c #1B0806",
"I9 	c #140605",
"J9 	c #0D0404",
"K9 	c #010001",
"L9 	c #010202",
"M9 	c #040404",
"N9 	c #130705",
"O9 	c #1D0D09",
"P9 	c #281410",
"Q9 	c #2F1812",
"R9 	c #391C16",
"S9 	c #3B1B14",
"T9 	c #48211B",
"U9 	c #53241F",
"V9 	c #5C2822",
"W9 	c #652C26",
"X9 	c #6B2D24",
"Y9 	c #7A392F",
"Z9 	c #8B4538",
"`9 	c #8C4B3C",
" 0 	c #894738",
".0 	c #874535",
"+0 	c #844232",
"@0 	c #813F30",
"#0 	c #874536",
"$0 	c #924D44",
"%0 	c #8C473C",
"&0 	c #894539",
"*0 	c #884436",
"=0 	c #854232",
"-0 	c #843F33",
";0 	c #843C32",
">0 	c #863E34",
",0 	c #843D32",
"'0 	c #823E32",
")0 	c #844235",
"!0 	c #89473A",
"~0 	c #8A493C",
"{0 	c #8B4C42",
"]0 	c #894E44",
"^0 	c #946D6B",
"/0 	c #C5AEAD",
"(0 	c #BCBFC3",
"_0 	c #CCCCD2",
":0 	c #8C5B55",
"<0 	c #925D56",
"[0 	c #9A6156",
"}0 	c #9A6053",
"|0 	c #965D50",
"10 	c #884F44",
"20 	c #854B3E",
"30 	c #8B5144",
"40 	c #8A5043",
"50 	c #894E42",
"60 	c #8F5348",
"70 	c #8E504A",
"80 	c #824E45",
"90 	c #7A493E",
"00 	c #734338",
"a0 	c #6A3A30",
"b0 	c #65372E",
"c0 	c #5E332D",
"d0 	c #4F2A25",
"e0 	c #43221F",
"f0 	c #371B17",
"g0 	c #2E1511",
"h0 	c #1A0A07",
"i0 	c #0A0302",
"j0 	c #111112",
"k0 	c #1B1415",
"l0 	c #160A0A",
"m0 	c #261010",
"n0 	c #311614",
"o0 	c #3B1F18",
"p0 	c #45251C",
"q0 	c #542A23",
"r0 	c #63302A",
"s0 	c #6D342F",
"t0 	c #733530",
"u0 	c #76352F",
"v0 	c #813E37",
"w0 	c #874236",
"x0 	c #8D493B",
"y0 	c #4B1E1B",
"z0 	c #47201D",
"A0 	c #3D1A18",
"B0 	c #311312",
"C0 	c #29100F",
"D0 	c #1F0A09",
"E0 	c #0D0302",
"F0 	c #040101",
"G0 	c #050201",
"H0 	c #090302",
"I0 	c #100504",
"J0 	c #230F0C",
"K0 	c #270E0A",
"L0 	c #381B16",
"M0 	c #401E19",
"N0 	c #49261F",
"O0 	c #5F362C",
"P0 	c #6D3D34",
"Q0 	c #733F34",
"R0 	c #7F483B",
"S0 	c #80483A",
"T0 	c #87483C",
"U0 	c #8F4A3E",
"V0 	c #8A4439",
"W0 	c #8B463A",
"X0 	c #8E493D",
"Y0 	c #803A2E",
"Z0 	c #7D362B",
"`0 	c #813A2F",
" a 	c #954A42",
".a 	c #9A5047",
"+a 	c #9B5147",
"@a 	c #944A42",
"#a 	c #863F32",
"$a 	c #833C2D",
"%a 	c #82362B",
"&a 	c #7A2C24",
"*a 	c #893C33",
"=a 	c #883B31",
"-a 	c #883E34",
";a 	c #873E34",
">a 	c #8B4237",
",a 	c #864337",
"'a 	c #8D4942",
")a 	c #92524C",
"!a 	c #B68B8C",
"~a 	c #A28489",
"{a 	c #B8B2BB",
"]a 	c #C8C0C9",
"^a 	c #966869",
"/a 	c #935D5B",
"(a 	c #975D58",
"_a 	c #975951",
":a 	c #9A5C52",
"<a 	c #95584E",
"[a 	c #965C51",
"}a 	c #93574D",
"|a 	c #A0635A",
"1a 	c #995A51",
"2a 	c #995B52",
"3a 	c #965651",
"4a 	c #955452",
"5a 	c #925452",
"6a 	c #89504D",
"7a 	c #804B45",
"8a 	c #77443E",
"9a 	c #643834",
"0a 	c #4F2725",
"aa 	c #411E1D",
"ba 	c #3C1D1C",
"ca 	c #2F1513",
"da 	c #240E0C",
"ea 	c #190807",
"fa 	c #0A0708",
"ga 	c #131114",
"ha 	c #1F1718",
"ia 	c #17090A",
"ja 	c #351817",
"ka 	c #40201B",
"la 	c #49251E",
"ma 	c #562A24",
"na 	c #64322C",
"oa 	c #6B3831",
"pa 	c #6D3932",
"qa 	c #733D34",
"ra 	c #763F35",
"sa 	c #80493C",
"ta 	c #804838",
"ua 	c #854E3D",
"va 	c #4B1C19",
"wa 	c #451B18",
"xa 	c #3D1815",
"ya 	c #331412",
"za 	c #2A100E",
"Aa 	c #1F0A08",
"Ba 	c #150505",
"Ca 	c #020102",
"Da 	c #1E0B09",
"Ea 	c #250D0A",
"Fa 	c #301410",
"Ga 	c #3B1916",
"Ha 	c #46211B",
"Ia 	c #502821",
"Ja 	c #5B2E26",
"Ka 	c #66342B",
"La 	c #713C31",
"Ma 	c #7D4437",
"Na 	c #7E4235",
"Oa 	c #824337",
"Pa 	c #8C4A3C",
"Qa 	c #904D3F",
"Ra 	c #925041",
"Sa 	c #914D3F",
"Ta 	c #8E4B3C",
"Ua 	c #945042",
"Va 	c #8F473C",
"Wa 	c #90473B",
"Xa 	c #8B4338",
"Ya 	c #873E32",
"Za 	c #873D31",
"`a 	c #8A4133",
" b 	c #884032",
".b 	c #863D2F",
"+b 	c #863E30",
"@b 	c #874032",
"#b 	c #884133",
"$b 	c #8B4436",
"%b 	c #8C493B",
"&b 	c #85473B",
"*b 	c #8F4A44",
"=b 	c #975552",
"-b 	c #AA8384",
";b 	c #A48C8C",
">b 	c #B4B1B5",
",b 	c #C6BFC2",
"'b 	c #9A6E6B",
")b 	c #955D5A",
"!b 	c #955754",
"~b 	c #975953",
"{b 	c #995E55",
"]b 	c #975C53",
"^b 	c #93554D",
"/b 	c #93544C",
"(b 	c #965A51",
"_b 	c #935950",
":b 	c #955951",
"<b 	c #955950",
"[b 	c #995A55",
"}b 	c #975757",
"|b 	c #985B5A",
"1b 	c #894F4D",
"2b 	c #834B48",
"3b 	c #7A4643",
"4b 	c #703F3C",
"5b 	c #5C312E",
"6b 	c #4F2825",
"7b 	c #3A1C1A",
"8b 	c #2F1614",
"9b 	c #230F0D",
"0b 	c #180807",
"ab 	c #1C1414",
"bb 	c #1A0C0C",
"cb 	c #271212",
"db 	c #341917",
"eb 	c #3E1E19",
"fb 	c #47231C",
"gb 	c #532920",
"hb 	c #5D2E26",
"ib 	c #66332B",
"jb 	c #6C372E",
"kb 	c #753C32",
"lb 	c #7B4036",
"mb 	c #82473C",
"nb 	c #85483C",
"ob 	c #87493C",
"pb 	c #4C1C18",
"qb 	c #451916",
"rb 	c #3F1815",
"sb 	c #2C110F",
"tb 	c #210A09",
"ub 	c #100404",
"vb 	c #0A0202",
"wb 	c #0B0302",
"xb 	c #1B0907",
"yb 	c #210B09",
"zb 	c #2A0F0C",
"Ab 	c #361613",
"Bb 	c #421E18",
"Cb 	c #4D251D",
"Db 	c #582B23",
"Eb 	c #623027",
"Fb 	c #6F3A30",
"Gb 	c #7A4135",
"Hb 	c #7C3F33",
"Ib 	c #814135",
"Jb 	c #8A493B",
"Kb 	c #914F41",
"Lb 	c #955343",
"Mb 	c #925040",
"Nb 	c #945041",
"Ob 	c #945242",
"Pb 	c #9A5647",
"Qb 	c #8E473A",
"Rb 	c #8F483D",
"Sb 	c #8A4236",
"Tb 	c #883F34",
"Ub 	c #883E33",
"Vb 	c #893E33",
"Wb 	c #8E4537",
"Xb 	c #8E4838",
"Yb 	c #884333",
"Zb 	c #864030",
"`b 	c #874131",
" c 	c #894334",
".c 	c #8B4637",
"+c 	c #84493D",
"@c 	c #904B46",
"#c 	c #995555",
"$c 	c #A37D7E",
"%c 	c #A08B8A",
"&c 	c #B3B2B3",
"*c 	c #C5BEBE",
"=c 	c #9C706C",
"-c 	c #955D59",
";c 	c #965954",
">c 	c #985E56",
",c 	c #985E55",
"'c 	c #96564E",
")c 	c #945850",
"!c 	c #995E56",
"~c 	c #9A5C57",
"{c 	c #975958",
"]c 	c #9A5C5C",
"^c 	c #884E4D",
"/c 	c #824A4A",
"(c 	c #7B4646",
"_c 	c #6F3E3D",
":c 	c #633533",
"<c 	c #582D2B",
"[c 	c #4F2925",
"}c 	c #442320",
"|c 	c #381C19",
"1c 	c #2D1513",
"2c 	c #170807",
"3c 	c #0B0808",
"4c 	c #1A1212",
"5c 	c #1B0D0D",
"6c 	c #281312",
"7c 	c #3D1D18",
"8c 	c #52281F",
"9c 	c #5B2D23",
"0c 	c #643128",
"ac 	c #6D372D",
"bc 	c #7D4036",
"cc 	c #83453A",
"dc 	c #86483C",
"ec 	c #87463C",
"fc 	c #50211D",
"gc 	c #481D1A",
"hc 	c #431D19",
"ic 	c #381714",
"jc 	c #240D0B",
"kc 	c #1A0807",
"lc 	c #0F0404",
"mc 	c #170706",
"nc 	c #1B0706",
"oc 	c #230A08",
"pc 	c #2B0D0C",
"qc 	c #391713",
"rc 	c #5D322B",
"sc 	c #67372F",
"tc 	c #713E35",
"uc 	c #763F36",
"vc 	c #7C4138",
"wc 	c #81463B",
"xc 	c #88483D",
"yc 	c #915044",
"zc 	c #945347",
"Ac 	c #935145",
"Bc 	c #915144",
"Cc 	c #88463A",
"Dc 	c #955146",
"Ec 	c #914D42",
"Fc 	c #833D33",
"Gc 	c #8B443A",
"Hc 	c #8D443A",
"Ic 	c #8D433A",
"Jc 	c #934E42",
"Kc 	c #945244",
"Lc 	c #935143",
"Mc 	c #935042",
"Nc 	c #8B493B",
"Oc 	c #884537",
"Pc 	c #8D4A3C",
"Qc 	c #925042",
"Rc 	c #925445",
"Sc 	c #8A4E41",
"Tc 	c #9A514D",
"Uc 	c #985353",
"Vc 	c #7C5857",
"Wc 	c #685756",
"Xc 	c #BCBCBC",
"Yc 	c #C1BBBA",
"Zc 	c #9B716C",
"`c 	c #925B59",
" d 	c #945556",
".d 	c #965958",
"+d 	c #965D59",
"@d 	c #955D57",
"#d 	c #9C6257",
"$d 	c #A0665B",
"%d 	c #935A4F",
"&d 	c #975C56",
"*d 	c #8F544F",
"=d 	c #8D524F",
"-d 	c #844B48",
";d 	c #814C48",
">d 	c #7E4C49",
",d 	c #6E403E",
"'d 	c #5D322F",
")d 	c #57302C",
"!d 	c #54312C",
"~d 	c #442521",
"{d 	c #361C18",
"]d 	c #28120F",
"^d 	c #1E0C0A",
"/d 	c #140705",
"(d 	c #0C0403",
"_d 	c #111111",
":d 	c #191111",
"<d 	c #1C0E0D",
"[d 	c #281412",
"}d 	c #321815",
"|d 	c #48241D",
"1d 	c #532A20",
"2d 	c #5D3026",
"3d 	c #67352B",
"4d 	c #6F3A2F",
"5d 	c #763C31",
"6d 	c #7A3E32",
"7d 	c #76382B",
"8d 	c #7B3B2E",
"9d 	c #874639",
"0d 	c #4F211D",
"ad 	c #49201B",
"bd 	c #441F1A",
"cd 	c #391915",
"dd 	c #250E0C",
"ed 	c #120504",
"fd 	c #1A0707",
"gd 	c #210B0A",
"hd 	c #2B100F",
"id 	c #391916",
"jd 	c #542C26",
"kd 	c #66352E",
"ld 	c #79423A",
"md 	c #81473E",
"nd 	c #864A41",
"od 	c #83453C",
"pd 	c #804238",
"qd 	c #88493F",
"rd 	c #905046",
"sd 	c #88473D",
"td 	c #935248",
"ud 	c #88453C",
"vd 	c #89433C",
"wd 	c #8A433B",
"xd 	c #8A423B",
"yd 	c #8C463D",
"zd 	c #8C483E",
"Ad 	c #89443A",
"Bd 	c #88433A",
"Cd 	c #8B453C",
"Dd 	c #8D4D3F",
"Ed 	c #8B4B3C",
"Fd 	c #974D47",
"Gd 	c #904B49",
"Hd 	c #714F4E",
"Id 	c #B3B1B4",
"Jd 	c #C4BCBF",
"Kd 	c #926867",
"Ld 	c #8A5555",
"Md 	c #8C5052",
"Nd 	c #915454",
"Od 	c #915956",
"Pd 	c #935B58",
"Qd 	c #965A57",
"Rd 	c #965853",
"Sd 	c #945C4E",
"Td 	c #996054",
"Ud 	c #955D50",
"Vd 	c #986053",
"Wd 	c #965E53",
"Xd 	c #90574F",
"Yd 	c #8B534C",
"Zd 	c #85504A",
"`d 	c #7F4C45",
" e 	c #794842",
".e 	c #6B3F3A",
"+e 	c #5D352F",
"@e 	c #55302A",
"#e 	c #4F2E27",
"$e 	c #3F221D",
"%e 	c #321914",
"&e 	c #27120E",
"*e 	c #1C0C09",
"=e 	c #0B0303",
"-e 	c #131313",
";e 	c #18100F",
">e 	c #1C0E0B",
",e 	c #291512",
"'e 	c #3F2019",
")e 	c #4A271E",
"!e 	c #542D22",
"~e 	c #5F3327",
"{e 	c #6A392D",
"]e 	c #723D31",
"^e 	c #783F32",
"/e 	c #7E4234",
"(e 	c #814536",
"_e 	c #50231C",
":e 	c #4B221C",
"<e 	c #45201B",
"[e 	c #3A1A15",
"}e 	c #270F0C",
"|e 	c #1C0A07",
"1e 	c #130504",
"2e 	c #0A0303",
"3e 	c #1F0A0A",
"4e 	c #2A1110",
"5e 	c #371917",
"6e 	c #3F1F1A",
"7e 	c #4B2621",
"8e 	c #4F2520",
"9e 	c #5B2E27",
"0e 	c #77423C",
"ae 	c #804740",
"be 	c #864C46",
"ce 	c #7E413B",
"de 	c #753931",
"ee 	c #80433B",
"fe 	c #8D4D45",
"ge 	c #85453E",
"he 	c #7F4038",
"ie 	c #884840",
"je 	c #8C4A43",
"ke 	c #87433D",
"le 	c #87423C",
"me 	c #88423C",
"ne 	c #853F38",
"oe 	c #853E38",
"pe 	c #88413B",
"qe 	c #86413A",
"re 	c #884639",
"se 	c #8C4837",
"te 	c #954941",
"ue 	c #89423E",
"ve 	c #694744",
"we 	c #C3AFB1",
"xe 	c #ADA8AE",
"ye 	c #C6BDC3",
"ze 	c #8A6263",
"Ae 	c #834E50",
"Be 	c #874A4D",
"Ce 	c #8B5050",
"De 	c #8C5553",
"Ee 	c #965B59",
"Fe 	c #995B57",
"Ge 	c #9D6556",
"He 	c #9A6354",
"Ie 	c #9A6253",
"Je 	c #8C5446",
"Ke 	c #996253",
"Le 	c #965F51",
"Me 	c #915A4E",
"Ne 	c #8A5349",
"Oe 	c #875349",
"Pe 	c #7E4D43",
"Qe 	c #73453C",
"Re 	c #683E36",
"Se 	c #5D352E",
"Te 	c #522F27",
"Ue 	c #492A23",
"Ve 	c #3B2019",
"We 	c #2E1711",
"Xe 	c #25110D",
"Ye 	c #1A0B07",
"Ze 	c #110604",
"`e 	c #141415",
" f 	c #170F0D",
".f 	c #1C0D0A",
"+f 	c #2A1612",
"@f 	c #331915",
"#f 	c #40211A",
"$f 	c #4B291F",
"%f 	c #552F23",
"&f 	c #613629",
"*f 	c #6C3C2F",
"=f 	c #754032",
"-f 	c #7B4234",
";f 	c #814637",
">f 	c #8A4E3E",
",f 	c #8B4D3D",
"'f 	c #8E4E3E",
")f 	c #5B2B27",
"!f 	c #522523",
"~f 	c #4B2320",
"{f 	c #381A18",
"]f 	c #2D1311",
"^f 	c #230E0B",
"/f 	c #180806",
"(f 	c #140505",
"_f 	c #1D0A09",
":f 	c #2B1210",
"<f 	c #381813",
"[f 	c #4C231D",
"}f 	c #61332C",
"|f 	c #6D3C35",
"1f 	c #77413A",
"2f 	c #82473F",
"3f 	c #82453C",
"4f 	c #7B3D33",
"5f 	c #804036",
"6f 	c #914F45",
"7f 	c #935247",
"8f 	c #904F44",
"9f 	c #8E4B42",
"0f 	c #98554C",
"af 	c #8D4840",
"bf 	c #8D473F",
"cf 	c #8F463F",
"df 	c #8E443D",
"ef 	c #8C423B",
"ff 	c #873D36",
"gf 	c #853B34",
"hf 	c #833A33",
"if 	c #843C34",
"jf 	c #883E37",
"kf 	c #8B433C",
"lf 	c #8D4B3A",
"mf 	c #954C45",
"nf 	c #8E4946",
"of 	c #AB9B9C",
"pf 	c #B6B0B9",
"qf 	c #B7ACB4",
"rf 	c #8D6360",
"sf 	c #8E5150",
"tf 	c #8D5550",
"uf 	c #915A53",
"vf 	c #985B55",
"wf 	c #995A53",
"xf 	c #9B6054",
"yf 	c #975B4E",
"zf 	c #965B4E",
"Af 	c #94594C",
"Bf 	c #93594D",
"Cf 	c #8D554A",
"Df 	c #864F45",
"Ef 	c #834E44",
"Ff 	c #76443A",
"Gf 	c #714239",
"Hf 	c #673C34",
"If 	c #5D342D",
"Jf 	c #532F28",
"Kf 	c #472720",
"Lf 	c #3C201A",
"Mf 	c #301914",
"Nf 	c #27130F",
"Of 	c #120605",
"Pf 	c #0C0A0B",
"Qf 	c #1A100F",
"Rf 	c #1D0D0B",
"Sf 	c #2C1713",
"Tf 	c #361A16",
"Uf 	c #43221C",
"Vf 	c #4E2921",
"Wf 	c #583026",
"Xf 	c #63352A",
"Yf 	c #6D3A30",
"Zf 	c #783F35",
"`f 	c #87493E",
" g 	c #8D4A3E",
".g 	c #613030",
"+g 	c #582C2C",
"@g 	c #502727",
"#g 	c #472323",
"$g 	c #3B1C1B",
"%g 	c #2F1514",
"&g 	c #25100F",
"*g 	c #1B0A09",
"=g 	c #110504",
"-g 	c #1A0907",
";g 	c #26100E",
">g 	c #301713",
",g 	c #3E1C17",
"'g 	c #47211B",
")g 	c #5C322A",
"!g 	c #6A3C34",
"~g 	c #734139",
"{g 	c #834A41",
"]g 	c #864B42",
"^g 	c #854940",
"/g 	c #884C42",
"(g 	c #905146",
"_g 	c #8C4D41",
":g 	c #7F3D35",
"<g 	c #7F3C34",
"[g 	c #854038",
"}g 	c #8B463E",
"|g 	c #884239",
"1g 	c #874139",
"2g 	c #88443C",
"3g 	c #8C473F",
"4g 	c #8A493E",
"5g 	c #814638",
"6g 	c #8A4943",
"7g 	c #824543",
"8g 	c #93797B",
"9g 	c #B3A7A9",
"0g 	c #B0ACB5",
"ag 	c #B2A8AF",
"bg 	c #8A625E",
"cg 	c #895651",
"dg 	c #8B4F4C",
"eg 	c #8D5750",
"fg 	c #8F5951",
"gg 	c #935951",
"hg 	c #965951",
"ig 	c #975B53",
"jg 	c #945951",
"kg 	c #90584F",
"lg 	c #89514A",
"mg 	c #844E47",
"ng 	c #76453E",
"og 	c #6F423B",
"pg 	c #663B35",
"qg 	c #5B342F",
"rg 	c #512E2A",
"sg 	c #472823",
"tg 	c #3A201C",
"ug 	c #2E1815",
"vg 	c #190B09",
"wg 	c #100605",
"xg 	c #0D0B0C",
"yg 	c #161416",
"zg 	c #170E0C",
"Ag 	c #1B0B09",
"Bg 	c #371C19",
"Cg 	c #442421",
"Dg 	c #4E2B26",
"Eg 	c #57312B",
"Fg 	c #60362F",
"Gg 	c #6B3B34",
"Hg 	c #814943",
"Ig 	c #854A43",
"Jg 	c #864A44",
"Kg 	c #8B4F49",
"Lg 	c #67383B",
"Mg 	c #603437",
"Ng 	c #562E30",
"Og 	c #4E2A2C",
"Pg 	c #3D1D1F",
"Qg 	c #311718",
"Rg 	c #291414",
"Sg 	c #1E0D0D",
"Tg 	c #140707",
"Ug 	c #170806",
"Vg 	c #220F0C",
"Wg 	c #2B1510",
"Xg 	c #391F1A",
"Yg 	c #361812",
"Zg 	c #401F18",
"`g 	c #563029",
" h 	c #673D35",
".h 	c #6E4037",
"+h 	c #734137",
"@h 	c #834F45",
"#h 	c #8B5349",
"$h 	c #91584E",
"%h 	c #965C50",
"&h 	c #905347",
"*h 	c #8D5144",
"=h 	c #824639",
"-h 	c #84453A",
";h 	c #622519",
">h 	c #622317",
",h 	c #743329",
"'h 	c #915046",
")h 	c #8B4A41",
"!h 	c #8B4A42",
"~h 	c #80483E",
"{h 	c #6F3F35",
"]h 	c #774440",
"^h 	c #6E3E3E",
"/h 	c #AC9A9C",
"(h 	c #BFB9BC",
"_h 	c #A8A7AF",
":h 	c #ACA1A9",
"<h 	c #87625C",
"[h 	c #895952",
"}h 	c #854E49",
"|h 	c #89524A",
"1h 	c #8B594F",
"2h 	c #8A594D",
"3h 	c #905553",
"4h 	c #935856",
"5h 	c #965A58",
"6h 	c #955957",
"7h 	c #935755",
"8h 	c #824B49",
"9h 	c #824C4B",
"0h 	c #7B4846",
"ah 	c #774645",
"bh 	c #633A38",
"ch 	c #593331",
"dh 	c #502E2C",
"eh 	c #462928",
"fh 	c #371F1E",
"gh 	c #2D1817",
"hh 	c #200F0E",
"ih 	c #180B0A",
"jh 	c #0F0605",
"kh 	c #090303",
"lh 	c #0F0C0E",
"mh 	c #181518",
"nh 	c #120808",
"oh 	c #150605",
"ph 	c #2C1818",
"qh 	c #371D1E",
"rh 	c #452727",
"sh 	c #4E2E2C",
"th 	c #573332",
"uh 	c #5D3634",
"vh 	c #673B3A",
"wh 	c #764645",
"xh 	c #7F4D4C",
"yh 	c #804A4A",
"zh 	c #915B5B",
"Ah 	c #A36A6A",
"Bh 	c #5C3539",
"Ch 	c #5D3A3D",
"Dh 	c #513033",
"Eh 	c #46292C",
"Fh 	c #3C2326",
"Gh 	c #2D1719",
"Hh 	c #251314",
"Ih 	c #1C0D0E",
"Jh 	c #140808",
"Kh 	c #0D0505",
"Lh 	c #080304",
"Mh 	c #080302",
"Nh 	c #0F0504",
"Oh 	c #20100D",
"Ph 	c #2B1814",
"Qh 	c #311A16",
"Rh 	c #412723",
"Sh 	c #482C26",
"Th 	c #51322B",
"Uh 	c #6C4943",
"Vh 	c #77514A",
"Wh 	c #784E48",
"Xh 	c #80544D",
"Yh 	c #865851",
"Zh 	c #8A5B52",
"`h 	c #8F5F57",
" i 	c #926259",
".i 	c #8B5B52",
"+i 	c #986760",
"@i 	c #93645C",
"#i 	c #93645B",
"$i 	c #8B5B53",
"%i 	c #7A4740",
"&i 	c #65302A",
"*i 	c #6E3933",
"=i 	c #85524D",
"-i 	c #8A5A54",
";i 	c #8E5C57",
">i 	c #8A5955",
",i 	c #83514D",
"'i 	c #7F4F4A",
")i 	c #81514C",
"!i 	c #7E534F",
"~i 	c #785550",
"{i 	c #754D4D",
"]i 	c #755354",
"^i 	c #9B9093",
"/i 	c #ABA9AD",
"(i 	c #B4B3BA",
"_i 	c #BAB3BB",
":i 	c #7F6662",
"<i 	c #76514D",
"[i 	c #7B4F4E",
"}i 	c #7F5551",
"|i 	c #7D574F",
"1i 	c #875C55",
"2i 	c #8B5D58",
"3i 	c #8A5A5C",
"4i 	c #916162",
"5i 	c #915F62",
"6i 	c #936265",
"7i 	c #8F5E60",
"8i 	c #8C5B5E",
"9i 	c #8F6060",
"0i 	c #865959",
"ai 	c #794E4E",
"bi 	c #754D4C",
"ci 	c #704949",
"di 	c #684443",
"ei 	c #603D3E",
"fi 	c #573939",
"gi 	c #4B3131",
"hi 	c #3E2727",
"ii 	c #332121",
"ji 	c #2B1B1B",
"ki 	c #1F1213",
"li 	c #160C0C",
"mi 	c #0E0707",
"ni 	c #070303",
"oi 	c #1C1A1D",
"pi 	c #271D1D",
"qi 	c #2E1F20",
"ri 	c #3A282A",
"si 	c #463233",
"ti 	c #4E383A",
"ui 	c #543E3F",
"vi 	c #5E4547",
"wi 	c #66484A",
"xi 	c #6D4B4E",
"yi 	c #7D595C",
"zi 	c #7E595C",
"Ai 	c #7D585A",
"Bi 	c #724C4E",
"Ci 	c #9A7274",
"Di 	c #6A5052",
"Ei 	c #684F51",
"Fi 	c #5B4446",
"Gi 	c #513C3E",
"Hi 	c #483638",
"Ii 	c #38292A",
"Ji 	c #2D2022",
"Ki 	c #23191A",
"Li 	c #1A1113",
"Mi 	c #120C0D",
"Ni 	c #0C0708",
"Oi 	c #070404",
"Pi 	c #080404",
"Qi 	c #0E0808",
"Ri 	c #180F0F",
"Si 	c #211616",
"Ti 	c #2B1F1E",
"Ui 	c #332424",
"Vi 	c #433332",
"Wi 	c #483433",
"Xi 	c #533D3C",
"Yi 	c #6D5251",
"Zi 	c #765958",
"`i 	c #775857",
" j 	c #815F5E",
".j 	c #896665",
"+j 	c #8F6C6B",
"@j 	c #94706F",
"#j 	c #936D6B",
"$j 	c #8D6866",
"%j 	c #97706E",
"&j 	c #94706E",
"*j 	c #926D6A",
"=j 	c #926E6C",
"-j 	c #8E6C6C",
";j 	c #826265",
">j 	c #89686B",
",j 	c #8B6768",
"'j 	c #8E6A6B",
")j 	c #947273",
"!j 	c #937173",
"~j 	c #8E6E71",
"{j 	c #8C6F71",
"]j 	c #907273",
"^j 	c #8E7073",
"/j 	c #8B6E70",
"(j 	c #887170",
"_j 	c #896E71",
":j 	c #897174",
"<j 	c #9D989B",
"[j 	c #A7A8AB",
"}j 	c #B1B1B8",
"|j 	c #B5B0B8",
"1j 	c #897C7D",
"2j 	c #816A6D",
"3j 	c #85676B",
"4j 	c #876A6C",
"5j 	c #846B6C",
"6j 	c #876E6E",
"7j 	c #8E7170",
"8j 	c #937171",
"9j 	c #926F72",
"0j 	c #957274",
"aj 	c #947074",
"bj 	c #987376",
"cj 	c #977477",
"dj 	c #967476",
"ej 	c #917273",
"fj 	c #846869",
"gj 	c #7F6364",
"hj 	c #785E5E",
"ij 	c #6F5556",
"jj 	c #644C4E",
"kj 	c #594445",
"lj 	c #3F3030",
"mj 	c #342728",
"nj 	c #2A1F1F",
"oj 	c #150F0F",
"pj 	c #0E0909",
"qj 	c #070405",
"rj 	c #1F1D1F",
"sj 	c #2F2929",
"tj 	c #362E2F",
"uj 	c #463B3D",
"vj 	c #524749",
"wj 	c #5B5052",
"xj 	c #625759",
"yj 	c #6C5E60",
"zj 	c #746466",
"Aj 	c #7C6A6E",
"Bj 	c #897679",
"Cj 	c #8B767B",
"Dj 	c #887377",
"Ej 	c #806D70",
"Fj 	c #9E8488",
"Gj 	c #8D8283",
"Hj 	c #847B7B",
"Ij 	c #746B6C",
"Jj 	c #696162",
"Kj 	c #625C5C",
"Lj 	c #504A4B",
"Mj 	c #413B3D",
"Nj 	c #343032",
"Oj 	c #292527",
"Pj 	c #1E1B1D",
"Qj 	c #050405",
"Rj 	c #120F11",
"Sj 	c #1C181A",
"Tj 	c #272325",
"Uj 	c #322E31",
"Vj 	c #3D373B",
"Wj 	c #4F494C",
"Xj 	c #4F484D",
"Yj 	c #62595E",
"Zj 	c #71676D",
"`j 	c #766B72",
" k 	c #7C6F76",
".k 	c #8A7C84",
"+k 	c #96878F",
"@k 	c #A0919B",
"#k 	c #A4949D",
"$k 	c #968790",
"%k 	c #95878F",
"&k 	c #8E8089",
"*k 	c #948A92",
"=k 	c #887C86",
"-k 	c #A2949C",
";k 	c #B9A8B1",
">k 	c #BDABB4",
",k 	c #C3B0BA",
"'k 	c #9F919B",
")k 	c #988F98",
"!k 	c #A89DA7",
"~k 	c #ACA1AC",
"{k 	c #AEA4AE",
"]k 	c #B1A7B1",
"^k 	c #B5ABB4",
"/k 	c #B5ACB5",
"(k 	c #AAA0A7",
"_k 	c #ADA1A6",
":k 	c #B6A5AC",
"<k 	c #B4A6AC",
"[k 	c #B0B2B6",
"}k 	c #A8AFB2",
"|k 	c #B0B1B7",
"1k 	c #ADACB3",
"2k 	c #A6A8B0",
"3k 	c #A19BA4",
"4k 	c #A195A0",
"5k 	c #9F949F",
"6k 	c #A19AA2",
"7k 	c #A39CA4",
"8k 	c #A69BA3",
"9k 	c #A99AA1",
"0k 	c #AA9C9F",
"ak 	c #A4979B",
"bk 	c #A39498",
"ck 	c #A7989C",
"dk 	c #B1A2A7",
"ek 	c #B1A1A6",
"fk 	c #AB9EA2",
"gk 	c #ABA2A5",
"hk 	c #A39A9D",
"ik 	c #9A9092",
"jk 	c #91898A",
"kk 	c #837B7C",
"lk 	c #746C6E",
"mk 	c #655E60",
"nk 	c #565151",
"ok 	c #474444",
"pk 	c #3A3737",
"qk 	c #2B2828",
"rk 	c #242222",
"sk 	c #191717",
"tk 	c #0F0E0E",
"uk 	c #0A0A0B",
"vk 	c #121314",
"wk 	c #222324",
"xk 	c #2C2D2E",
"yk 	c #3D3E3F",
"zk 	c #4A4A4C",
"Ak 	c #5F5F61",
"Bk 	c #6F7072",
"Ck 	c #7A7C7F",
"Dk 	c #82878A",
"Ek 	c #898E91",
"Fk 	c #95979B",
"Gk 	c #A2A4A8",
"Hk 	c #ABADB1",
"Ik 	c #ACAFB4",
"Jk 	c #A7AAB0",
"Kk 	c #AAACB1",
"Lk 	c #918D8E",
"Mk 	c #858283",
"Nk 	c #7D7B7C",
"Ok 	c #737071",
"Pk 	c #666464",
"Qk 	c #565556",
"Rk 	c #494849",
"Sk 	c #3A393B",
"Tk 	c #2E2D2F",
"Uk 	c #252425",
"Vk 	c #191919",
"Wk 	c #030304",
"Xk 	c #0A090B",
"Yk 	c #111012",
"Zk 	c #232324",
"`k 	c #2E2D30",
" l 	c #3E3D40",
".l 	c #4D4B4F",
"+l 	c #585459",
"@l 	c #6C666C",
"#l 	c #847C83",
"$l 	c #898187",
"%l 	c #948D93",
"&l 	c #A1989F",
"*l 	c #ABA4AA",
"=l 	c #B2B0B7",
"-l 	c #B5B5BB",
";l 	c #B0B0B7",
">l 	c #AFAEB5",
",l 	c #A9A5AF",
"'l 	c #AFABB7",
")l 	c #BBB2BC",
"!l 	c #BFB5BD",
"~l 	c #C7BDC7",
"{l 	c #C7BEC8",
"]l 	c #B3AEB6",
"^l 	c #B6B3BA",
"/l 	c #B8B4BB",
"(l 	c #BBB6BE",
"_l 	c #B9B5BB",
":l 	c #BAB4BB",
"<l 	c #B7B1B8",
"[l 	c #AFA8AF",
"}l 	c #B1A9B0",
"|l 	c #B4ABB1",
"1l 	c #B9AEB6",
"2l 	c #BAB1B8",
"3l 	c #A5A5AB",
"4l 	c #A3A5AB",
"5l 	c #ADADB5",
"6l 	c #ADABB4",
"7l 	c #A5A5AC",
"8l 	c #A5A2AA",
"9l 	c #A39DA7",
"0l 	c #A9A2AB",
"al 	c #A8A2AA",
"bl 	c #ADA6AE",
"cl 	c #B6ADB5",
"dl 	c #B3AAB1",
"el 	c #AAA3A8",
"fl 	c #AFA9AE",
"gl 	c #AFA9B0",
"hl 	c #B5B0B7",
"il 	c #B3ADB7",
"jl 	c #B0ABB3",
"kl 	c #BCB9C1",
"ll 	c #B0ADB4",
"ml 	c #B2AFB4",
"nl 	c #A19FA1",
"ol 	c #939294",
"pl 	c #7F7F81",
"ql 	c #6C6D6F",
"rl 	c #5A5C5D",
"sl 	c #494B4B",
"tl 	c #414040",
"ul 	c #353434",
"vl 	c #262425",
"wl 	c #1C1C1C",
"xl 	c #141413",
"yl 	c #0B0A09",
"zl 	c #030203",
"Al 	c #060506",
"Bl 	c #0D0D0D",
"Cl 	c #161516",
"Dl 	c #323133",
"El 	c #454445",
"Fl 	c #545254",
"Gl 	c #656163",
"Hl 	c #767173",
"Il 	c #837E80",
"Jl 	c #908B8C",
"Kl 	c #9E999C",
"Ll 	c #ACA6AB",
"Ml 	c #B3ADB3",
"Nl 	c #B8B3B9",
"Ol 	c #B5B2B8",
"Pl 	c #BAB9BF",
"Ql 	c #B6B7BD",
"Rl 	c #B9BBC2",
"Sl 	c #938F90",
"Tl 	c #878485",
"Ul 	c #807E80",
"Vl 	c #797778",
"Wl 	c #6B6969",
"Xl 	c #5C5B5C",
"Yl 	c #4E4D4E",
"Zl 	c #413F41",
"`l 	c #353436",
" m 	c #2A292A",
".m 	c #1D1D1D",
"+m 	c #131314",
"@m 	c #040405",
"#m 	c #0F0E10",
"$m 	c #161517",
"%m 	c #212022",
"&m 	c #2D2D2F",
"*m 	c #3E3D3F",
"=m 	c #4C4A4D",
"-m 	c #595459",
";m 	c #6C656C",
">m 	c #817980",
",m 	c #888086",
"'m 	c #948D92",
")m 	c #A1989D",
"!m 	c #ABA5AB",
"~m 	c #B2B1B7",
"{m 	c #B4B7BD",
"]m 	c #B1B6BB",
"^m 	c #B2B3BA",
"/m 	c #B0ACB7",
"(m 	c #B9B3BF",
"_m 	c #B9B3BE",
":m 	c #BDB4BD",
"<m 	c #BDB3BA",
"[m 	c #C5BBC3",
"}m 	c #C3BAC4",
"|m 	c #B6B0B7",
"1m 	c #B4AFB4",
"2m 	c #B3AFB5",
"3m 	c #B2ABB1",
"4m 	c #ACA4AB",
"5m 	c #A199A0",
"6m 	c #A49BA2",
"7m 	c #A79DA3",
"8m 	c #ACA3A9",
"9m 	c #98959A",
"0m 	c #9A989E",
"am 	c #A19EA5",
"bm 	c #A19CA5",
"cm 	c #96959A",
"dm 	c #99949B",
"em 	c #989299",
"fm 	c #9E979E",
"gm 	c #9F979E",
"hm 	c #A59CA2",
"im 	c #AFA4AB",
"jm 	c #ADA3AA",
"km 	c #A7A0A4",
"lm 	c #AFA8AD",
"mm 	c #B2AAB1",
"nm 	c #B7B0B7",
"om 	c #B6AEB8",
"pm 	c #B4AEB6",
"qm 	c #C3BFC6",
"rm 	c #B5B1B7",
"sm 	c #B6B2B6",
"tm 	c #9F9D9F",
"um 	c #949395",
"vm 	c #7F8082",
"wm 	c #6D6F71",
"xm 	c #5A5D5F",
"ym 	c #4A4C4B",
"zm 	c #424141",
"Am 	c #363435",
"Bm 	c #242323",
"Cm 	c #1B1B1B",
"Dm 	c #131312",
"Em 	c #060606",
"Fm 	c #0E0D0E",
"Gm 	c #171617",
"Hm 	c #242324",
"Im 	c #343233",
"Jm 	c #464345",
"Km 	c #565254",
"Lm 	c #645F61",
"Mm 	c #766F70",
"Nm 	c #847C7D",
"Om 	c #908788",
"Pm 	c #9F9698",
"Qm 	c #ABA2A7",
"Rm 	c #B2A9AF",
"Sm 	c #B7AFB4",
"Tm 	c #B4AEB4",
"Um 	c #BEB9BF",
"Vm 	c #BAB7BC",
"Wm 	c #BEBEC4",
"Xm 	c #856C70",
"Ym 	c #856E70",
"Zm 	c #7D696C",
"`m 	c #7C6A6C",
" n 	c #746566",
".n 	c #605254",
"+n 	c #4D4142",
"@n 	c #473C3E",
"#n 	c #3C3234",
"$n 	c #2C2426",
"%n 	c #221C1D",
"&n 	c #191515",
"*n 	c #131011",
"=n 	c #040304",
"-n 	c #171516",
";n 	c #221F21",
">n 	c #363334",
",n 	c #454041",
"'n 	c #564F50",
")n 	c #5E5356",
"!n 	c #6F6265",
"~n 	c #6D5C61",
"{n 	c #79676C",
"]n 	c #8B767A",
"^n 	c #91777E",
"/n 	c #9A858B",
"(n 	c #9F9297",
"_n 	c #9A9499",
":n 	c #98959C",
"<n 	c #B8ADB5",
"[n 	c #D4BCC0",
"}n 	c #C4ABAC",
"|n 	c #A68785",
"1n 	c #AA8D8B",
"2n 	c #A98D8C",
"3n 	c #B49896",
"4n 	c #A78B87",
"5n 	c #8B6E6B",
"6n 	c #7A5E5B",
"7n 	c #8C6F6D",
"8n 	c #8C6E6C",
"9n 	c #755857",
"0n 	c #6B504F",
"an 	c #624746",
"bn 	c #654B4A",
"cn 	c #7A605F",
"dn 	c #6F5656",
"en 	c #8A7372",
"fn 	c #988181",
"gn 	c #8C7576",
"hn 	c #85706F",
"in 	c #614C4A",
"jn 	c #66514D",
"kn 	c #735D5A",
"ln 	c #755D5B",
"mn 	c #7B625F",
"nn 	c #836865",
"on 	c #896B6A",
"pn 	c #937775",
"qn 	c #B49897",
"rn 	c #C2A7A7",
"sn 	c #BCA2A2",
"tn 	c #CDB5B6",
"un 	c #D4B9BC",
"vn 	c #DEC4C9",
"wn 	c #D4B8BE",
"xn 	c #C2A8AD",
"yn 	c #8D7B7C",
"zn 	c #887C7D",
"An 	c #7E767A",
"Bn 	c #6C676C",
"Cn 	c #5B5A5D",
"Dn 	c #52504F",
"En 	c #443C3C",
"Fn 	c #352D2E",
"Gn 	c #1C1616",
"Hn 	c #14100F",
"In 	c #070403",
"Jn 	c #0F0A09",
"Kn 	c #191210",
"Ln 	c #211716",
"Mn 	c #2A1D1C",
"Nn 	c #3D2C2A",
"On 	c #3F2A28",
"Pn 	c #533936",
"Qn 	c #61453F",
"Rn 	c #694943",
"Sn 	c #6A4841",
"Tn 	c #6A4742",
"Un 	c #775550",
"Vn 	c #8E6D69",
"Wn 	c #9A7A77",
"Xn 	c #B29590",
"Yn 	c #BEA19E",
"Zn 	c #CFB5B3",
"`n 	c #724F52",
" o 	c #694B4C",
".o 	c #684C4E",
"+o 	c #644C4D",
"@o 	c #5F4A4A",
"#o 	c #4E3B3C",
"$o 	c #423032",
"%o 	c #3B2B2D",
"&o 	c #322426",
"*o 	c #261B1D",
"=o 	c #1C1415",
"-o 	c #140E0E",
";o 	c #0E0A0A",
">o 	c #090607",
",o 	c #050304",
"'o 	c #201C1C",
")o 	c #2C2727",
"!o 	c #342E2E",
"~o 	c #403738",
"{o 	c #46393B",
"]o 	c #4F4042",
"^o 	c #544043",
"/o 	c #614B4E",
"(o 	c #72585D",
"_o 	c #795A61",
":o 	c #81656C",
"<o 	c #877379",
"[o 	c #8A7E84",
"}o 	c #958E94",
"|o 	c #A89DA5",
"1o 	c #B19FA7",
"2o 	c #A68789",
"3o 	c #9E7C7A",
"4o 	c #815B57",
"5o 	c #835D59",
"6o 	c #825F5B",
"7o 	c #7E5E5B",
"8o 	c #8C6966",
"9o 	c #85625C",
"0o 	c #75504B",
"ao 	c #66423E",
"bo 	c #6A4845",
"co 	c #6C4845",
"do 	c #603D3A",
"eo 	c #563532",
"fo 	c #53322F",
"go 	c #5E413D",
"ho 	c #513634",
"io 	c #5E4544",
"jo 	c #664E4D",
"ko 	c #5C4544",
"lo 	c #574140",
"mo 	c #503632",
"no 	c #523834",
"oo 	c #543B37",
"po 	c #553B37",
"qo 	c #5C3F3C",
"ro 	c #634440",
"so 	c #664542",
"to 	c #6B4C49",
"uo 	c #7A5D5A",
"vo 	c #7F615F",
"wo 	c #846966",
"xo 	c #886968",
"yo 	c #937776",
"zo 	c #96797A",
"Ao 	c #A58788",
"Bo 	c #AA8889",
"Co 	c #99797A",
"Do 	c #775A5A",
"Eo 	c #745B5B",
"Fo 	c #7A696A",
"Go 	c #75696C",
"Ho 	c #696166",
"Io 	c #5F5A5D",
"Jo 	c #524C4C",
"Ko 	c #33292A",
"Lo 	c #281E1F",
"Mo 	c #070302",
"No 	c #150B09",
"Oo 	c #221513",
"Po 	c #3A2522",
"Qo 	c #412724",
"Ro 	c #50322D",
"So 	c #5B3933",
"To 	c #674039",
"Uo 	c #70453D",
"Vo 	c #744940",
"Wo 	c #7B5048",
"Xo 	c #916762",
"Yo 	c #A9827A",
"Zo 	c #B48D86",
"`o 	c #B99690",
" p 	c #653537",
".p 	c #532527",
"+p 	c #583030",
"@p 	c #512D2D",
"#p 	c #4F2F2F",
"$p 	c #402323",
"%p 	c #3A1E20",
"&p 	c #321A1C",
"*p 	c #2B1618",
"=p 	c #231213",
"-p 	c #190C0D",
";p 	c #100607",
">p 	c #0A0405",
",p 	c #050203",
"'p 	c #100C0D",
")p 	c #1C1717",
"!p 	c #231D1C",
"~p 	c #282020",
"{p 	c #312626",
"]p 	c #342526",
"^p 	c #382526",
"/p 	c #41292B",
"(p 	c #503538",
"_p 	c #624246",
":p 	c #67444A",
"<p 	c #6F4E55",
"[p 	c #765C63",
"}p 	c #7F6F75",
"|p 	c #93898F",
"1p 	c #A89AA2",
"2p 	c #AC979E",
"3p 	c #855857",
"4p 	c #82524D",
"5p 	c #683228",
"6p 	c #693329",
"7p 	c #653129",
"8p 	c #5E2F28",
"9p 	c #6C3E36",
"0p 	c #65362E",
"ap 	c #582922",
"bp 	c #53251E",
"cp 	c #542721",
"dp 	c #461D18",
"ep 	c #47201B",
"fp 	c #401C16",
"gp 	c #482722",
"hp 	c #3A1A16",
"ip 	c #3D1F1B",
"jp 	c #412522",
"kp 	c #391B17",
"lp 	c #351814",
"mp 	c #41241E",
"np 	c #42251F",
"op 	c #3D1E18",
"pp 	c #3E1D17",
"qp 	c #45221C",
"rp 	c #4B251F",
"sp 	c #4D241D",
"tp 	c #4F251E",
"up 	c #562C26",
"vp 	c #52261F",
"wp 	c #61342E",
"xp 	c #663A35",
"yp 	c #633734",
"zp 	c #784F4C",
"Ap 	c #8A5F5C",
"Bp 	c #7A504D",
"Cp 	c #653D3A",
"Dp 	c #634241",
"Ep 	c #715A5C",
"Fp 	c #6F6063",
"Gp 	c #675D62",
"Hp 	c #5F595C",
"Ip 	c #514B4B",
"Jp 	c #271A1C",
"Kp 	c #1F1314",
"Lp 	c #170D0D",
"Mp 	c #0C0606",
"Np 	c #060303",
"Op 	c #130604",
"Pp 	c #241411",
"Qp 	c #2F1A17",
"Rp 	c #381F1A",
"Sp 	c #422520",
"Tp 	c #4F2C26",
"Up 	c #573029",
"Vp 	c #653930",
"Wp 	c #724239",
"Xp 	c #79483E",
"Yp 	c #7C4C41",
"Zp 	c #875549",
"`p 	c #8C5A50",
" q 	c #A27367",
".q 	c #AD7F75",
"+q 	c #AB8076",
"@q 	c #642321",
"#q 	c #622523",
"$q 	c #693130",
"%q 	c #673433",
"&q 	c #5B2D2A",
"*q 	c #532A28",
"=q 	c #4A2523",
"-q 	c #3B1A19",
";q 	c #2F1312",
">q 	c #271110",
",q 	c #200E0C",
"'q 	c #170908",
")q 	c #180908",
"!q 	c #241010",
"~q 	c #2C1412",
"{q 	c #361A18",
"]q 	c #472625",
"^q 	c #502B2A",
"/q 	c #5A3333",
"(q 	c #663B3D",
"_q 	c #6A4446",
":q 	c #867878",
"<q 	c #A59D9E",
"[q 	c #ABA0A2",
"}q 	c #B09A9E",
"|q 	c #7E4341",
"1q 	c #7C3E3A",
"2q 	c #833F37",
"3q 	c #793932",
"4q 	c #773B35",
"5q 	c #6E312D",
"6q 	c #6C2F2B",
"7q 	c #642723",
"8q 	c #5F2421",
"9q 	c #5B2320",
"0q 	c #541E1B",
"aq 	c #4B1714",
"bq 	c #481715",
"cq 	c #471917",
"dq 	c #411914",
"eq 	c #350F0A",
"fq 	c #34100C",
"gq 	c #381613",
"hq 	c #361614",
"iq 	c #32120F",
"jq 	c #34140F",
"kq 	c #32110C",
"lq 	c #320F0A",
"mq 	c #39130E",
"nq 	c #3F1712",
"oq 	c #461B16",
"pq 	c #4D1E19",
"qq 	c #511F1B",
"rq 	c #56211C",
"sq 	c #57201B",
"tq 	c #5C231E",
"uq 	c #672C29",
"vq 	c #703532",
"wq 	c #662A28",
"xq 	c #581F19",
"yq 	c #5E271A",
"zq 	c #743D30",
"Aq 	c #744239",
"Bq 	c #6E433B",
"Cq 	c #654745",
"Dq 	c #655555",
"Eq 	c #655C5E",
"Fq 	c #5D585A",
"Gq 	c #4B4444",
"Hq 	c #231514",
"Iq 	c #1E0F0F",
"Jq 	c #140806",
"Kq 	c #150503",
"Lq 	c #1F0907",
"Mq 	c #2C120F",
"Nq 	c #371815",
"Oq 	c #482320",
"Pq 	c #4F2622",
"Qq 	c #552723",
"Rq 	c #5F2D27",
"Sq 	c #6D3830",
"Tq 	c #774036",
"Uq 	c #7F453A",
"Vq 	c #8E5146",
"Wq 	c #8D5147",
"Xq 	c #8F534A",
"Yq 	c #9D635B",
"Zq 	c #672724",
"`q 	c #642724",
" r 	c #6E3532",
".r 	c #693632",
"+r 	c #60312D",
"@r 	c #582D2A",
"#r 	c #4F2927",
"$r 	c #432220",
"%r 	c #2E1614",
"&r 	c #24100F",
"*r 	c #1B0C0A",
"=r 	c #110605",
"-r 	c #030100",
";r 	c #0D0303",
">r 	c #160807",
",r 	c #1E0B0A",
"'r 	c #281110",
")r 	c #452422",
"!r 	c #4E2B29",
"~r 	c #5F3738",
"{r 	c #694647",
"]r 	c #715A5A",
"^r 	c #847776",
"/r 	c #9C9797",
"(r 	c #A79FA1",
"_r 	c #B09CA0",
":r 	c #804645",
"<r 	c #814543",
"[r 	c #82433B",
"}r 	c #763A34",
"|r 	c #713833",
"1r 	c #6B302E",
"2r 	c #672D2B",
"3r 	c #612927",
"4r 	c #5D2625",
"5r 	c #572322",
"6r 	c #4E1D1C",
"7r 	c #441716",
"8r 	c #401515",
"9r 	c #3D1715",
"0r 	c #361511",
"ar 	c #2E0F0C",
"br 	c #2C0E0C",
"cr 	c #2E1312",
"dr 	c #2C1210",
"er 	c #280E0D",
"fr 	c #2C110E",
"gr 	c #2B100C",
"hr 	c #2E120E",
"ir 	c #341411",
"jr 	c #381612",
"kr 	c #3F1915",
"lr 	c #461C18",
"mr 	c #481B18",
"nr 	c #4D1B18",
"or 	c #501D19",
"pr 	c #582321",
"qr 	c #622A28",
"rr 	c #68302F",
"sr 	c #612827",
"tr 	c #5C2420",
"ur 	c #5F2A1D",
"vr 	c #6E3A2C",
"wr 	c #734339",
"xr 	c #6A4038",
"yr 	c #604442",
"zr 	c #625252",
"Ar 	c #615B5C",
"Br 	c #5A5658",
"Cr 	c #484241",
"Dr 	c #221413",
"Er 	c #130806",
"Fr 	c #0B0403",
"Gr 	c #1A0906",
"Hr 	c #220C09",
"Ir 	c #46221F",
"Jr 	c #592D29",
"Kr 	c #62312D",
"Lr 	c #6F3B35",
"Mr 	c #7A443B",
"Nr 	c #81483F",
"Or 	c #864C43",
"Pr 	c #8A4F46",
"Qr 	c #8C504A",
"Rr 	c #6C2C26",
"Sr 	c #733934",
"Tr 	c #6B3732",
"Ur 	c #653630",
"Vr 	c #5C312C",
"Wr 	c #542F2B",
"Xr 	c #4B2A26",
"Yr 	c #402320",
"Zr 	c #341B19",
"`r 	c #261210",
" s 	c #1E0E0C",
".s 	c #130706",
"+s 	c #250F0E",
"@s 	c #301614",
"#s 	c #40211F",
"$s 	c #4B2B28",
"%s 	c #4C2A29",
"&s 	c #583232",
"*s 	c #684849",
"=s 	c #755E5E",
"-s 	c #817675",
";s 	c #93908F",
">s 	c #A39D9E",
",s 	c #B09DA0",
"'s 	c #814848",
")s 	c #844B4A",
"!s 	c #7D3F3A",
"~s 	c #85443F",
"{s 	c #753B36",
"]s 	c #6A3431",
"^s 	c #66302E",
"/s 	c #622C2B",
"(s 	c #5E2A2A",
"_s 	c #582727",
":s 	c #502222",
"<s 	c #471C1C",
"[s 	c #3D1515",
"}s 	c #371213",
"|s 	c #341312",
"1s 	c #2D100E",
"2s 	c #270D0B",
"3s 	c #230C0A",
"4s 	c #210D0C",
"5s 	c #230D0A",
"6s 	c #28110E",
"7s 	c #301311",
"8s 	c #381713",
"9s 	c #3E1916",
"0s 	c #3F1715",
"as 	c #431614",
"bs 	c #491918",
"cs 	c #542222",
"ds 	c #5B2726",
"es 	c #602B2B",
"fs 	c #5D2627",
"gs 	c #5E2A24",
"hs 	c #5F2E20",
"is 	c #683628",
"js 	c #724438",
"ks 	c #663D35",
"ls 	c #5B403E",
"ms 	c #5D504F",
"ns 	c #5D5859",
"os 	c #555455",
"ps 	c #443F3F",
"qs 	c #201313",
"rs 	c #1B0E0D",
"ss 	c #120705",
"ts 	c #0A0402",
"us 	c #2F1311",
"vs 	c #391A17",
"ws 	c #45211F",
"xs 	c #4F2724",
"ys 	c #5D302F",
"zs 	c #653533",
"As 	c #713F3B",
"Bs 	c #824B43",
"Cs 	c #844B44",
"Ds 	c #8B514C",
"Es 	c #8A4F4C",
"Fs 	c #8F5450",
"Gs 	c #773838",
"Hs 	c #6F3433",
"Is 	c #7B4342",
"Js 	c #764240",
"Ks 	c #6F403D",
"Ls 	c #663B39",
"Ms 	c #593432",
"Ns 	c #412524",
"Os 	c #361F1E",
"Ps 	c #301C1B",
"Qs 	c #251614",
"Rs 	c #180C0B",
"Ss 	c #100706",
"Ts 	c #0A0403",
"Us 	c #110706",
"Vs 	c #150807",
"Ws 	c #432826",
"Xs 	c #4E312E",
"Ys 	c #5A3837",
"Zs 	c #624444",
"`s 	c #6E5858",
" t 	c #827577",
".t 	c #9E969B",
"+t 	c #ADA0A8",
"@t 	c #AA949C",
"#t 	c #713D39",
"$t 	c #7B433B",
"%t 	c #79443E",
"&t 	c #62312B",
"*t 	c #653633",
"=t 	c #5F322F",
"-t 	c #562B29",
";t 	c #4D2624",
">t 	c #431E1D",
",t 	c #391716",
"'t 	c #301211",
")t 	c #2A0E0D",
"!t 	c #250D0B",
"~t 	c #200B08",
"{t 	c #1A0A09",
"]t 	c #170808",
"^t 	c #1B0C09",
"/t 	c #1D0D0A",
"(t 	c #1E0D0A",
"_t 	c #220F0B",
":t 	c #27100D",
"<t 	c #2C120E",
"[t 	c #321411",
"}t 	c #361512",
"|t 	c #391210",
"1t 	c #421816",
"2t 	c #4E211F",
"3t 	c #5B2B2A",
"4t 	c #623030",
"5t 	c #5C2828",
"6t 	c #592925",
"7t 	c #5E3229",
"8t 	c #663931",
"9t 	c #6F413C",
"0t 	c #6B423E",
"at 	c #5C4341",
"bt 	c #574C4B",
"ct 	c #555252",
"dt 	c #4F4F50",
"et 	c #403C3E",
"ft 	c #1F1212",
"gt 	c #170A08",
"ht 	c #1C0906",
"it 	c #230D08",
"jt 	c #2F140F",
"kt 	c #3C1D18",
"lt 	c #48251F",
"mt 	c #512B26",
"nt 	c #522823",
"ot 	c #633833",
"pt 	c #77453D",
"qt 	c #7E4A42",
"rt 	c #854D45",
"st 	c #864B48",
"tt 	c #8C4E4D",
"ut 	c #7E3D3E",
"vt 	c #773A3A",
"wt 	c #7F4646",
"xt 	c #7A4443",
"yt 	c #734241",
"zt 	c #6B3E3D",
"At 	c #5F3736",
"Bt 	c #533130",
"Ct 	c #462828",
"Dt 	c #3B2221",
"Et 	c #34201F",
"Ft 	c #281817",
"Gt 	c #140908",
"Ht 	c #040102",
"It 	c #080303",
"Jt 	c #0E0605",
"Kt 	c #130807",
"Lt 	c #1D0E0D",
"Mt 	c #321D1B",
"Nt 	c #3D2623",
"Ot 	c #4A2F2C",
"Pt 	c #553433",
"Qt 	c #5E4041",
"Rt 	c #6A5454",
"St 	c #7E6F73",
"Tt 	c #988E94",
"Ut 	c #A899A3",
"Vt 	c #A9919B",
"Wt 	c #72413D",
"Xt 	c #73403C",
"Yt 	c #8A5249",
"Zt 	c #774138",
"`t 	c #75433B",
" u 	c #60342F",
".u 	c #582F2B",
"+u 	c #4E2825",
"@u 	c #462220",
"#u 	c #3C1B18",
"$u 	c #290F0D",
"%u 	c #220B0A",
"&u 	c #1C0807",
"*u 	c #140504",
"=u 	c #0E0504",
"-u 	c #180906",
";u 	c #210C09",
">u 	c #270E0B",
",u 	c #2D110D",
"'u 	c #33100E",
")u 	c #3B1513",
"!u 	c #441A19",
"~u 	c #4F2322",
"{u 	c #582929",
"]u 	c #562525",
"^u 	c #592B27",
"/u 	c #5C322B",
"(u 	c #6B3F3B",
"_u 	c #653D3B",
":u 	c #59403F",
"<u 	c #554849",
"[u 	c #524F4F",
"}u 	c #4C4C4D",
"|u 	c #3E3A3C",
"1u 	c #1D1010",
"2u 	c #100503",
"3u 	c #0F0503",
"4u 	c #150604",
"5u 	c #1D0A07",
"6u 	c #270F0A",
"7u 	c #321710",
"8u 	c #40201A",
"9u 	c #4C2821",
"0u 	c #522B25",
"au 	c #552C25",
"bu 	c #663A34",
"cu 	c #73443D",
"du 	c #7B4940",
"eu 	c #824D44",
"fu 	c #895148",
"gu 	c #8D524B",
"hu 	c #8C4F4B",
"iu 	c #90514F",
"ju 	c #884449",
"ku 	c #834446",
"lu 	c #83484B",
"mu 	c #7D4547",
"nu 	c #774444",
"ou 	c #703F41",
"pu 	c #64393B",
"qu 	c #593536",
"ru 	c #4C2D2D",
"su 	c #402525",
"tu 	c #2C1A19",
"uu 	c #201111",
"vu 	c #180C0C",
"wu 	c #110707",
"xu 	c #090304",
"yu 	c #060302",
"zu 	c #0C0505",
"Au 	c #130808",
"Bu 	c #190D0C",
"Cu 	c #221311",
"Du 	c #2D1B19",
"Eu 	c #382321",
"Fu 	c #482D2C",
"Gu 	c #583A3C",
"Hu 	c #664F52",
"Iu 	c #79676B",
"Ju 	c #8E8088",
"Ku 	c #A08E98",
"Lu 	c #AB919C",
"Mu 	c #794843",
"Nu 	c #7D4943",
"Ou 	c #80493E",
"Pu 	c #754035",
"Qu 	c #714037",
"Ru 	c #63372F",
"Su 	c #5B312B",
"Tu 	c #522B26",
"Uu 	c #492621",
"Vu 	c #3F1F1B",
"Wu 	c #351915",
"Xu 	c #2C1310",
"Yu 	c #1D0805",
"Zu 	c #250C09",
"`u 	c #2F0F0D",
" v 	c #35130F",
".v 	c #38100E",
"+v 	c #3E1310",
"@v 	c #4C1F1D",
"#v 	c #522220",
"$v 	c #5B2F2B",
"%v 	c #5C332F",
"&v 	c #613835",
"*v 	c #683C3A",
"=v 	c #5D3434",
"-v 	c #563B3C",
";v 	c #534546",
">v 	c #4F4A4C",
",v 	c #49484A",
"'v 	c #3B3639",
")v 	c #1A0D0E",
"!v 	c #140503",
"~v 	c #1E0A07",
"{v 	c #2C140C",
"]v 	c #381B13",
"^v 	c #46251C",
"/v 	c #522D24",
"(v 	c #542C23",
"_v 	c #5D3229",
":v 	c #6B3D35",
"<v 	c #845145",
"[v 	c #975751",
"}v 	c #985753",
"|v 	c #8A454A",
"1v 	c #88474A",
"2v 	c #84474A",
"3v 	c #804648",
"4v 	c #7B4548",
"5v 	c #724142",
"6v 	c #673B3C",
"7v 	c #623C3D",
"8v 	c #563535",
"9v 	c #462929",
"0v 	c #3E2524",
"av 	c #331F1E",
"bv 	c #271615",
"cv 	c #1D100F",
"dv 	c #090403",
"ev 	c #160C0A",
"fv 	c #1F1210",
"gv 	c #291917",
"hv 	c #33201E",
"iv 	c #422A28",
"jv 	c #543A3C",
"kv 	c #634F53",
"lv 	c #76686E",
"mv 	c #897D85",
"nv 	c #95858E",
"ov 	c #967D86",
"pv 	c #71403A",
"qv 	c #6F3B34",
"rv 	c #764239",
"sv 	c #713E34",
"tv 	c #6C3E35",
"uv 	c #60352C",
"vv 	c #4F2721",
"wv 	c #46221B",
"xv 	c #3F1E19",
"yv 	c #351A15",
"zv 	c #2C1410",
"Av 	c #080201",
"Bv 	c #0F0302",
"Cv 	c #1D0806",
"Dv 	c #290F0C",
"Ev 	c #30120F",
"Fv 	c #32100C",
"Gv 	c #39120F",
"Hv 	c #441B18",
"Iv 	c #491F1B",
"Jv 	c #562D28",
"Kv 	c #5D3632",
"Lv 	c #643A38",
"Mv 	c #613534",
"Nv 	c #563B3D",
"Ov 	c #554647",
"Pv 	c #514B4D",
"Qv 	c #494648",
"Rv 	c #393336",
"Sv 	c #1C0E10",
"Tv 	c #040100",
"Uv 	c #0F0402",
"Vv 	c #170704",
"Wv 	c #1F0A05",
"Xv 	c #2C110A",
"Yv 	c #391A12",
"Zv 	c #442118",
"`v 	c #50281E",
" w 	c #5D3228",
".w 	c #6B3F33",
"+w 	c #744439",
"@w 	c #7C4B3F",
"#w 	c #875246",
"$w 	c #8B5448",
"%w 	c #9A5C53",
"&w 	c #8C494D",
"*w 	c #8B4B4E",
"=w 	c #834A4C",
"-w 	c #774647",
";w 	c #6C4040",
">w 	c #674040",
",w 	c #5C3A39",
"'w 	c #4C2D2C",
")w 	c #422827",
"!w 	c #382221",
"~w 	c #2C1918",
"{w 	c #211312",
"]w 	c #170A0B",
"^w 	c #0F0606",
"/w 	c #090404",
"(w 	c #120908",
"_w 	c #1B0F0E",
":w 	c #241614",
"<w 	c #2F1D1B",
"[w 	c #3D2624",
"}w 	c #472C2B",
"|w 	c #513839",
"1w 	c #5E4B50",
"2w 	c #6F6269",
"3w 	c #82787F",
"4w 	c #8D7F87",
"5w 	c #937C83",
"6w 	c #6B3A36",
"7w 	c #673630",
"8w 	c #6E3D36",
"9w 	c #6B3A32",
"0w 	c #5A312A",
"aw 	c #4A241E",
"bw 	c #3F1E18",
"cw 	c #2F1512",
"dw 	c #25100C",
"ew 	c #0E0302",
"fw 	c #160504",
"gw 	c #200A08",
"hw 	c #280E0C",
"iw 	c #2C0F0D",
"jw 	c #33120F",
"kw 	c #3D1916",
"lw 	c #441D1B",
"mw 	c #502A25",
"nw 	c #58332E",
"ow 	c #603835",
"pw 	c #5C3330",
"qw 	c #56302F",
"rw 	c #533B3B",
"sw 	c #514344",
"tw 	c #4C4849",
"uw 	c #444244",
"vw 	c #373133",
"ww 	c #1B0E0F",
"xw 	c #130606",
"yw 	c #180704",
"zw 	c #210C07",
"Aw 	c #2F130D",
"Bw 	c #452219",
"Cw 	c #512920",
"Dw 	c #5F352B",
"Ew 	c #6E4035",
"Fw 	c #76473B",
"Gw 	c #7E4C40",
"Hw 	c #865146",
"Iw 	c #895348",
"Jw 	c #874E45",
"Kw 	c #8E5349",
"Lw 	c #985B52",
"Mw 	c #95584F",
"Nw 	c #935555",
"Ow 	c #905554",
"Pw 	c #8C5554",
"Qw 	c #895755",
"Rw 	c #815451",
"Sw 	c #774E4A",
"Tw 	c #6B4742",
"Uw 	c #60403B",
"Vw 	c #543632",
"Ww 	c #452B28",
"Xw 	c #34201D",
"Yw 	c #281816",
"Zw 	c #1C0F0F",
"`w 	c #0B0404",
" x 	c #0B0505",
".x 	c #110909",
"+x 	c #180E0D",
"@x 	c #2C1B1A",
"#x 	c #3A2422",
"$x 	c #462D2A",
"%x 	c #4E3938",
"&x 	c #57474B",
"*x 	c #635A60",
"=x 	c #756F75",
"-x 	c #83797C",
";x 	c #A18E8E",
">x 	c #623131",
",x 	c #5F2F2F",
"'x 	c #603231",
")x 	c #5F3331",
"!x 	c #5B332E",
"~x 	c #542E2B",
"{x 	c #482521",
"]x 	c #3C1C19",
"^x 	c #341816",
"/x 	c #291310",
"(x 	c #1F0C0A",
"_x 	c #140404",
":x 	c #1D0808",
"<x 	c #2B1212",
"[x 	c #331715",
"}x 	c #391A18",
"|x 	c #42201F",
"1x 	c #4A2823",
"2x 	c #512E26",
"3x 	c #58342C",
"4x 	c #59342E",
"5x 	c #52312D",
"6x 	c #4F3C3A",
"7x 	c #4A4140",
"8x 	c #434141",
"9x 	c #3D3D3D",
"0x 	c #342F2F",
"ax 	c #190E0E",
"bx 	c #110606",
"cx 	c #27120D",
"dx 	c #361B17",
"ex 	c #401F1B",
"fx 	c #643B32",
"gx 	c #683B32",
"hx 	c #77483D",
"ix 	c #7E4C43",
"jx 	c #7D4B43",
"kx 	c #804C44",
"lx 	c #87524B",
"mx 	c #8C554E",
"nx 	c #8B554C",
"ox 	c #8E574F",
"px 	c #8B544C",
"qx 	c #8E5350",
"rx 	c #89504C",
"sx 	c #875954",
"tx 	c #835853",
"ux 	c #78514B",
"vx 	c #6F4A44",
"wx 	c #62403B",
"xx 	c #573833",
"yx 	c #523631",
"zx 	c #452D29",
"Ax 	c #37221F",
"Bx 	c #2B1A17",
"Cx 	c #150A0A",
"Dx 	c #0E0606",
"Ex 	c #0D0707",
"Fx 	c #140B0B",
"Gx 	c #1B0F10",
"Hx 	c #261616",
"Ix 	c #331D1C",
"Jx 	c #3D2321",
"Kx 	c #4A3434",
"Lx 	c #57484B",
"Mx 	c #63595E",
"Nx 	c #726B70",
"Ox 	c #7F7677",
"Px 	c #8F7D7B",
"Qx 	c #5A2B2D",
"Rx 	c #5D2F30",
"Sx 	c #562C2C",
"Tx 	c #542D2A",
"Ux 	c #4C2827",
"Vx 	c #42221F",
"Wx 	c #351816",
"Xx 	c #2B1311",
"Yx 	c #220E0D",
"Zx 	c #180607",
"`x 	c #210C0C",
" y 	c #2C1213",
".y 	c #311514",
"+y 	c #391A1A",
"@y 	c #472623",
"#y 	c #4E2E25",
"$y 	c #543228",
"%y 	c #56342C",
"&y 	c #51322D",
"*y 	c #473533",
"=y 	c #403838",
"-y 	c #3E3D3D",
";y 	c #3B3B3B",
">y 	c #302B2A",
",y 	c #180D0D",
"'y 	c #1D0B08",
")y 	c #29130F",
"!y 	c #3E1E1A",
"~y 	c #492520",
"{y 	c #572F2A",
"]y 	c #5E332C",
"^y 	c #72423A",
"/y 	c #7C4A43",
"(y 	c #814E47",
"_y 	c #7F4B46",
":y 	c #7C4741",
"<y 	c #88514C",
"[y 	c #8F5851",
"}y 	c #8D5650",
"|y 	c #89524C",
"1y 	c #87504B",
"2y 	c #89544F",
"3y 	c #885A54",
"4y 	c #875B55",
"5y 	c #7C534E",
"6y 	c #724C46",
"7y 	c #65423C",
"8y 	c #5C3B36",
"9y 	c #593B37",
"0y 	c #4B322D",
"ay 	c #3C2622",
"by 	c #2F1C19",
"cy 	c #251514",
"dy 	c #190C0B",
"ey 	c #0A0404",
"fy 	c #110809",
"gy 	c #170C0D",
"hy 	c #201212",
"iy 	c #2C1817",
"jy 	c #371F1C",
"ky 	c #443030",
"ly 	c #534446",
"my 	c #5E5559",
"ny 	c #6D676B",
"oy 	c #797171",
"py 	c #82716F",
"qy 	c #55282A",
"ry 	c #592D2E",
"sy 	c #592D2D",
"ty 	c #522A29",
"uy 	c #472523",
"vy 	c #3D1E1D",
"wy 	c #130505",
"xy 	c #1B0808",
"yy 	c #250E0F",
"zy 	c #321616",
"Ay 	c #41231F",
"By 	c #492B21",
"Cy 	c #4F2E25",
"Dy 	c #503129",
"Ey 	c #4C302A",
"Fy 	c #41302E",
"Gy 	c #3B3434",
"Hy 	c #3A3A3A",
"Iy 	c #383838",
"Jy 	c #2D2727",
"Ky 	c #170C0B",
"Ly 	c #1E0C09",
"My 	c #2B1410",
"Ny 	c #351916",
"Oy 	c #3E1E1B",
"Py 	c #4C2823",
"Qy 	c #582F2A",
"Ry 	c #5D312B",
"Sy 	c #693B33",
"Ty 	c #714039",
"Uy 	c #7C4842",
"Vy 	c #834F49",
"Wy 	c #804C46",
"Xy 	c #7A433F",
"Yy 	c #864F4A",
"Zy 	c #905853",
"`y 	c #8C5654",
" z 	c #885652",
".z 	c #815350",
"+z 	c #754A46",
"@z 	c #683F3D",
"#z 	c #5F3D3B",
"$z 	c #523432",
"%z 	c #3D2221",
"&z 	c #2F1817",
"*z 	c #261313",
"=z 	c #1C0B0C",
"-z 	c #291515",
";z 	c #3A2625",
">z 	c #453738",
",z 	c #564E50",
"'z 	c #6A6666",
")z 	c #6F6765",
"!z 	c #6C5D57",
"~z 	c #5D2E2D",
"{z 	c #542625",
"]z 	c #582C29",
"^z 	c #59302B",
"/z 	c #44221E",
"(z 	c #391C18",
"_z 	c #2D1310",
":z 	c #220D0B",
"<z 	c #160505",
"[z 	c #220C0B",
"}z 	c #260D0C",
"|z 	c #2E1210",
"1z 	c #3D1E1A",
"2z 	c #3F2018",
"3z 	c #48281F",
"4z 	c #472822",
"5z 	c #402421",
"6z 	c #342323",
"7z 	c #3B3436",
"8z 	c #3C383B",
"9z 	c #343133",
"0z 	c #292221",
"az 	c #150A08",
"bz 	c #0F0505",
"cz 	c #1A0A08",
"dz 	c #43211C",
"ez 	c #552F28",
"fz 	c #592E27",
"gz 	c #66362F",
"hz 	c #69362E",
"iz 	c #743E35",
"jz 	c #7D443B",
"kz 	c #854A41",
"lz 	c #894C42",
"mz 	c #824439",
"nz 	c #8F5247",
"oz 	c #8B4C41",
"pz 	c #9C6160",
"qz 	c #975E5D",
"rz 	c #915857",
"sz 	c #8C5756",
"tz 	c #8C5958",
"uz 	c #855554",
"vz 	c #7C4E4D",
"wz 	c #724645",
"xz 	c #6B4242",
"yz 	c #654040",
"zz 	c #573636",
"Az 	c #351C1C",
"Bz 	c #2D1618",
"Cz 	c #210E0F",
"Dz 	c #120707",
"Ez 	c #100606",
"Fz 	c #170A0A",
"Gz 	c #21100F",
"Hz 	c #362423",
"Iz 	c #403435",
"Jz 	c #4F484A",
"Kz 	c #646061",
"Lz 	c #6E6866",
"Mz 	c #6F605B",
"Nz 	c #562A28",
"Oz 	c #532926",
"Pz 	c #522A26",
"Qz 	c #522C27",
"Rz 	c #44221C",
"Sz 	c #3B1C17",
"Tz 	c #29120F",
"Uz 	c #120404",
"Vz 	c #1D0B09",
"Wz 	c #29100D",
"Xz 	c #3C1F19",
"Yz 	c #42231E",
"Zz 	c #3F221F",
"`z 	c #3D2320",
" A 	c #3D2D2E",
".A 	c #3F3639",
"+A 	c #3C363A",
"@A 	c #322E30",
"#A 	c #261F1E",
"$A 	c #220D0A",
"%A 	c #311813",
"&A 	c #3A1D17",
"*A 	c #47251F",
"=A 	c #522B24",
"-A 	c #68372F",
";A 	c #703C33",
">A 	c #7B433A",
",A 	c #81473D",
"'A 	c #864A3F",
")A 	c #8C5043",
"!A 	c #925447",
"~A 	c #8F5144",
"{A 	c #8F4F42",
"]A 	c #8D4E41",
"^A 	c #965A5B",
"/A 	c #A46767",
"(A 	c #995F60",
"_A 	c #935A5A",
":A 	c #905A59",
"<A 	c #8F5C5C",
"[A 	c #895757",
"}A 	c #825252",
"|A 	c #7A4C4D",
"1A 	c #724748",
"2A 	c #6A4344",
"3A 	c #5B3839",
"4A 	c #442425",
"5A 	c #3B2020",
"6A 	c #331B1C",
"7A 	c #261213",
"8A 	c #1E0E0F",
"9A 	c #140809",
"0A 	c #0E0506",
"aA 	c #1A0C0B",
"bA 	c #261514",
"cA 	c #312222",
"dA 	c #3A3031",
"eA 	c #484244",
"fA 	c #5D5B5B",
"gA 	c #6B6663",
"hA 	c #6D605B",
"iA 	c #502926",
"jA 	c #4D2823",
"kA 	c #4C2924",
"lA 	c #3A1B15",
"mA 	c #341813",
"nA 	c #311915",
"oA 	c #24110E",
"pA 	c #180907",
"qA 	c #240E0B",
"rA 	c #2E1512",
"sA 	c #381D19",
"tA 	c #3C1F1B",
"uA 	c #391E1B",
"vA 	c #38201F",
"wA 	c #403032",
"xA 	c #41373A",
"yA 	c #3A3438",
"zA 	c #302B2E",
"AA 	c #231C1C",
"BA 	c #1C0C08",
"CA 	c #240F0B",
"DA 	c #3C1E18",
"EA 	c #492821",
"FA 	c #4F2821",
"GA 	c #5A2F27",
"HA 	c #6B3A31",
"IA 	c #754037",
"JA 	c #80473E",
"KA 	c #84493E",
"LA 	c #864A3D",
"MA 	c #8C5042",
"NA 	c #975A4B",
"OA 	c #9C5E4F",
"PA 	c #8F5141",
"QA 	c #8F4F40",
"RA 	c #8B5F61",
"SA 	c #916466",
"TA 	c #906668",
"UA 	c #8B6364",
"VA 	c #8A6565",
"WA 	c #8C6969",
"XA 	c #815F61",
"YA 	c #7A5B5E",
"ZA 	c #75595B",
"`A 	c #6C5053",
" B 	c #5F4749",
".B 	c #553E40",
"+B 	c #453133",
"@B 	c #3D2B2C",
"#B 	c #362426",
"$B 	c #2E1E20",
"%B 	c #130A0A",
"&B 	c #0D0607",
"*B 	c #090505",
"=B 	c #050302",
"-B 	c #100A0A",
";B 	c #160E0E",
">B 	c #1E1414",
",B 	c #282121",
"'B 	c #373335",
")B 	c #4A494B",
"!B 	c #5C5D5E",
"~B 	c #676664",
"{B 	c #635D59",
"]B 	c #442F2F",
"^B 	c #412D2C",
"/B 	c #473331",
"(B 	c #44322F",
"_B 	c #433330",
":B 	c #3C2F2C",
"<B 	c #291D1B",
"[B 	c #190F0E",
"}B 	c #150B0A",
"|B 	c #1E1212",
"1B 	c #251716",
"2B 	c #2F1F20",
"3B 	c #301F20",
"4B 	c #322424",
"5B 	c #3D3335",
"6B 	c #363236",
"7B 	c #2D2B2E",
"8B 	c #211E1F",
"9B 	c #0C0707",
"0B 	c #090405",
"aB 	c #0B0504",
"bB 	c #201413",
"cB 	c #281612",
"dB 	c #2E1915",
"eB 	c #4D302D",
"fB 	c #644340",
"gB 	c #6F4B48",
"hB 	c #714945",
"iB 	c #744A46",
"jB 	c #794F47",
"kB 	c #7B5146",
"lB 	c #7F5349",
"mB 	c #81564D",
"nB 	c #6C4139",
"oB 	c #73473E",
"pB 	c #5A2E24",
"qB 	c #8F6A6C",
"rB 	c #906C6D",
"sB 	c #947374",
"tB 	c #8E6E6F",
"uB 	c #8F7373",
"vB 	c #886E70",
"wB 	c #816A6B",
"xB 	c #7A6466",
"yB 	c #735E5F",
"zB 	c #695758",
"AB 	c #5D4C4D",
"BB 	c #504042",
"CB 	c #47393A",
"DB 	c #3F3031",
"EB 	c #36292A",
"FB 	c #261D1D",
"GB 	c #0B0707",
"HB 	c #060404",
"IB 	c #0C0808",
"JB 	c #1A1313",
"KB 	c #241E1E",
"LB 	c #312E31",
"MB 	c #444447",
"NB 	c #565859",
"OB 	c #605F5E",
"PB 	c #615B59",
"QB 	c #564A4C",
"RB 	c #524648",
"SB 	c #504444",
"TB 	c #4D4242",
"UB 	c #493F3F",
"VB 	c #3E3534",
"WB 	c #2D2626",
"XB 	c #201A1A",
"YB 	c #140F10",
"ZB 	c #2E2325",
"`B 	c #322727",
" C 	c #312627",
".C 	c #322829",
"+C 	c #393234",
"@C 	c #383335",
"#C 	c #322F32",
"$C 	c #2A292B",
"%C 	c #1E1D1E",
"&C 	c #0D090A",
"*C 	c #020201",
"=C 	c #110C0C",
"-C 	c #1A1414",
";C 	c #251D1C",
">C 	c #2C2121",
",C 	c #352929",
"'C 	c #453737",
")C 	c #4F3D3C",
"!C 	c #5A4444",
"~C 	c #624848",
"{C 	c #6A4B4B",
"]C 	c #6C4A4B",
"^C 	c #704D4C",
"/C 	c #74524D",
"(C 	c #7B5852",
"_C 	c #7D5A55",
":C 	c #7F5E5A",
"<C 	c #7C5A56",
"[C 	c #61403D",
"}C 	c #947778",
"|C 	c #8E7474",
"1C 	c #988081",
"2C 	c #927A7A",
"3C 	c #8D7877",
"4C 	c #927E7D",
"5C 	c #917E7F",
"6C 	c #887879",
"7C 	c #7F7072",
"8C 	c #7A6D6E",
"9C 	c #756869",
"0C 	c #685C5D",
"aC 	c #5D5153",
"bC 	c #534A4B",
"cC 	c #3F3436",
"dC 	c #332B2C",
"eC 	c #272121",
"fC 	c #0D0A0A",
"gC 	c #070506",
"hC 	c #0F0B0B",
"iC 	c #181313",
"jC 	c #2C2A2D",
"kC 	c #3E3F42",
"lC 	c #505254",
"mC 	c #5A5959",
"nC 	c #5F5B59",
"oC 	c #665E60",
"pC 	c #61595B",
"qC 	c #585152",
"rC 	c #554F4F",
"sC 	c #4F4949",
"tC 	c #403B3B",
"uC 	c #322E2E",
"vC 	c #252122",
"wC 	c #181516",
"xC 	c #0C0809",
"yC 	c #141111",
"zC 	c #1C1819",
"AC 	c #251F20",
"BC 	c #2F2829",
"CC 	c #352D2F",
"DC 	c #332C2D",
"EC 	c #332D2D",
"FC 	c #353132",
"GC 	c #323032",
"HC 	c #2F2E31",
"IC 	c #27282A",
"JC 	c #1B1C1C",
"KC 	c #0E0C0C",
"LC 	c #080607",
"MC 	c #1A1617",
"NC 	c #262222",
"OC 	c #2C2627",
"PC 	c #352E30",
"QC 	c #453C3D",
"RC 	c #5E5152",
"SC 	c #5C4E50",
"TC 	c #6A595B",
"UC 	c #604C50",
"VC 	c #5F494E",
"WC 	c #644B50",
"XC 	c #684E52",
"YC 	c #6D5354",
"ZC 	c #745A59",
"`C 	c #785D5C",
" D 	c #947977",
".D 	c #886E6D",
"+D 	c #6B5252",
"@D 	c #CFCBD4",
"#D 	c #CFCAD3",
"$D 	c #D0CAD1",
"%D 	c #D1CBD2",
"&D 	c #BEB7BD",
"*D 	c #B7AFB5",
"=D 	c #BDB8BE",
"-D 	c #BEB9C0",
";D 	c #B7B3B9",
">D 	c #AAA7AC",
",D 	c #98969A",
"'D 	c #8D8B8F",
")D 	c #838185",
"!D 	c #747276",
"~D 	c #656766",
"{D 	c #595858",
"]D 	c #4B4547",
"^D 	c #3A3738",
"/D 	c #2B2A2A",
"(D 	c #1A1B1B",
"_D 	c #0C0C0C",
":D 	c #070607",
"<D 	c #131213",
"[D 	c #1D1B1C",
"}D 	c #292728",
"|D 	c #353536",
"1D 	c #414143",
"2D 	c #4B4B4D",
"3D 	c #545556",
"4D 	c #5D5C5D",
"5D 	c #646263",
"6D 	c #636062",
"7D 	c #605E5E",
"8D 	c #585656",
"9D 	c #4E4D4C",
"0D 	c #41403E",
"aD 	c #343333",
"bD 	c #252525",
"cD 	c #1A191A",
"dD 	c #100F0F",
"eD 	c #0E0C0D",
"fD 	c #1A1919",
"gD 	c #232222",
"hD 	c #2D2B2C",
"iD 	c #363233",
"jD 	c #3D393A",
"kD 	c #403D3E",
"lD 	c #403C3D",
"mD 	c #3E3C3C",
"nD 	c #2B2A2B",
"oD 	c #1F2021",
"pD 	c #090708",
"qD 	c #1B1819",
"rD 	c #262324",
"sD 	c #352F32",
"tD 	c #474447",
"uD 	c #4B4B4F",
"vD 	c #4E5255",
"wD 	c #6E6F74",
"xD 	c #837A81",
"yD 	c #8A8185",
"zD 	c #908E91",
"AD 	c #97969A",
"BD 	c #9D9AA1",
"CD 	c #A49DA6",
"DD 	c #B0A6B0",
"ED 	c #BDB2BC",
"FD 	c #C1B6C0",
"GD 	c #BDB2BA",
"HD 	c #BDB4BA",
"ID 	c #BCB2B9",
"JD 	c #D5D0D9",
"KD 	c #D6CFD8",
"LD 	c #DBD3D9",
"MD 	c #DAD2D8",
"ND 	c #CBC1C6",
"OD 	c #C4BCC0",
"PD 	c #CBC3C8",
"QD 	c #CAC3C8",
"RD 	c #C4BEC2",
"SD 	c #B8B2B6",
"TD 	c #A6A0A5",
"UD 	c #9C989C",
"VD 	c #939093",
"WD 	c #837F82",
"XD 	c #757574",
"YD 	c #676464",
"ZD 	c #585153",
"`D 	c #464243",
" E 	c #343434",
".E 	c #202221",
"+E 	c #161717",
"@E 	c #100F10",
"#E 	c #1A1819",
"$E 	c #252324",
"%E 	c #313031",
"&E 	c #3C3B3C",
"*E 	c #464546",
"=E 	c #4F4E50",
"-E 	c #585556",
";E 	c #5E5A5B",
">E 	c #5C585A",
",E 	c #595656",
"'E 	c #535050",
")E 	c #484544",
"!E 	c #3C3A38",
"~E 	c #2F2E2E",
"{E 	c #222122",
"]E 	c #161515",
"^E 	c #1F1D1E",
"/E 	c #282526",
"(E 	c #322D2E",
"_E 	c #393435",
":E 	c #3D3839",
"<E 	c #3A3637",
"[E 	c #302D2E",
"}E 	c #272626",
"|E 	c #1D1D1E",
"1E 	c #151415",
"2E 	c #0D0C0D",
"3E 	c #131112",
"4E 	c #1E1B1C",
"5E 	c #2A2627",
"6E 	c #373032",
"7E 	c #4A4649",
"8E 	c #4C4B4F",
"9E 	c #54595C",
"0E 	c #727378",
"aE 	c #887E84",
"bE 	c #8E8387",
"cE 	c #999598",
"dE 	c #A4A2A6",
"eE 	c #A6A1A8",
"fE 	c #A9A0A9",
"gE 	c #B7ACB5",
"hE 	c #CABDC6",
"iE 	c #CFC3CA",
"jE 	c #C9BCC3",
"kE 	c #CDC1C6",
"lE 	c #C5B9BE",
"mE 	c #D0C4C8",
"nE 	c #DACFD3",
"oE 	c #DDCFD4",
"pE 	c #EADBDE",
"qE 	c #E5D5D7",
"rE 	c #E0CFD0",
"sE 	c #DFCECF",
"tE 	c #E0D0D1",
"uE 	c #DAC9CC",
"vE 	c #D6C5C8",
"wE 	c #CEBEC1",
"xE 	c #BDAEB0",
"yE 	c #AEA4A6",
"zE 	c #9A8E90",
"AE 	c #8B8885",
"BE 	c #797272",
"CE 	c #685D60",
"DE 	c #413E3F",
"EE 	c #252526",
"FE 	c #181818",
"GE 	c #100D0E",
"HE 	c #0F0D0D",
"IE 	c #171415",
"JE 	c #221E20",
"KE 	c #2D292A",
"LE 	c #373334",
"ME 	c #433F40",
"NE 	c #4E494A",
"OE 	c #554F50",
"PE 	c #595153",
"QE 	c #534C4C",
"RE 	c #514A4A",
"SE 	c #423C3C",
"TE 	c #373230",
"UE 	c #2C2929",
"VE 	c #151313",
"WE 	c #0C0A0A",
"XE 	c #131010",
"YE 	c #1B1718",
"ZE 	c #231E1E",
"`E 	c #2E2728",
" F 	c #3A3334",
".F 	c #3B3435",
"+F 	c #312B2C",
"@F 	c #2B2627",
"#F 	c #232020",
"$F 	c #1C1919",
"%F 	c #0A0707",
"&F 	c #211C1C",
"*F 	c #2C2525",
"=F 	c #474043",
"-F 	c #413F42",
";F 	c #5E6164",
">F 	c #777579",
",F 	c #897A80",
"'F 	c #8D7C7F",
")F 	c #A2989A",
"!F 	c #B9AFB4",
"~F 	c #AFA3AA",
"{F 	c #A999A1",
"]F 	c #C0ADB2",
"^F 	c #DCC9CD",
"/F 	c #E6D2D5",
"(F 	c #DCC9CB",
"_F 	c #EAD7D8",
":F 	c #D2BFBF",
"<F 	c #E4D1D0",
"[F 	c #9C7C7A",
"}F 	c #997976",
"|F 	c #9D7B77",
"1F 	c #96756F",
"2F 	c #96746F",
"3F 	c #9B7772",
"4F 	c #9E7874",
"5F 	c #987470",
"6F 	c #8B6A68",
"7F 	c #81615F",
"8F 	c #7C5F5D",
"9F 	c #765C5A",
"0F 	c #6A514F",
"aF 	c #5C4D4A",
"bF 	c #534140",
"cF 	c #4D3A3B",
"dF 	c #3F3133",
"eF 	c #31292A",
"fF 	c #262325",
"gF 	c #100A0B",
"hF 	c #040203",
"iF 	c #0F090A",
"jF 	c #160E0F",
"kF 	c #1C1314",
"lF 	c #241A1B",
"mF 	c #2A1F20",
"nF 	c #2F2223",
"oF 	c #342427",
"pF 	c #332426",
"qF 	c #291D1E",
"rF 	c #2A1E1F",
"sF 	c #261A1A",
"tF 	c #1F1414",
"uF 	c #150E0E",
"vF 	c #0B0708",
"wF 	c #080505",
"xF 	c #070304",
"yF 	c #0A0505",
"zF 	c #12090A",
"AF 	c #180E0F",
"BF 	c #1D1112",
"CF 	c #201415",
"DF 	c #1E1313",
"EF 	c #1A1010",
"FF 	c #160D0D",
"GF 	c #110A0A",
"HF 	c #130B0B",
"IF 	c #261718",
"JF 	c #372D2E",
"KF 	c #484142",
"LF 	c #676262",
"MF 	c #6D6063",
"NF 	c #594145",
"OF 	c #563D3F",
"PF 	c #6F5455",
"QF 	c #795F61",
"RF 	c #7D5B61",
"SF 	c #7C565B",
"TF 	c #836061",
"UF 	c #946F6E",
"VF 	c #9B7673",
"WF 	c #98726E",
"XF 	c #9F7A75",
"YF 	c #916C66",
"ZF 	c #94716B",
"`F 	c #875850",
" G 	c #835349",
".G 	c #7F4D42",
"+G 	c #855347",
"@G 	c #804E40",
"#G 	c #804D40",
"$G 	c #865044",
"%G 	c #8A5449",
"&G 	c #844E44",
"*G 	c #764138",
"=G 	c #6D3C33",
"-G 	c #6A3A31",
";G 	c #663A31",
">G 	c #5C332B",
",G 	c #4E302A",
"'G 	c #492B27",
")G 	c #472B2C",
"!G 	c #3A2527",
"~G 	c #2E2324",
"{G 	c #2B2728",
"]G 	c #130B0C",
"^G 	c #0A0304",
"/G 	c #0D0405",
"(G 	c #120607",
"_G 	c #200D0F",
":G 	c #240F12",
"<G 	c #180506",
"[G 	c #1B0809",
"}G 	c #1B090A",
"|G 	c #160708",
"1G 	c #220E0E",
"2G 	c #4C4546",
"3G 	c #6A6363",
"4G 	c #6A5A5C",
"5G 	c #4B272A",
"6G 	c #481D1F",
"7G 	c #603535",
"8G 	c #653738",
"9G 	c #6E3B3E",
"0G 	c #70393B",
"aG 	c #723D39",
"bG 	c #7D483F",
"cG 	c #844D44",
"dG 	c #824B41",
"eG 	c #855044",
"fG 	c #7D483B",
"gG 	c #794335",
"hG 	c #844D43",
"iG 	c #874F43",
"jG 	c #90564A",
"kG 	c #975D4F",
"lG 	c #93564A",
"mG 	c #905045",
"nG 	c #80423A",
"oG 	c #773F36",
"pG 	c #77433B",
"qG 	c #693830",
"rG 	c #5B362C",
"sG 	c #56312B",
"tG 	c #4B2B2B",
"uG 	c #322525",
"vG 	c #312D2E",
"wG 	c #282427",
"xG 	c #170E0F",
"yG 	c #100505",
"zG 	c #180707",
"AG 	c #1C0709",
"BG 	c #1E080A",
"CG 	c #1F0A0B",
"DG 	c #1C0809",
"EG 	c #170606",
"FG 	c #120405",
"GG 	c #100303",
"HG 	c #0E0303",
"IG 	c #070101",
"JG 	c #030000",
"KG 	c #251010",
"LG 	c #403335",
"MG 	c #514A4D",
"NG 	c #696261",
"OG 	c #5B4B49",
"PG 	c #613737",
"QG 	c #6B3938",
"RG 	c #6C3835",
"SG 	c #733D3B",
"TG 	c #793D3E",
"UG 	c #804241",
"VG 	c #844742",
"WG 	c #8B4F47",
"XG 	c #955850",
"YG 	c #894D42",
"ZG 	c #86493C",
"`G 	c #86504A",
" H 	c #8B524B",
".H 	c #8B5248",
"+H 	c #8F554C",
"@H 	c #8F5149",
"#H 	c #8F4E47",
"$H 	c #8A4944",
"%H 	c #81413C",
"&H 	c #783B36",
"*H 	c #773D38",
"=H 	c #723C37",
"-H 	c #693531",
";H 	c #5F3A2E",
">H 	c #5C352E",
",H 	c #4D2D2B",
"'H 	c #3E2826",
")H 	c #392D2C",
"!H 	c #383536",
"~H 	c #2E2C2E",
"{H 	c #1C1313",
"]H 	c #0F0303",
"^H 	c #130404",
"/H 	c #190808",
"(H 	c #190708",
"_H 	c #1B0A0A",
":H 	c #170707",
"<H 	c #160707",
"[H 	c #1F0D0D",
"}H 	c #271114",
"|H 	c #453C40",
"1H 	c #58565B",
"2H 	c #676462",
"3H 	c #625552",
"4H 	c #623A39",
"5H 	c #6C3938",
"6H 	c #693630",
"7H 	c #743B36",
"8H 	c #7C413E",
"9H 	c #844746",
"0H 	c #854946",
"aH 	c #824541",
"bH 	c #82463F",
"cH 	c #7B3E35",
"dH 	c #915B58",
"eH 	c #844F4B",
"fH 	c #8C534E",
"gH 	c #8A5148",
"hH 	c #8D4E49",
"iH 	c #8E4D49",
"jH 	c #8A4845",
"kH 	c #82423E",
"lH 	c #793B37",
"mH 	c #783D3A",
"nH 	c #713836",
"oH 	c #6B3532",
"pH 	c #643D30",
"qH 	c #613931",
"rH 	c #402A27",
"sH 	c #3E3331",
"tH 	c #3E3C3D",
"uH 	c #333233",
"vH 	c #211817",
"wH 	c #160A09",
"xH 	c #0D0202",
"yH 	c #150606",
"zH 	c #231011",
"AH 	c #2A1418",
"BH 	c #4B4247",
"CH 	c #5C5D62",
"DH 	c #686664",
"EH 	c #685B58",
"FH 	c #643C3A",
"GH 	c #6E3B39",
"HH 	c #6B372D",
"IH 	c #723A33",
"JH 	c #7B403E",
"KH 	c #804445",
"LH 	c #814445",
"MH 	c #7E4141",
"NH 	c #7E4040",
"OH 	c #7D413D",
"PH 	c #763933",
"QH 	c #8A524F",
"RH 	c #8C534B",
"SH 	c #8A4D48",
"TH 	c #8B4D48",
"UH 	c #8A4A46",
"VH 	c #824441",
"WH 	c #793D3A",
"XH 	c #773C38",
"YH 	c #723A37",
"ZH 	c #6D3835",
"`H 	c #684034",
" I 	c #5E3B37",
".I 	c #4D3634",
"+I 	c #433634",
"@I 	c #2A2020",
"#I 	c #1A0909",
"$I 	c #251011",
"%I 	c #351E22",
"&I 	c #60565B",
"*I 	c #5E5F63",
"=I 	c #666563",
"-I 	c #695C5A",
";I 	c #633A3B",
">I 	c #723E38",
",I 	c #7A453D",
"'I 	c #7F4844",
")I 	c #844949",
"!I 	c #86494B",
"~I 	c #874A4B",
"{I 	c #87494A",
"]I 	c #854947",
"^I 	c #814441",
"/I 	c #854845",
"(I 	c #8C5550",
"_I 	c #8A534E",
":I 	c #8D544E",
"<I 	c #8D534C",
"[I 	c #8D5249",
"}I 	c #8E534A",
"|I 	c #8B4B45",
"1I 	c #82433E",
"2I 	c #783A35",
"3I 	c #763B37",
"4I 	c #723B37",
"5I 	c #6E443A",
"6I 	c #6B3F38",
"7I 	c #603A37",
"8I 	c #503634",
"9I 	c #463736",
"0I 	c #484646",
"aI 	c #403F40",
"bI 	c #2D2322",
"cI 	c #1F1211",
"dI 	c #150908",
"eI 	c #281112",
"fI 	c #361C1F",
"gI 	c #5B5054",
"hI 	c #5B5C5E",
"iI 	c #6E5E5F",
"jI 	c #65383C",
"kI 	c #753D3F",
"lI 	c #77403D",
"mI 	c #7B463F",
"nI 	c #7A473F",
"oI 	c #854949",
"pI 	c #864747",
"qI 	c #864746",
"rI 	c #884B48",
"sI 	c #854642",
"tI 	c #874E48",
"uI 	c #8F5650",
"vI 	c #90564E",
"wI 	c #8E524A",
"xI 	c #8D5247",
"yI 	c #93564C",
"zI 	c #83433B",
"AI 	c #763932",
"BI 	c #793C36",
"CI 	c #773E38",
"DI 	c #74483F",
"EI 	c #6E413B",
"FI 	c #613838",
"GI 	c #523635",
"HI 	c #4A3837",
"II 	c #4E4B4A",
"JI 	c #4A4748",
"KI 	c #312625",
"LI 	c #241514",
"MI 	c #0C0404",
"NI 	c #200C0C",
"OI 	c #2A1212",
"PI 	c #361A1C",
"QI 	c #55484A",
"RI 	c #575757",
"SI 	c #6F6B6D",
"TI 	c #726164",
"UI 	c #68373C",
"VI 	c #783D41",
"WI 	c #7B4442",
"XI 	c #7B4741",
"YI 	c #874B4A",
"ZI 	c #88494A",
"`I 	c #854544",
" J 	c #854442",
".J 	c #8C4D49",
"+J 	c #874843",
"@J 	c #874D3F",
"#J 	c #8E5347",
"$J 	c #97584A",
"%J 	c #945446",
"&J 	c #904E41",
"*J 	c #945044",
"=J 	c #8D483A",
"-J 	c #823E30",
";J 	c #7F3A2C",
">J 	c #7F3A2D",
",J 	c #7D3B2E",
"'J 	c #803E32",
")J 	c #7E3F34",
"!J 	c #774140",
"~J 	c #6A3D3F",
"{J 	c #6A494C",
"]J 	c #4B373A",
"^J 	c #524A4D",
"/J 	c #544E51",
"(J 	c #3A2B2D",
"_J 	c #2B1A1A",
":J 	c #1B0C0C",
"<J 	c #080203",
"[J 	c #050102",
"}J 	c #160605",
"|J 	c #2D1111",
"1J 	c #3C1C1E",
"2J 	c #453334",
"3J 	c #676261",
"4J 	c #7A7278",
"5J 	c #7D676F",
"6J 	c #6D3B40",
"7J 	c #7C403F",
"8J 	c #7E453D",
"9J 	c #814B42",
"0J 	c #834D45",
"aJ 	c #864D44",
"bJ 	c #8A4C42",
"cJ 	c #814136",
"dJ 	c #86473C",
"eJ 	c #894B3E",
"fJ 	c #88493C",
"gJ 	c #814537",
"hJ 	c #884E41",
"iJ 	c #8D5245",
"jJ 	c #945649",
"kJ 	c #904E42",
"lJ 	c #934F44",
"mJ 	c #955044",
"nJ 	c #8F4A3D",
"oJ 	c #864134",
"pJ 	c #813B2F",
"qJ 	c #7F3A2E",
"rJ 	c #7E3C30",
"sJ 	c #814033",
"tJ 	c #7F4034",
"uJ 	c #834B47",
"vJ 	c #704144",
"wJ 	c #725153",
"xJ 	c #4B383A",
"yJ 	c #585054",
"zJ 	c #575155",
"AJ 	c #3D2E30",
"BJ 	c #301D1D",
"CJ 	c #200F0F",
"DJ 	c #150607",
"EJ 	c #0B0304",
"FJ 	c #240D0C",
"GJ 	c #311414",
"HJ 	c #3B1B1C",
"IJ 	c #503E3F",
"JJ 	c #696463",
"KJ 	c #797177",
"LJ 	c #766269",
"MJ 	c #6D3C3F",
"NJ 	c #7D453B",
"OJ 	c #814B3F",
"PJ 	c #844A41",
"QJ 	c #884A3F",
"RJ 	c #7C3E32",
"SJ 	c #894C3F",
"TJ 	c #874A3D",
"UJ 	c #8A5144",
"VJ 	c #8F5246",
"WJ 	c #924E44",
"XJ 	c #955046",
"YJ 	c #8D473C",
"ZJ 	c #854135",
"`J 	c #7F3B2F",
" K 	c #803D31",
".K 	c #803F33",
"+K 	c #7F3F34",
"@K 	c #8A524C",
"#K 	c #764749",
"$K 	c #79585A",
"%K 	c #473436",
"&K 	c #5D575C",
"*K 	c #555055",
"=K 	c #3E2E2F",
"-K 	c #342020",
";K 	c #271414",
">K 	c #1C0B0B",
",K 	c #150808",
"'K 	c #0E0505",
")K 	c #291110",
"!K 	c #351718",
"~K 	c #351416",
"{K 	c #635153",
"]K 	c #696364",
"^K 	c #726C71",
"/K 	c #635258",
"(K 	c #6B3D3D",
"_K 	c #77403A",
":K 	c #7A4537",
"<K 	c #7E4A3A",
"[K 	c #80483D",
"}K 	c #7E433B",
"|K 	c #824539",
"1K 	c #74372B",
"2K 	c #804337",
"3K 	c #884D41",
"4K 	c #864C3F",
"5K 	c #82483B",
"6K 	c #874F48",
"7K 	c #874E46",
"8K 	c #874D47",
"9K 	c #8C4F49",
"0K 	c #8A4C47",
"aK 	c #8A4942",
"bK 	c #894840",
"cK 	c #7C3C34",
"dK 	c #783930",
"eK 	c #7C3E37",
"fK 	c #7E413A",
"gK 	c #8B5546",
"hK 	c #854F44",
"iK 	c #764B47",
"jK 	c #7A5E5C",
"kK 	c #605251",
"lK 	c #5F5F62",
"mK 	c #49393B",
"nK 	c #3A2423",
"oK 	c #2E1818",
"pK 	c #231010",
"qK 	c #1A0A0A",
"rK 	c #120606",
"sK 	c #1F0B08",
"tK 	c #2B120F",
"uK 	c #331614",
"vK 	c #442625",
"wK 	c #656263",
"xK 	c #7C7B7C",
"yK 	c #8C7F7F",
"zK 	c #6D4441",
"AK 	c #7A4741",
"BK 	c #855143",
"CK 	c #874E44",
"DK 	c #8D4F4A",
"EK 	c #8A4C48",
"FK 	c #8B4D47",
"GK 	c #8B4E48",
"HK 	c #8C4E49",
"IK 	c #8A514A",
"JK 	c #884E48",
"KK 	c #8B504A",
"LK 	c #8C4F4A",
"MK 	c #8A4B45",
"NK 	c #8B4A43",
"OK 	c #8A4941",
"PK 	c #86453E",
"QK 	c #804038",
"RK 	c #7B3C33",
"SK 	c #7F4039",
"TK 	c #82443D",
"UK 	c #8C5645",
"VK 	c #874F44",
"WK 	c #794D48",
"XK 	c #7E625E",
"YK 	c #685958",
"ZK 	c #666668",
"`K 	c #66666A",
" L 	c #503F40",
".L 	c #3E2625",
"+L 	c #321B1A",
"@L 	c #281313",
"#L 	c #160808",
"$L 	c #210C08",
"%L 	c #2C130F",
"&L 	c #361815",
"*L 	c #482827",
"=L 	c #463639",
"-L 	c #686466",
";L 	c #7F7E7E",
">L 	c #958788",
",L 	c #6B4340",
"'L 	c #7C4943",
")L 	c #824E42",
"!L 	c #875145",
"~L 	c #8E5049",
"{L 	c #8E514B",
"]L 	c #8D4D49",
"^L 	c #8C4D48",
"/L 	c #8F504B",
"(L 	c #92574F",
"_L 	c #8E534B",
":L 	c #90544C",
"<L 	c #8F534B",
"[L 	c #8E5048",
"}L 	c #90514A",
"|L 	c #93534B",
"1L 	c #915047",
"2L 	c #8E4B43",
"3L 	c #8C4A41",
"4L 	c #86443C",
"5L 	c #8C4B44",
"6L 	c #8A5140",
"7L 	c #864D3F",
"8L 	c #81605E",
"9L 	c #736161",
"0L 	c #767478",
"aL 	c #6D6C72",
"bL 	c #594547",
"cL 	c #412626",
"dL 	c #341818",
"eL 	c #2B1213",
"fL 	c #220D0E",
"gL 	c #190909",
"hL 	c #100405",
"iL 	c #110403",
"jL 	c #1B0805",
"kL 	c #250E09",
"lL 	c #3D1D1A",
"mL 	c #442323",
"nL 	c #69585D",
"oL 	c #6D6669",
"pL 	c #7B7878",
"qL 	c #9E8E8F",
"rL 	c #5E3534",
"sL 	c #7B4743",
"tL 	c #8A5147",
"uL 	c #8E4D48",
"vL 	c #904D49",
"wL 	c #924F49",
"xL 	c #904F49",
"yL 	c #904E48",
"zL 	c #8F4C46",
"AL 	c #914E48",
"BL 	c #97524D",
"CL 	c #995E54",
"DL 	c #955A4F",
"EL 	c #884E42",
"FL 	c #7E453A",
"GL 	c #915246",
"HL 	c #935448",
"IL 	c #96564B",
"JL 	c #8F5045",
"KL 	c #80473C",
"LL 	c #7D4C4C",
"ML 	c #785657",
"NL 	c #695558",
"OL 	c #888188",
"PL 	c #857E87",
"QL 	c #5E494E",
"RL 	c #3A1D20",
"SL 	c #2F1417",
"TL 	c #250E10",
"UL 	c #1D0B0D",
"VL 	c #150708",
"WL 	c #150504",
"XL 	c #28100D",
"YL 	c #301411",
"ZL 	c #3D1D1C",
"`L 	c #431F22",
" M 	c #5B454A",
".M 	c #6A5E64",
"+M 	c #888082",
"@M 	c #8D7A7D",
"#M 	c #62373C",
"$M 	c #8F5D61",
"%M 	c #8D5958",
"&M 	c #8E5655",
"*M 	c #864648",
"=M 	c #8B4847",
"-M 	c #92524B",
";M 	c #92544A",
">M 	c #915248",
",M 	c #925148",
"'M 	c #945148",
")M 	c #945048",
"!M 	c #914B44",
"~M 	c #8B5045",
"{M 	c #9A6055",
"]M 	c #945B4F",
"^M 	c #854E42",
"/M 	c #794336",
"(M 	c #854B3F",
"_M 	c #94564A",
":M 	c #97594D",
"<M 	c #985A4E",
"[M 	c #95574B",
"}M 	c #915348",
"|M 	c #94574B",
"1M 	c #8C544E",
"2M 	c #804E51",
"3M 	c #765154",
"4M 	c #6A565A",
"5M 	c #918890",
"6M 	c #928892",
"7M 	c #644D54",
"8M 	c #4B2C30",
"9M 	c #402225",
"0M 	c #34181C",
"aM 	c #291013",
"bM 	c #220E10",
"cM 	c #19090B",
"dM 	c #0F0506",
"eM 	c #170705",
"fM 	c #220C0A",
"gM 	c #2C1311",
"hM 	c #321715",
"iM 	c #401F1F",
"jM 	c #452024",
"kM 	c #593F46",
"lM 	c #6D5E66",
"mM 	c #908689",
"nM 	c #887478",
"oM 	c #653940",
"pM 	c #915F65",
"qM 	c #8C595B",
"rM 	c #8B5456",
"sM 	c #83454A",
"tM 	c #874848",
"uM 	c #8F524B",
"vM 	c #945249",
"wM 	c #95524A",
"xM 	c #87544C",
"yM 	c #89564D",
"zM 	c #88574E",
"AM 	c #7A4B40",
"BM 	c #84554B",
"CM 	c #7F5147",
"DM 	c #7C4B41",
"EM 	c #885449",
"FM 	c #875347",
"GM 	c #865246",
"HM 	c #865348",
"IM 	c #835044",
"JM 	c #875B56",
"KM 	c #855552",
"LM 	c #85595F",
"MM 	c #634349",
"NM 	c #928A92",
"OM 	c #938A93",
"PM 	c #69555C",
"QM 	c #4D3237",
"RM 	c #43282D",
"SM 	c #3B2126",
"TM 	c #2D171C",
"UM 	c #221013",
"VM 	c #1A0B0E",
"WM 	c #100608",
"XM 	c #060607",
"YM 	c #080808",
"ZM 	c #200D0D",
"`M 	c #291412",
" N 	c #361E1C",
".N 	c #412424",
"+N 	c #4C2B2E",
"@N 	c #654D53",
"#N 	c #7C6E73",
"$N 	c #A1989C",
"%N 	c #89787E",
"&N 	c #613B44",
"*N 	c #53242F",
"=N 	c #592D33",
"-N 	c #5A2D33",
";N 	c #764148",
">N 	c #794942",
",N 	c #7B4B41",
"'N 	c #845249",
")N 	c #855249",
"!N 	c #8A524B",
"~N 	c #955B55",
"{N 	c #8E514D",
"]N 	c #7F5E62",
"^N 	c #86686C",
"/N 	c #A68E93",
"(N 	c #A48F93",
"_N 	c #AC999D",
":N 	c #A9979A",
"<N 	c #A69195",
"[N 	c #AA9295",
"}N 	c #AB9194",
"|N 	c #A98F92",
"1N 	c #AC9396",
"2N 	c #A58C8E",
"3N 	c #A1878A",
"4N 	c #A1898B",
"5N 	c #9D8D8B",
"6N 	c #9F8A8A",
"7N 	c #957F83",
"8N 	c #84777B",
"9N 	c #938F92",
"0N 	c #999A9F",
"aN 	c #939198",
"bN 	c #7B7478",
"cN 	c #696163",
"dN 	c #5E5557",
"eN 	c #544A4D",
"fN 	c #494143",
"gN 	c #3D3638",
"hN 	c #2F2A2B",
"iN 	c #1F1C1D",
"jN 	c #0B0B0C",
"kN 	c #0D0E0F",
"lN 	c #191415",
"mN 	c #231D1E",
"nN 	c #302828",
"oN 	c #3B3332",
"pN 	c #453B38",
"qN 	c #4F413F",
"rN 	c #5B4A49",
"sN 	c #73676A",
"tN 	c #817E7F",
"uN 	c #999C9E",
"vN 	c #A3A1A6",
"wN 	c #9F919A",
"xN 	c #9D9099",
"yN 	c #A19A9E",
"zN 	c #9A9495",
"AN 	c #A49497",
"BN 	c #A99A9C",
"CN 	c #A8999C",
"DN 	c #A89598",
"EN 	c #A89296",
"FN 	c #A3888E",
"GN 	c #9A7C81",
"HN 	c #8B676E",
"IN 	c #7A6670",
"JN 	c #86757E",
"KN 	c #B6A7AF",
"LN 	c #B8ACB3",
"MN 	c #C0B5BC",
"NN 	c #BEB3BA",
"ON 	c #BBADB4",
"PN 	c #BEAEB5",
"QN 	c #BCABB2",
"RN 	c #BAA9B0",
"SN 	c #C0AEB5",
"TN 	c #B6A5AB",
"UN 	c #B09FA6",
"VN 	c #B3A2A8",
"WN 	c #B0A3A5",
"XN 	c #A19399",
"YN 	c #979194",
"ZN 	c #9FA0A3",
"`N 	c #9EA5A8",
" O 	c #95999E",
".O 	c #89898B",
"+O 	c #7C7A7C",
"@O 	c #716D6F",
"#O 	c #676263",
"$O 	c #5C5759",
"%O 	c #4E4A4C",
"&O 	c #201F20",
"*O 	c #171616",
"=O 	c #080708",
"-O 	c #050506",
";O 	c #0B0B0B",
">O 	c #101012",
",O 	c #151517",
"'O 	c #151617",
")O 	c #0D0B0D",
"!O 	c #181517",
"~O 	c #221F20",
"{O 	c #2E2A2B",
"]O 	c #3B3737",
"^O 	c #464241",
"/O 	c #4F4B48",
"(O 	c #59514F",
"_O 	c #665B59",
":O 	c #7D7878",
"<O 	c #868A89",
"[O 	c #959FA1",
"}O 	c #B4B8BC",
"|O 	c #BCB3BD",
"1O 	c #BDB3BD",
"2O 	c #BFBEC3",
"3O 	c #B6B7B8",
"4O 	c #BBB4B6",
"5O 	c #BFB6B9",
"6O 	c #BFB9BD",
"7O 	c #BEB8BD",
"8O 	c #BBB2B8",
"9O 	c #BAAEB5",
"0O 	c #B2A2AA",
"aO 	c #A09099",
"bO 	c #8C7480",
"cO 	c #989199",
"dO 	c #ABA4AB",
"eO 	c #BDB6BD",
"fO 	c #C5BEC4",
"gO 	c #C2BBC1",
"hO 	c #C1BABF",
"iO 	c #C3BBC2",
"jO 	c #C0B8C1",
"kO 	c #BDB5BE",
"lO 	c #BEB6BF",
"mO 	c #C4BCC6",
"nO 	c #C3BBC4",
"oO 	c #B7B3B6",
"pO 	c #BBB3B9",
"qO 	c #C0B7BE",
"rO 	c #B8B5BA",
"sO 	c #B3B5B9",
"tO 	c #AEB3B6",
"uO 	c #A3A5A9",
"vO 	c #9C9C9E",
"wO 	c #8D8D8E",
"xO 	c #817E80",
"yO 	c #777375",
"zO 	c #696667",
"AO 	c #565355",
"BO 	c #212020",
"CO 	c #141414",
"DO 	c #0C0B0B",
"EO 	c #080707",
"FO 	c #0C0B0C",
"GO 	c #18181A",
"HO 	c #1B1D1E",
"IO 	c #191B1B",
"JO 	c #19191A",
"KO 	c #0F1010",
"LO 	c #070708",
"MO 	c #171718",
"NO 	c #242325",
"OO 	c #333134",
"PO 	c #403E40",
"QO 	c #4E4C4D",
"RO 	c #5E5B5B",
"SO 	c #6F6C6C",
"TO 	c #837C7D",
"UO 	c #848183",
"VO 	c #9B9D9E",
"WO 	c #A3AAAB",
"XO 	c #BFC3C5",
"YO 	c #BBB8BE",
"ZO 	c #C0BCC1",
"`O 	c #C3C4C7",
" P 	c #CBCDCF",
".P 	c #CAC8C9",
"+P 	c #C7C2C5",
"@P 	c #C6C1C7",
"#P 	c #CCC7CD",
"$P 	c #D3CCD2",
"%P 	c #D4CBD1",
"&P 	c #CFC4C9",
"*P 	c #D9CDD2",
"=P 	c #BAABB0",
"-P 	c #9E9297",
";P 	c #958B90",
">P 	c #CABABE",
",P 	c #B9AAAE",
"'P 	c #B6A5A9",
")P 	c #B1A1A5",
"!P 	c #B5A5AA",
"~P 	c #B9A9AF",
"{P 	c #BBACB1",
"]P 	c #BBACB2",
"^P 	c #BAAAB0",
"/P 	c #B8A8AE",
"(P 	c #BAACB2",
"_P 	c #B9ABB1",
":P 	c #B5A6AA",
"<P 	c #B0A1A7",
"[P 	c #B6A6AD",
"}P 	c #B4A9AD",
"|P 	c #B2AAAE",
"1P 	c #B0A9AD",
"2P 	c #B1A8AC",
"3P 	c #999093",
"4P 	c #898082",
"5P 	c #7E7577",
"6P 	c #746B6E",
"7P 	c #675E61",
"8P 	c #544D4F",
"9P 	c #464042",
"0P 	c #393537",
"aP 	c #2E2B2C",
"bP 	c #242121",
"cP 	c #262526",
"dP 	c #232122",
"eP 	c #1B191A",
"fP 	c #161415",
"gP 	c #121012",
"hP 	c #2C282A",
"iP 	c #3B3638",
"jP 	c #474042",
"kP 	c #665D5F",
"lP 	c #786D70",
"mP 	c #86797C",
"nP 	c #918689",
"oP 	c #A69EA0",
"pP 	c #9B9798",
"qP 	c #B0AAAC",
"rP 	c #B3A7AB",
"sP 	c #B8ABB0",
"tP 	c #BFB5B7",
"uP 	c #C4BABC",
"vP 	c #C6B9BC",
"wP 	c #BEB0B4",
"xP 	c #B9AAB0",
"yP 	c #BDADB4",
"zP 	c #C2B2B7",
"AP 	c #C1AFB4",
"BP 	c #BEABAE",
"CP 	c #C1AFB2",
"DP 	c #AA9698",
"EP 	c #A59395",
"FP 	c #715E61",
"GP 	c #D9BEC0",
"HP 	c #AA8C8E",
"IP 	c #A48385",
"JP 	c #9B797B",
"KP 	c #A18385",
"LP 	c #AF9596",
"MP 	c #B89FA0",
"NP 	c #B69C9D",
"OP 	c #B19797",
"PP 	c #AE9595",
"QP 	c #AD9595",
"RP 	c #B2949A",
"SP 	c #A1848A",
"TP 	c #A88B91",
"UP 	c #AF959A",
"VP 	c #B1979C",
"WP 	c #B29A9F",
"XP 	c #C1ABAE",
"YP 	c #937B7F",
"ZP 	c #81686C",
"`P 	c #776064",
" Q 	c #6D575B",
".Q 	c #5F4C4E",
"+Q 	c #4B3B3D",
"@Q 	c #403133",
"#Q 	c #2B1E20",
"$Q 	c #201517",
"%Q 	c #261D1E",
"&Q 	c #171112",
"*Q 	c #0B0607",
"=Q 	c #140D0E",
"-Q 	c #1E1617",
";Q 	c #272021",
">Q 	c #302C2D",
",Q 	c #241F1F",
"'Q 	c #1D1818",
")Q 	c #141010",
"!Q 	c #0E0B0B",
"~Q 	c #342C2E",
"{Q 	c #42383A",
"]Q 	c #4D4043",
"^Q 	c #5B4C51",
"/Q 	c #6F5E63",
"(Q 	c #816D73",
"_Q 	c #877277",
":Q 	c #A18A90",
"<Q 	c #B19BA1",
"[Q 	c #8D7679",
"}Q 	c #998183",
"|Q 	c #A68C8E",
"1Q 	c #B89C9F",
"2Q 	c #BEA4A7",
"3Q 	c #B3979B",
"4Q 	c #A7878D",
"5Q 	c #A8868D",
"6Q 	c #AA878C",
"7Q 	c #A48185",
"8Q 	c #A48282",
"9Q 	c #9C7B79",
"0Q 	c #927471",
"aQ 	c #B69091",
"bQ 	c #A37A7B",
"cQ 	c #B28887",
"dQ 	c #976664",
"eQ 	c #986664",
"fQ 	c #966663",
"gQ 	c #90635E",
"hQ 	c #8C605B",
"iQ 	c #8A5F5A",
"jQ 	c #885D58",
"kQ 	c #7F534F",
"lQ 	c #7B514D",
"mQ 	c #855559",
"nQ 	c #815357",
"oQ 	c #8C5E61",
"pQ 	c #906366",
"qQ 	c #875F61",
"rQ 	c #886164",
"sQ 	c #947172",
"tQ 	c #845E60",
"uQ 	c #6F4B4D",
"vQ 	c #644344",
"wQ 	c #563839",
"xQ 	c #452A2B",
"yQ 	c #372021",
"zQ 	c #2E191B",
"AQ 	c #1C0E0E",
"BQ 	c #14090A",
"CQ 	c #160A0B",
"DQ 	c #1B0E0E",
"EQ 	c #2B2222",
"FQ 	c #302727",
"GQ 	c #2B2122",
"HQ 	c #261B1B",
"IQ 	c #0F0707",
"JQ 	c #0B0606",
"KQ 	c #140C0D",
"LQ 	c #1F1415",
"MQ 	c #2B1D1F",
"NQ 	c #392729",
"OQ 	c #483234",
"PQ 	c #563D40",
"QQ 	c #634649",
"RQ 	c #6D4E51",
"SQ 	c #7A575B",
"TQ 	c #795559",
"UQ 	c #896367",
"VQ 	c #865C5F",
"WQ 	c #93676B",
"XQ 	c #916668",
"YQ 	c #916468",
"ZQ 	c #8D6063",
"`Q 	c #96686C",
" R 	c #93666A",
".R 	c #95666B",
"+R 	c #936269",
"@R 	c #8D5B63",
"#R 	c #905D62",
"$R 	c #8D5B5F",
"%R 	c #7E4E4F",
"&R 	c #835252",
"*R 	c #8D5B5A",
"=R 	c #A87E7E",
"-R 	c #9E7170",
";R 	c #A07270",
">R 	c #93625F",
",R 	c #935D58",
"'R 	c #925C58",
")R 	c #915B56",
"!R 	c #8A554F",
"~R 	c #85514A",
"{R 	c #844F47",
"]R 	c #7F4942",
"^R 	c #7D4740",
"/R 	c #844B4C",
"(R 	c #815454",
"_R 	c #895F5F",
":R 	c #7F5353",
"<R 	c #764A4B",
"[R 	c #6F4545",
"}R 	c #653E3E",
"|R 	c #593535",
"1R 	c #4B2A29",
"2R 	c #3E2020",
"3R 	c #331A1A",
"4R 	c #2A1415",
"5R 	c #1F0D0C",
"6R 	c #170909",
"7R 	c #180A0A",
"8R 	c #1E0E0E",
"9R 	c #211111",
"0R 	c #2D2020",
"aR 	c #322526",
"bR 	c #2F2121",
"cR 	c #2B1D1C",
"dR 	c #251616",
"eR 	c #0D0606",
"fR 	c #170C0C",
"gR 	c #211314",
"hR 	c #2D1B1C",
"iR 	c #3A2425",
"jR 	c #482E2F",
"kR 	c #543739",
"lR 	c #603F41",
"mR 	c #6D4749",
"nR 	c #774F51",
"oR 	c #764B4D",
"pR 	c #855759",
"qR 	c #875658",
"rR 	c #8D5C5F",
"sR 	c #8B595C",
"tR 	c #8B575A",
"uR 	c #855255",
"vR 	c #8F5B5E",
"wR 	c #8E595C",
"xR 	c #905B5E",
"yR 	c #90595E",
"zR 	c #8B5358",
"AR 	c #8D5458",
"BR 	c #8D5558",
"CR 	c #7F4849",
"DR 	c #844D4C",
"ER 	c #8F5656",
"FR 	c #7B3F36",
"GR 	c #8B4E46",
"HR 	c #76342B",
"IR 	c #8C4A3F",
"JR 	c #844336",
"KR 	c #803A31",
"LR 	c #863F37",
"MR 	c #864137",
"NR 	c #8A453B",
"OR 	c #8A443C",
"PR 	c #8A453C",
"QR 	c #89483E",
"RR 	c #804338",
"SR 	c #783C33",
"TR 	c #70362C",
"UR 	c #6E352C",
"VR 	c #69342D",
"WR 	c #66342D",
"XR 	c #542924",
"YR 	c #4B241F",
"ZR 	c #301310",
"`R 	c #260E0B",
" S 	c #160604",
".S 	c #200C0A",
"+S 	c #2A1412",
"@S 	c #2C1513",
"#S 	c #2B1412",
"$S 	c #291311",
"%S 	c #25110F",
"&S 	c #1D0C0A",
"*S 	c #0E0503",
"=S 	c #230E0D",
"-S 	c #391B18",
";S 	c #44211E",
">S 	c #4A231F",
",S 	c #693935",
"'S 	c #753D38",
")S 	c #814740",
"!S 	c #864A48",
"~S 	c #7D3F3D",
"{S 	c #7F3E3C",
"]S 	c #813F3D",
"^S 	c #7F3E3B",
"/S 	c #884644",
"(S 	c #8B4A47",
"_S 	c #8D4C49",
":S 	c #8E4C4A",
"<S 	c #8C4B48",
"[S 	c #93504F",
"}S 	c #8B4947",
"|S 	c #8C4B49",
"1S 	c #955250",
"2S 	c #84483E",
"3S 	c #824537",
"4S 	c #8A4C3C",
"5S 	c #874838",
"6S 	c #8A483D",
"7S 	c #8C4841",
"8S 	c #8A4640",
"9S 	c #86423B",
"0S 	c #89453E",
"aS 	c #8C4842",
"bS 	c #8A463F",
"cS 	c #8B483B",
"dS 	c #8A483B",
"eS 	c #864538",
"fS 	c #844437",
"gS 	c #7F4134",
"hS 	c #783E31",
"iS 	c #7A4235",
"jS 	c #753D32",
"kS 	c #6E372D",
"lS 	c #68342A",
"mS 	c #633229",
"nS 	c #5D2F28",
"oS 	c #562C25",
"pS 	c #502A23",
"qS 	c #3D1F1A",
"rS 	c #2D1412",
"sS 	c #311814",
"tS 	c #2F1714",
"uS 	c #23100C",
"vS 	c #140706",
"wS 	c #26110E",
"xS 	c #301512",
"yS 	c #3A1B17",
"zS 	c #5C3029",
"AS 	c #66372F",
"BS 	c #703C35",
"CS 	c #733B34",
"DS 	c #763D35",
"ES 	c #7D413A",
"FS 	c #783936",
"GS 	c #783934",
"HS 	c #7D3D39",
"IS 	c #84443F",
"JS 	c #864641",
"KS 	c #874741",
"LS 	c #864741",
"MS 	c #854741",
"NS 	c #864843",
"OS 	c #884945",
"PS 	c #844641",
"QS 	c #874944",
"RS 	c #8F504C",
"SS 	c #8A4E43",
"TS 	c #85493B",
"US 	c #894C3E",
"VS 	c #894B3B",
"WS 	c #874939",
"XS 	c #8B4A3F",
"YS 	c #8B4842",
"ZS 	c #88453F",
"`S 	c #87453F",
" T 	c #8A4841",
".T 	c #8D4A44",
"+T 	c #8A4741",
"@T 	c #824436",
"#T 	c #804235",
"$T 	c #7A4132",
"%T 	c #7C4436",
"&T 	c #783F33",
"*T 	c #71392F",
"=T 	c #6A352A",
"-T 	c #653329",
";T 	c #603229",
">T 	c #5A2E26",
",T 	c #542C25",
"'T 	c #4C2922",
")T 	c #43231D",
"!T 	c #311510",
"~T 	c #240E0A",
"{T 	c #190906",
"]T 	c #200D09",
"^T 	c #341915",
"/T 	c #351B17",
"(T 	c #301814",
"_T 	c #2A140F",
":T 	c #200E0B",
"<T 	c #321713",
"[T 	c #3D1C17",
"}T 	c #47231D",
"|T 	c #60332B",
"1T 	c #683730",
"2T 	c #713D35",
"3T 	c #733B32",
"4T 	c #743B31",
"5T 	c #7E4139",
"6T 	c #7A3B36",
"7T 	c #793B35",
"8T 	c #7C3D38",
"9T 	c #84453E",
"0T 	c #84453F",
"aT 	c #83463E",
"bT 	c #83473F",
"cT 	c #854841",
"dT 	c #854843",
"eT 	c #824540",
"fT 	c #8D4F4B",
"gT 	c #81453B",
"hT 	c #884C41",
"iT 	c #834839",
"jT 	c #854B3C",
"kT 	c #884942",
"lT 	c #884944",
"mT 	c #90514C",
"nT 	c #7E3E31",
"oT 	c #7C3F32",
"pT 	c #83493C",
"qT 	c #773F31",
"rT 	c #763D32",
"sT 	c #713A30",
"tT 	c #6A362C",
"uT 	c #66352B",
"vT 	c #61332A",
"wT 	c #572B23",
"xT 	c #4C241D",
"yT 	c #45211B",
"zT 	c #351712",
"AT 	c #26120F",
"BT 	c #251210",
"CT 	c #301B17",
"DT 	c #361E1B",
"ET 	c #3B1E1A",
"FT 	c #3D1F1C",
"GT 	c #3D211C",
"HT 	c #381D18",
"IT 	c #311914",
"JT 	c #2C1611",
"KT 	c #26120E",
"LT 	c #180A07",
"MT 	c #210F0B",
"NT 	c #29120D",
"OT 	c #4B261F",
"PT 	c #64362D",
"QT 	c #6B3A30",
"RT 	c #723D34",
"ST 	c #733A32",
"TT 	c #733A2F",
"UT 	c #84463D",
"VT 	c #894B42",
"WT 	c #804138",
"XT 	c #814339",
"YT 	c #82433A",
"ZT 	c #82453A",
"`T 	c #82473B",
" U 	c #83493D",
".U 	c #844A40",
"+U 	c #844A42",
"@U 	c #7F453E",
"#U 	c #874C4A",
"$U 	c #83433D",
"%U 	c #80403A",
"&U 	c #8A4C41",
"*U 	c #84463B",
"=U 	c #83443B",
"-U 	c #84453D",
";U 	c #8E4F46",
">U 	c #884941",
",U 	c #85463E",
"'U 	c #864239",
")U 	c #864338",
"!U 	c #844237",
"~U 	c #834338",
"{U 	c #793E31",
"]U 	c #7B423A",
"^U 	c #753D35",
"/U 	c #6F3B33",
"(U 	c #663730",
"_U 	c #4F2722",
":U 	c #47221D",
"<U 	c #3D1B18",
"[U 	c #341815",
"}U 	c #1C0B09",
"|U 	c #1C0D0C",
"1U 	c #2D1715",
"2U 	c #3E2321",
"3U 	c #3F201E",
"4U 	c #41211E",
"5U 	c #442420",
"6U 	c #3F211D",
"7U 	c #3A1E19",
"8U 	c #341A16",
"9U 	c #2C1512",
"0U 	c #2F1511",
"aU 	c #3A1C17",
"bU 	c #512822",
"cU 	c #6E3A33",
"dU 	c #733730",
"eU 	c #793C34",
"fU 	c #814139",
"gU 	c #7A3931",
"hU 	c #86453D",
"iU 	c #87463E",
"jU 	c #84483D",
"kU 	c #864B40",
"lU 	c #864A43",
"mU 	c #824641",
"nU 	c #824643",
"oU 	c #824645",
"pU 	c #84413C",
"qU 	c #7F3D38",
"rU 	c #8B4B42",
"sU 	c #86483D",
"tU 	c #85463C",
"uU 	c #824338",
"vU 	c #8A4B40",
"wU 	c #8C4D43",
"xU 	c #85463B",
"yU 	c #874239",
"zU 	c #87453B",
"AU 	c #86453B",
"BU 	c #814137",
"CU 	c #7B3D32",
"DU 	c #80433A",
"EU 	c #81453D",
"FU 	c #7A4139",
"GU 	c #753E37",
"HU 	c #733E37",
"IU 	c #562C27",
"JU 	c #4D2421",
"KU 	c #431E1B",
"LU 	c #3A1B18",
"MU 	c #210D0B",
"NU 	c #160908",
"OU 	c #291513",
"PU 	c #3C221F",
"QU 	c #452725",
"RU 	c #452322",
"SU 	c #472422",
"TU 	c #4B2725",
"UU 	c #4A2824",
"VU 	c #472622",
"WU 	c #41231E",
"XU 	c #1C0C0A",
"YU 	c #1A0B09",
"ZU 	c #41201C",
"`U 	c #4D2721",
" V 	c #60302A",
".V 	c #753B34",
"+V 	c #753731",
"@V 	c #7D3D36",
"#V 	c #85443D",
"$V 	c #914F47",
"%V 	c #7E3D35",
"&V 	c #7A3830",
"*V 	c #88463E",
"=V 	c #8A4740",
"-V 	c #85483D",
";V 	c #854A3E",
">V 	c #884B43",
",V 	c #834744",
"'V 	c #804242",
")V 	c #7E3934",
"!V 	c #76312B",
"~V 	c #904D46",
"{V 	c #904E45",
"]V 	c #8D4B42",
"^V 	c #8D4D40",
"/V 	c #894B3C",
"(V 	c #7B3C2D",
"_V 	c #78392A",
":V 	c #804032",
"<V 	c #863E36",
"[V 	c #89413A",
"}V 	c #904B43",
"|V 	c #7E3A31",
"1V 	c #77352C",
"2V 	c #78362D",
"3V 	c #7F3F37",
"4V 	c #7D3E38",
"5V 	c #793D35",
"6V 	c #6F362F",
"7V 	c #68312C",
"8V 	c #5D2B25",
"9V 	c #5A2C26",
"0V 	c #4F2320",
"aV 	c #48211E",
"bV 	c #3C1A18",
"cV 	c #321513",
"dV 	c #1C0A08",
"eV 	c #231111",
"fV 	c #2E1918",
"gV 	c #371E1D",
"hV 	c #412423",
"iV 	c #4B2B2A",
"jV 	c #4D2928",
"kV 	c #4D2725",
"lV 	c #4F2826",
"mV 	c #512C29",
"nV 	c #522E2A",
"oV 	c #4E2C27",
"pV 	c #3C211D",
"qV 	c #2B1513",
"rV 	c #24110F",
"sV 	c #22110F",
"tV 	c #180A08",
"uV 	c #190B08",
"vV 	c #210F0C",
"wV 	c #49251F",
"xV 	c #5B2B26",
"yV 	c #66312C",
"zV 	c #6D352F",
"AV 	c #783D37",
"BV 	c #7B3D37",
"CV 	c #85433C",
"DV 	c #7E3B33",
"EV 	c #8B4940",
"FV 	c #935047",
"GV 	c #8A473E",
"HV 	c #89463D",
"IV 	c #88493D",
"JV 	c #894A40",
"KV 	c #985954",
"LV 	c #8E4F4B",
"MV 	c #7D3B32",
"NV 	c #7D3B31",
"OV 	c #88473C",
"PV 	c #824136",
"QV 	c #844538",
"RV 	c #86473A",
"SV 	c #894339",
"TV 	c #8E483F",
"UV 	c #8D493F",
"VV 	c #864439",
"WV 	c #844439",
"XV 	c #7D3F36",
"YV 	c #7A3D33",
"ZV 	c #763B32",
"`V 	c #723930",
" W 	c #6E382F",
".W 	c #67352D",
"+W 	c #5F3028",
"@W 	c #542823",
"#W 	c #4D2622",
"$W 	c #3E1B18",
"%W 	c #341613",
"&W 	c #200D0B",
"*W 	c #301917",
"=W 	c #3B211F",
"-W 	c #472927",
";W 	c #4F2D2B",
">W 	c #502C28",
",W 	c #55302C",
"'W 	c #59332F",
")W 	c #5B342E",
"!W 	c #59322D",
"~W 	c #532D28",
"{W 	c #4B2823",
"]W 	c #43231F",
"^W 	c #2E1714",
"/W 	c #2A1513",
"(W 	c #21100E",
"_W 	c #1A0B0A",
":W 	c #150806",
"<W 	c #1F0E0B",
"[W 	c #28130F",
"}W 	c #301612",
"|W 	c #3B1C18",
"1W 	c #45231E",
"2W 	c #502A24",
"3W 	c #582D27",
"4W 	c #5F2E29",
"5W 	c #6D372F",
"6W 	c #82433C",
"7W 	c #83433C",
"8W 	c #84483C",
"9W 	c #81453A",
"0W 	c #894C40",
"aW 	c #8D5044",
"bW 	c #8A4D41",
"cW 	c #884B3F",
"dW 	c #884B40",
"eW 	c #894B41",
"fW 	c #884940",
"gW 	c #8E4F48",
"hW 	c #83453F",
"iW 	c #7D3C30",
"jW 	c #824135",
"kW 	c #844236",
"lW 	c #7A3A2F",
"mW 	c #7D3E32",
"nW 	c #8F5043",
"oW 	c #8B4C3F",
"pW 	c #8A4A3E",
"qW 	c #8B473C",
"rW 	c #84443A",
"sW 	c #8B4D40",
"tW 	c #8C4F42",
"uW 	c #85493C",
"vW 	c #7E4134",
"wW 	c #783C2F",
"xW 	c #743A2F",
"yW 	c #753C31",
"zW 	c #733E32",
"AW 	c #703D33",
"BW 	c #64342B",
"CW 	c #592C26",
"DW 	c #522A25",
"EW 	c #401D18",
"FW 	c #2E1612",
"GW 	c #24110D",
"HW 	c #20100E",
"IW 	c #281512",
"JW 	c #311916",
"KW 	c #3F2420",
"LW 	c #4D2E2A",
"MW 	c #522F2B",
"NW 	c #543029",
"OW 	c #5E3831",
"PW 	c #633C35",
"QW 	c #633A33",
"RW 	c #5F352F",
"SW 	c #572F29",
"TW 	c #4F2723",
"UW 	c #482420",
"VW 	c #381D1A",
"WW 	c #331A18",
"XW 	c #2C1714",
"YW 	c #22100E",
"ZW 	c #0F0604",
"`W 	c #361713",
" X 	c #401D19",
".X 	c #4B2721",
"+X 	c #552F27",
"@X 	c #63322C",
"#X 	c #632F28",
"$X 	c #6E3931",
"%X 	c #7D443C",
"&X 	c #80453C",
"*X 	c #7F4139",
"=X 	c #82453B",
"-X 	c #834B3D",
";X 	c #844D3E",
">X 	c #884F40",
",X 	c #895142",
"'X 	c #8A5243",
")X 	c #885041",
"!X 	c #874F40",
"~X 	c #894F42",
"{X 	c #8B4E44",
"]X 	c #8A4B43",
"^X 	c #86473F",
"/X 	c #84453C",
"(X 	c #85463D",
"_X 	c #7A3B32",
":X 	c #804239",
"<X 	c #7E3E35",
"[X 	c #814239",
"}X 	c #85453D",
"|X 	c #84443B",
"1X 	c #82423A",
"2X 	c #8B4C44",
"3X 	c #874840",
"4X 	c #85413B",
"5X 	c #76342E",
"6X 	c #86433C",
"7X 	c #894841",
"8X 	c #804139",
"9X 	c #84463E",
"0X 	c #7F423B",
"aX 	c #7D423A",
"bX 	c #7B413A",
"cX 	c #733D36",
"dX 	c #683630",
"eX 	c #5F312A",
"fX 	c #562D25",
"gX 	c #321813",
"hX 	c #29140F",
"iX 	c #21100C",
"jX 	c #180B08",
"kX 	c #190A09",
"lX 	c #301816",
"mX 	c #3C211E",
"nX 	c #4B2A27",
"oX 	c #5D3631",
"pX 	c #653A33",
"qX 	c #683B35",
"rX 	c #673931",
"sX 	c #62332C",
"tX 	c #5C2C26",
"uX 	c #552722",
"vX 	c #512723",
"wX 	c #482822",
"xX 	c #442621",
"yX 	c #3B201C",
"zX 	c #351D19",
"AX 	c #2D1814",
"BX 	c #25120F",
"CX 	c #0A0B0B",
"DX 	c #130906",
"EX 	c #190C08",
"FX 	c #2D1613",
"GX 	c #401E1B",
"HX 	c #4E2926",
"IX 	c #502925",
"JX 	c #562E28",
"KX 	c #60342E",
"LX 	c #663631",
"MX 	c #6B3834",
"NX 	c #834B45",
"OX 	c #824943",
"PX 	c #804440",
"QX 	c #834842",
"RX 	c #8E544A",
"SX 	c #8D544A",
"TX 	c #8A5045",
"UX 	c #884E44",
"VX 	c #854C41",
"WX 	c #864C42",
"XX 	c #834841",
"YX 	c #854944",
"ZX 	c #884C47",
"`X 	c #894D48",
" Y 	c #824740",
".Y 	c #80443E",
"+Y 	c #874B46",
"@Y 	c #844239",
"#Y 	c #86443B",
"$Y 	c #834138",
"%Y 	c #834039",
"&Y 	c #814038",
"*Y 	c #84433B",
"=Y 	c #86463E",
"-Y 	c #8B453F",
";Y 	c #813E38",
">Y 	c #87433C",
",Y 	c #87453E",
"'Y 	c #6F3A33",
")Y 	c #63322B",
"!Y 	c #5B2F27",
"~Y 	c #502721",
"{Y 	c #3F1D17",
"]Y 	c #381B15",
"^Y 	c #1E0E0B",
"/Y 	c #1F0E0C",
"(Y 	c #2B1614",
"_Y 	c #422320",
":Y 	c #4E2C28",
"<Y 	c #532C29",
"[Y 	c #643934",
"}Y 	c #683B34",
"|Y 	c #6C3C35",
"1Y 	c #6D3C34",
"2Y 	c #69352F",
"3Y 	c #64302B",
"4Y 	c #5D2B26",
"5Y 	c #592B26",
"6Y 	c #522E27",
"7Y 	c #502E28",
"8Y 	c #462722",
"9Y 	c #3F231E",
"0Y 	c #371E19",
"aY 	c #2F1915",
"bY 	c #291511",
"cY 	c #23110D",
"dY 	c #0F0909",
"eY 	c #141515",
"fY 	c #161616",
"gY 	c #170A07",
"hY 	c #1C0E09",
"iY 	c #22120C",
"jY 	c #28120E",
"kY 	c #2F1713",
"lY 	c #371B18",
"mY 	c #3F1E1B",
"nY 	c #4A2421",
"oY 	c #552B28",
"pY 	c #5A2F2B",
"qY 	c #623630",
"rY 	c #6C3D37",
"sY 	c #844C46",
"tY 	c #8A4E47",
"uY 	c #8F5249",
"vY 	c #894C43",
"wY 	c #894B45",
"xY 	c #8B4E47",
"yY 	c #884B44",
"zY 	c #8C473E",
"AY 	c #8F483F",
"BY 	c #833D35",
"CY 	c #823D34",
"DY 	c #813C33",
"EY 	c #803B33",
"FY 	c #803C33",
"GY 	c #834037",
"HY 	c #7F3D34",
"IY 	c #89463E",
"JY 	c #934B45",
"KY 	c #934A44",
"LY 	c #914C45",
"MY 	c #833F38",
"NY 	c #8B4840",
"OY 	c #87453D",
"PY 	c #88463F",
"QY 	c #8B4B43",
"RY 	c #844840",
"SY 	c #7F443C",
"TY 	c #763E37",
"UY 	c #66312B",
"VY 	c #5F2F29",
"WY 	c #50241F",
"XY 	c #3D1610",
"YY 	c #3E1D18",
"ZY 	c #361A15",
"`Y 	c #26130F",
" Z 	c #190A07",
".Z 	c #271412",
"+Z 	c #512B29",
"@Z 	c #643935",
"#Z 	c #6A3933",
"$Z 	c #6E3B35",
"%Z 	c #733D37",
"&Z 	c #733B35",
"*Z 	c #6E3530",
"=Z 	c #68302D",
"-Z 	c #612E29",
";Z 	c #5D3630",
">Z 	c #532E29",
",Z 	c #200E0D",
"'Z 	c #1A1012",
")Z 	c #1C191A",
"!Z 	c #202021",
"~Z 	c #211F20",
"{Z 	c #1B1313",
"]Z 	c #24130F",
"^Z 	c #26140F",
"/Z 	c #2B160F",
"(Z 	c #331812",
"_Z 	c #3C1F1A",
":Z 	c #48221F",
"<Z 	c #562B28",
"[Z 	c #653632",
"}Z 	c #71413B",
"|Z 	c #7B4943",
"1Z 	c #855148",
"2Z 	c #8D564E",
"3Z 	c #925950",
"4Z 	c #955B52",
"5Z 	c #93564E",
"6Z 	c #905249",
"7Z 	c #92554C",
"8Z 	c #904F46",
"9Z 	c #925046",
"0Z 	c #955349",
"aZ 	c #945348",
"bZ 	c #8F4F46",
"cZ 	c #94544C",
"dZ 	c #92524A",
"eZ 	c #7D3B2F",
"fZ 	c #7F3B30",
"gZ 	c #8D493E",
"hZ 	c #89453A",
"iZ 	c #88453A",
"jZ 	c #8A473C",
"kZ 	c #7D3C31",
"lZ 	c #723127",
"mZ 	c #79392F",
"nZ 	c #854439",
"oZ 	c #854339",
"pZ 	c #8A483E",
"qZ 	c #803931",
"rZ 	c #813932",
"sZ 	c #843F36",
"tZ 	c #853F36",
"uZ 	c #803D34",
"vZ 	c #7B392F",
"wZ 	c #803E34",
"xZ 	c #79382F",
"yZ 	c #783A30",
"zZ 	c #7C3F34",
"AZ 	c #74392F",
"BZ 	c #642B23",
"CZ 	c #5B241F",
"DZ 	c #5D2B27",
"EZ 	c #51221F",
"FZ 	c #4E2522",
"GZ 	c #331916",
"HZ 	c #200F0C",
"IZ 	c #160806",
"JZ 	c #1C0D0D",
"KZ 	c #281515",
"LZ 	c #361E1D",
"MZ 	c #492524",
"NZ 	c #633B3A",
"OZ 	c #6B403F",
"PZ 	c #653934",
"QZ 	c #6D3E38",
"RZ 	c #6D3D37",
"SZ 	c #6D3A35",
"TZ 	c #74413C",
"UZ 	c #6E3A37",
"VZ 	c #6C3B37",
"WZ 	c #6A3E3A",
"XZ 	c #643A37",
"YZ 	c #532F2B",
"ZZ 	c #4E2C29",
"`Z 	c #472724",
" ` 	c #3F211E",
".` 	c #3C1E1C",
"+` 	c #2F1816",
"@` 	c #271316",
"#` 	c #241518",
"$` 	c #292325",
"%` 	c #322F31",
"&` 	c #322E2F",
"*` 	c #241719",
"=` 	c #261415",
"-` 	c #2E1A17",
";` 	c #321E18",
">` 	c #39211B",
",` 	c #46241E",
"'` 	c #4A2620",
")` 	c #562D27",
"!` 	c #5E302B",
"~` 	c #64342E",
"{` 	c #78483F",
"]` 	c #7F4C43",
"^` 	c #844F44",
"/` 	c #94574C",
"(` 	c #96594C",
"_` 	c #9A584B",
":` 	c #9B584C",
"<` 	c #965246",
"[` 	c #935044",
"}` 	c #955246",
"|` 	c #925045",
"1` 	c #8E4D42",
"2` 	c #8F4E43",
"3` 	c #935147",
"4` 	c #945248",
"5` 	c #8B4A3E",
"6` 	c #7F3E34",
"7` 	c #7D4339",
"8` 	c #80473D",
"9` 	c #85493F",
"0` 	c #8B5148",
"a` 	c #88534C",
"b` 	c #85534D",
"c` 	c #845049",
"d` 	c #844B42",
"e` 	c #884E45",
"f` 	c #874D45",
"g` 	c #7A3932",
"h` 	c #7B3932",
"i` 	c #81433C",
"j` 	c #824840",
"k` 	c #7F4740",
"l` 	c #7E463D",
"m` 	c #7F463E",
"n` 	c #7F453D",
"o` 	c #783F37",
"p` 	c #784038",
"q` 	c #7A433A",
"r` 	c #754138",
"s` 	c #6C3D36",
"t` 	c #60302D",
"u` 	c #623433",
"v` 	c #582E2E",
"w` 	c #4E2D2A",
"x` 	c #462826",
"y` 	c #3A211F",
"z` 	c #301A19",
"A` 	c #271613",
"B` 	c #1D0F0D",
"C` 	c #100909",
"D` 	c #221414",
"E` 	c #2E1C1C",
"F` 	c #3A2525",
"G` 	c #442B2C",
"H` 	c #4C2F30",
"I` 	c #4C2D2E",
"J` 	c #634040",
"K` 	c #6A4444",
"L` 	c #6A4442",
"M` 	c #734B47",
"N` 	c #764D4B",
"O` 	c #7D5150",
"P` 	c #7A4D4B",
"Q` 	c #714543",
"R` 	c #714845",
"S` 	c #6B4441",
"T` 	c #65413F",
"U` 	c #583937",
"V` 	c #513230",
"W` 	c #462927",
"X` 	c #3F2421",
"Y` 	c #341C1C",
"Z` 	c #321C1F",
"`` 	c #301E22",
"  .	c #362F32",
". .	c #403D40",
"+ .	c #413D3E",
"@ .	c #322427",
"# .	c #332022",
"$ .	c #3D2723",
"% .	c #432B26",
"& .	c #4A2925",
"* .	c #4E2D28",
"= .	c #52302A",
"- .	c #5C342F",
"; .	c #6B3D38",
"> .	c #71443D",
", .	c #784B44",
"' .	c #7F4F46",
") .	c #835046",
"! .	c #89554C",
"~ .	c #8F594F",
"{ .	c #8B554B",
"] .	c #90584E",
"^ .	c #985C50",
"/ .	c #8B4E42",
"( .	c #905349",
"_ .	c #90524A",
": .	c #84473F",
"< .	c #825950",
"[ .	c #89625A",
"} .	c #80584F",
"| .	c #81594F",
"1 .	c #80574E",
"2 .	c #7F574D",
"3 .	c #8D665F",
"4 .	c #A8817B",
"5 .	c #B38D87",
"6 .	c #A27D78",
"7 .	c #7F5A56",
"8 .	c #805B56",
"9 .	c #805C58",
"0 .	c #7C5855",
"a .	c #693B38",
"b .	c #7E524D",
"c .	c #714943",
"d .	c #86605C",
"e .	c #926A64",
"f .	c #89645D",
"g .	c #815B55",
"h .	c #7F5853",
"i .	c #7D5651",
"j .	c #7B544F",
"k .	c #78524C",
"l .	c #754F49",
"m .	c #7A554F",
"n .	c #85615D",
"o .	c #6D4A4B",
"p .	c #6B494C",
"q .	c #65474A",
"r .	c #654A4D",
"s .	c #513A3C",
"t .	c #453233",
"u .	c #433132",
"v .	c #2C1F20",
"w .	c #271C1C",
"x .	c #231A1A",
"y .	c #1D1717",
"z .	c #161213",
"A .	c #0F0D0F",
"B .	c #151012",
"C .	c #1F191B",
"D .	c #2A2124",
"E .	c #33282A",
"F .	c #3A2E31",
"G .	c #453639",
"H .	c #514045",
"I .	c #5A474B",
"J .	c #5A464A",
"K .	c #735E60",
"L .	c #755F5F",
"M .	c #816A6A",
"N .	c #8F7578",
"O .	c #8F7577",
"P .	c #7F6568",
"Q .	c #70575A",
"R .	c #765A5E",
"S .	c #74595A",
"T .	c #6B5355",
"U .	c #6B5555",
"V .	c #644F50",
"W .	c #594647",
"X .	c #4F3B3E",
"Y .	c #4B3638",
"Z .	c #422D2F",
"` .	c #3B2828",
" ..	c #3E2A2C",
"...	c #3C272B",
"+..	c #3C2B2F",
"@..	c #423A3E",
"#..	c #4A474B",
"$..	c #4F4A4E",
"%..	c #4A3D42",
"&..	c #463439",
"*..	c #3E2F31",
"=..	c #423234",
"-..	c #453636",
";..	c #4D3536",
">..	c #4F3937",
",..	c #57413D",
"'..	c #583E3C",
")..	c #614543",
"!..	c #6D4D4A",
"~..	c #6A4D4A",
"{..	c #684D4A",
"]..	c #6C4D47",
"^..	c #77514B",
"/..	c #865F59",
"(..	c #89625C",
"_..	c #876059",
":..	c #8A625C",
"<..	c #835952",
"[..	c #805750",
"}..	c #8E635C",
"|..	c #855A52",
"1..	c #82574F",
"2..	c #875C53",
"3..	c #7B5046",
"4..	c #784C44",
"5..	c #885B54",
"6..	c #8A5C57",
"7..	c #81524E",
"8..	c #7F504C",
"9..	c #835551",
"0..	c #80524E",
"a..	c #865854",
"b..	c #AB9592",
"c..	c #AF9996",
"d..	c #B09B98",
"e..	c #B09A97",
"f..	c #AE9996",
"g..	c #B19D9D",
"h..	c #B6A1A1",
"i..	c #BBA6A7",
"j..	c #BBA6A8",
"k..	c #B09D9F",
"l..	c #AD999A",
"m..	c #B4A1A3",
"n..	c #A0898C",
"o..	c #A89195",
"p..	c #A78F92",
"q..	c #937C7F",
"r..	c #9F8A8B",
"s..	c #968283",
"t..	c #917D7F",
"u..	c #8D797A",
"v..	c #8E7A7B",
"w..	c #937F80",
"x..	c #968384",
"y..	c #9A8788",
"z..	c #A08E8F",
"A..	c #9E8B8D",
"B..	c #9F8C8D",
"C..	c #9B898D",
"D..	c #917F84",
"E..	c #86767A",
"F..	c #7E7073",
"G..	c #706466",
"H..	c #6D6365",
"I..	c #5B5254",
"J..	c #4F4849",
"K..	c #4A4345",
"L..	c #3E3839",
"M..	c #363132",
"N..	c #2D2A2A",
"O..	c #232121",
"P..	c #1B1A1B",
"Q..	c #0C0A0C",
"R..	c #191719",
"S..	c #221E21",
"T..	c #2D292C",
"U..	c #393437",
"V..	c #464044",
"W..	c #514A4E",
"X..	c #585155",
"Y..	c #635B5F",
"Z..	c #695F65",
"`..	c #766C71",
" +.	c #81777D",
".+.	c #867D80",
"++.	c #94898C",
"@+.	c #9C8F92",
"#+.	c #9F9095",
"$+.	c #A4949A",
"%+.	c #A6979D",
"&+.	c #9B8C91",
"*+.	c #8F8485",
"=+.	c #8B7F81",
"-+.	c #83787A",
";+.	c #807577",
">+.	c #7D7375",
",+.	c #7C7275",
"'+.	c #72666A",
")+.	c #6E6467",
"!+.	c #5C5353",
"~+.	c #544949",
"{+.	c #524445",
"]+.	c #4D4144",
"^+.	c #504C4F",
"/+.	c #57585A",
"(+.	c #5F555B",
"_+.	c #61555B",
":+.	c #5A5358",
"<+.	c #5F5A5E",
"[+.	c #676265",
"}+.	c #6E6266",
"|+.	c #6D6064",
"1+.	c #74686A",
"2+.	c #7A6B6E",
"3+.	c #857477",
"4+.	c #877578",
"5+.	c #8F8083",
"6+.	c #908486",
"7+.	c #8B7C7D",
"8+.	c #876F70",
"9+.	c #886F6F",
"0+.	c #8E7575",
"a+.	c #8D7575",
"b+.	c #A28889",
"c+.	c #977F80",
"d+.	c #897171",
"e+.	c #8A706E",
"f+.	c #8A6F6D",
"g+.	c #907674",
"h+.	c #937976",
"i+.	c #8F7673",
"j+.	c #866D6B",
"k+.	c #7F6563",
"l+.	c #7F6362",
"m+.	c #826264",
"n+.	c #7F5F61",
"o+.	c #765558",
"p+.	c #775658",
"q+.	c #745355",
"r+.	c #6E4C4E",
"s+.	c #B5A3A2",
"t+.	c #BAA7A6",
"u+.	c #BFADAC",
"v+.	c #BFADAD",
"w+.	c #C0ADAC",
"x+.	c #BEACAC",
"y+.	c #C0AFB1",
"z+.	c #BEAEB0",
"A+.	c #BFAFB2",
"B+.	c #C2B2B5",
"C+.	c #BCADB0",
"D+.	c #B9AAAC",
"E+.	c #BDAFB1",
"F+.	c #C1B2B5",
"G+.	c #AD999D",
"H+.	c #B6A2A7",
"I+.	c #A08E93",
"J+.	c #A59699",
"K+.	c #988A8D",
"L+.	c #9A8C8F",
"M+.	c #988A8C",
"N+.	c #988B8D",
"O+.	c #9E9093",
"P+.	c #A39598",
"Q+.	c #A7999B",
"R+.	c #AD9EA1",
"S+.	c #AC9DA1",
"T+.	c #AC9EA0",
"U+.	c #AC9DA2",
"V+.	c #A19398",
"W+.	c #96898D",
"X+.	c #8D8487",
"Y+.	c #82797B",
"Z+.	c #80787B",
"`+.	c #6D6668",
" @.	c #615C5E",
".@.	c #5B5759",
"+@.	c #4E4A4A",
"@@.	c #464343",
"#@.	c #3C3A3A",
"$@.	c #312F30",
"%@.	c #272728",
"&@.	c #1A191B",
"*@.	c #0A090A",
"=@.	c #080809",
"-@.	c #110F11",
";@.	c #171517",
">@.	c #272427",
",@.	c #302D30",
"'@.	c #494347",
")@.	c #565054",
"!@.	c #625B60",
"~@.	c #6A6368",
"{@.	c #726A6F",
"]@.	c #786F75",
"^@.	c #837C82",
"/@.	c #8F888F",
"(@.	c #8F898E",
"_@.	c #999396",
":@.	c #9D9599",
"<@.	c #A39B9F",
"[@.	c #A69BA0",
"}@.	c #B6AAB0",
"|@.	c #AB9FA4",
"1@.	c #A0989A",
"2@.	c #9C9397",
"3@.	c #989094",
"4@.	c #948C8F",
"5@.	c #928A8C",
"6@.	c #918B8D",
"7@.	c #91898D",
"8@.	c #867C81",
"9@.	c #847D80",
"0@.	c #716B6C",
"a@.	c #696161",
"b@.	c #65595C",
"c@.	c #5F5558",
"d@.	c #615E61",
"e@.	c #66696B",
"f@.	c #6B6B6D",
"g@.	c #736B71",
"h@.	c #756B72",
"i@.	c #6F6A6F",
"j@.	c #716E71",
"k@.	c #7A777A",
"l@.	c #81767B",
"m@.	c #80767A",
"n@.	c #877D81",
"o@.	c #8E8186",
"p@.	c #96878B",
"q@.	c #95868C",
"r@.	c #A19498",
"s@.	c #A2989C",
"t@.	c #9A8E92",
"u@.	c #938183",
"v@.	c #8F7D7F",
"w@.	c #978385",
"x@.	c #998588",
"y@.	c #AC989A",
"z@.	c #A19092",
"A@.	c #8F7F81",
"B@.	c #8E7F80",
"C@.	c #928081",
"D@.	c #9A8686",
"E@.	c #9C8886",
"F@.	c #998786",
"G@.	c #91807F",
"H@.	c #877676",
"I@.	c #887477",
"J@.	c #8A7378",
"K@.	c #866D73",
"L@.	c #81686E",
"M@.	c #80676E",
"N@.	c #7A6166",
"O@.	c #796065",
"P@.	c #796268",
"Q@.	c #BFAFB9",
"R@.	c #CABAC2",
"S@.	c #E4D4DE",
"T@.	c #DCCCD5",
"U@.	c #DECED6",
"V@.	c #E1D1DA",
"W@.	c #E6D9DF",
"X@.	c #DBD1D5",
"Y@.	c #CCC5C7",
"Z@.	c #C6C2C4",
"`@.	c #C8C2C7",
" #.	c #C7C3C8",
".#.	c #CDCAD0",
"+#.	c #CAC6CD",
"@#.	c #B5AAAF",
"##.	c #C4B5B8",
"$#.	c #ACA0A3",
"%#.	c #A8A8B1",
"&#.	c #97979F",
"*#.	c #BEB9BD",
"=#.	c #C3C1C3",
"-#.	c #BEBDC0",
";#.	c #C1BFC3",
">#.	c #C5C2C5",
",#.	c #C0BBBF",
"'#.	c #BAB5B9",
")#.	c #C7C2C6",
"!#.	c #CDC7CC",
"~#.	c #C2BBC0",
"{#.	c #BEB6BC",
"]#.	c #B5ADB1",
"^#.	c #AFA9AC",
"/#.	c #AAA5A8",
"(#.	c #9D9A9D",
"_#.	c #959295",
":#.	c #848486",
"<#.	c #777679",
"[#.	c #646467",
"}#.	c #58585A",
"|#.	c #505052",
"1#.	c #474749",
"2#.	c #3B3B3D",
"3#.	c #2F2F31",
"4#.	c #272729",
"5#.	c #201E1E",
"6#.	c #1A1818",
"7#.	c #1A1718",
"8#.	c #2E2A2C",
"9#.	c #3A3538",
"0#.	c #474245",
"a#.	c #514B4F",
"b#.	c #595356",
"c#.	c #6A6367",
"d#.	c #777176",
"e#.	c #848081",
"f#.	c #979294",
"g#.	c #948B8E",
"h#.	c #989B9F",
"i#.	c #99A3A7",
"j#.	c #9BA4AA",
"k#.	c #AEB1B8",
"l#.	c #AFAFB4",
"m#.	c #B0B3B6",
"n#.	c #ABB2B3",
"o#.	c #ACB2B4",
"p#.	c #B8BABF",
"q#.	c #C3C2CA",
"r#.	c #C2C1C9",
"s#.	c #BFBDC4",
"t#.	c #BCBDC2",
"u#.	c #B4B4B8",
"v#.	c #B1B2B6",
"w#.	c #B3B4B7",
"x#.	c #A5A5A9",
"y#.	c #A0A0A4",
"z#.	c #9B9B9F",
"A#.	c #9D9EA1",
"B#.	c #9B9B9E",
"C#.	c #8E8E91",
"D#.	c #87878A",
"E#.	c #86888A",
"F#.	c #84888B",
"G#.	c #8D8E90",
"H#.	c #9D9A9E",
"I#.	c #9B979C",
"J#.	c #999397",
"K#.	c #8A8589",
"L#.	c #979094",
"M#.	c #9E9296",
"N#.	c #AFA6AC",
"O#.	c #AFA5AD",
"P#.	c #ACA3AC",
"Q#.	c #C1B8C1",
"R#.	c #C7BFC9",
"S#.	c #C0BAC2",
"T#.	c #C0B0B6",
"U#.	c #D0C0C7",
"V#.	c #CBBEC4",
"W#.	c #BABAC0",
"X#.	c #A7AEB3",
"Y#.	c #ADBBC2",
"Z#.	c #B8BEC4",
"`#.	c #C1B7BB",
" $.	c #C0B3B5",
".$.	c #BDB9B7",
"+$.	c #B9B8B8",
"@$.	c #B5B5BA",
"#$.	c #C0BBC3",
"$$.	c #C2B8C3",
"%$.	c #B8AAB7",
"&$.	c #B6A8B5",
"*$.	c #BEB1BD",
"=$.	c #A294A1",
"-$.	c #A699A6",
";$.	c #C9BBC8",
">$.	c #B09AA1",
",$.	c #AE989F",
"'$.	c #B4A1A8",
")$.	c #B8A3AA",
"!$.	c #C2ACB3",
"~$.	c #C9B2BA",
"{$.	c #D0BCC1",
"]$.	c #D5C4C6",
"^$.	c #D5C6C7",
"/$.	c #D0C2C3",
"($.	c #C5B8BA",
"_$.	c #BBB0B4",
":$.	c #C0B5B9",
"<$.	c #BCB0B5",
"[$.	c #AD9DA0",
"}$.	c #C0ACAD",
"|$.	c #B3A1A2",
"1$.	c #D1C8CD",
"2$.	c #9E9DA6",
"3$.	c #A3A3AA",
"4$.	c #BDB7BA",
"5$.	c #CBC2C3",
"6$.	c #D1C8C9",
"7$.	c #D6CCCD",
"8$.	c #DACFD0",
"9$.	c #D7CBCD",
"0$.	c #CCBFC1",
"a$.	c #CCBEC1",
"b$.	c #BEB1B5",
"c$.	c #C7B7BC",
"d$.	c #C6B4B9",
"e$.	c #BAAAAE",
"f$.	c #AEA2A5",
"g$.	c #A79C9E",
"h$.	c #968F92",
"i$.	c #868184",
"j$.	c #757074",
"k$.	c #666265",
"l$.	c #5D595B",
"m$.	c #545053",
"n$.	c #3F3C3E",
"o$.	c #272221",
"p$.	c #231E1F",
"q$.	c #282223",
"r$.	c #2D2729",
"s$.	c #352F30",
"t$.	c #40383A",
"u$.	c #4A4144",
"v$.	c #514749",
"w$.	c #554A4D",
"x$.	c #695D61",
"y$.	c #766A6F",
"z$.	c #7B7475",
"A$.	c #938A8A",
"B$.	c #A59597",
"C$.	c #9B8D90",
"D$.	c #A6A7AA",
"E$.	c #A5AEB0",
"F$.	c #ABB0BA",
"G$.	c #B5B4BC",
"H$.	c #B8B2BA",
"I$.	c #B9B7B9",
"J$.	c #B4B7B6",
"K$.	c #BDBEBF",
"L$.	c #CEC9CE",
"M$.	c #D3C9D1",
"N$.	c #D5C6CD",
"O$.	c #D1C2C9",
"P$.	c #CFC3C9",
"Q$.	c #BDB5B8",
"R$.	c #BEB6B8",
"S$.	c #B6AEB1",
"T$.	c #B1A8AF",
"U$.	c #B0A8AD",
"V$.	c #AEA7AC",
"W$.	c #ABA4A8",
"X$.	c #ACA6AA",
"Y$.	c #A9A4A8",
"Z$.	c #A4A0A4",
"`$.	c #9F999D",
" %.	c #9F989B",
".%.	c #A69EA1",
"+%.	c #A99EA2",
"@%.	c #A89A9E",
"#%.	c #8F8183",
"$%.	c #99888C",
"%%.	c #AA9599",
"&%.	c #A29095",
"*%.	c #B8A4AA",
"=%.	c #CAB7BD",
"-%.	c #BBA7AE",
";%.	c #BCA9B1",
">%.	c #C3B2B9",
",%.	c #C4B5BD",
"'%.	c #C0B3BA",
")%.	c #B2A8AC",
"!%.	c #A4969A",
"~%.	c #C6B0B5",
"{%.	c #E1C9CE",
"]%.	c #DECACF",
"^%.	c #C6C3C9",
"/%.	c #A8AEB2",
"(%.	c #B0BEC5",
"_%.	c #B6BAC0",
":%.	c #D2BEC2",
"<%.	c #CDB6B7",
"[%.	c #CBBFBB",
"}%.	c #CCC4C2",
"|%.	c #C9C1C4",
"1%.	c #CDC1C7",
"2%.	c #D0BFC7",
"3%.	c #C9B6BF",
"4%.	c #C2AEB7",
"5%.	c #C1ADB6",
"6%.	c #A29099",
"7%.	c #C3AFB8",
"8%.	c #DBC6D0",
"9%.	c #A68A90",
"0%.	c #9C8085",
"a%.	c #91767C",
"b%.	c #9F8489",
"c%.	c #AF9399",
"d%.	c #B99CA2",
"e%.	c #C1A7AB",
"f%.	c #CFB9BB",
"g%.	c #D8C3C4",
"h%.	c #D3BFBF",
"i%.	c #C1B0B0",
"j%.	c #B3A2A5",
"k%.	c #B8A6AA",
"l%.	c #B2A1A5",
"m%.	c #A89395",
"n%.	c #BBA5A5",
"o%.	c #B5A0A0",
"p%.	c #D9CDD1",
"q%.	c #98969F",
"r%.	c #AAA9B0",
"s%.	c #BDB7B8",
"t%.	c #CDC0C0",
"u%.	c #D8CACA",
"v%.	c #DECFCF",
"w%.	c #E2D2D3",
"x%.	c #D2C0C2",
"y%.	c #CDB9BB",
"z%.	c #B4A2A5",
"A%.	c #C8B3B7",
"B%.	c #C9B2B5",
"C%.	c #CAB4B8",
"D%.	c #BFAAAD",
"E%.	c #B1A0A2",
"F%.	c #AE9EA0",
"G%.	c #A6999A",
"H%.	c #A4999B",
"I%.	c #93898E",
"J%.	c #837A7E",
"K%.	c #736A6E",
"L%.	c #686164",
"M%.	c #605A5C",
"N%.	c #575053",
"O%.	c #4E484B",
"P%.	c #494345",
"Q%.	c #393130",
"R%.	c #362E2D",
"S%.	c #2E2626",
"T%.	c #2F2727",
"U%.	c #2E2525",
"V%.	c #2D2324",
"W%.	c #342A2C",
"X%.	c #3E3334",
"Y%.	c #463A3C",
"Z%.	c #4E4143",
"`%.	c #504143",
" &.	c #524144",
".&.	c #6C5A5E",
"+&.	c #77656A",
"@&.	c #776B6B",
"#&.	c #918383",
"$&.	c #AE9A9B",
"%&.	c #9C888A",
"&&.	c #AFAFB1",
"*&.	c #ABB3B6",
"=&.	c #B6B9C2",
"-&.	c #B9B5BE",
";&.	c #BEB4BC",
">&.	c #BDB6B9",
",&.	c #B8B6B5",
"'&.	c #C4C1C1",
")&.	c #D7CDD2",
"!&.	c #DBCAD1",
"~&.	c #DEC6CD",
"{&.	c #D8C3C9",
"]&.	c #D9C6CC",
"^&.	c #D9C7CC",
"/&.	c #C6B6B8",
"(&.	c #BFB3B5",
"_&.	c #BAACB3",
":&.	c #BDAFB6",
"<&.	c #B9ADB3",
"[&.	c #B4A9AE",
"}&.	c #BEB3B9",
"|&.	c #BEB5BA",
"1&.	c #B6AEB3",
"2&.	c #AFA5A9",
"3&.	c #AA9EA2",
"4&.	c #AC9EA1",
"5&.	c #B2A2A5",
"6&.	c #B19EA1",
"7&.	c #927C7E",
"8&.	c #9C8285",
"9&.	c #B3969A",
"0&.	c #997E82",
"a&.	c #BDA3A8",
"b&.	c #D3BABF",
"c&.	c #C0A7AD",
"d&.	c #C4ABB3",
"e&.	c #C2ABB3",
"f&.	c #C0ABB3",
"g&.	c #BDACB3",
"h&.	c #AD9FA2",
"i&.	c #978588",
"j&.	c #C7ADB1",
"k&.	c #E7CBCF",
"l&.	c #E3CCCF",
"m&.	c #CAC5CA",
"n&.	c #A8ADB1",
"o&.	c #B2BFC7",
"p&.	c #B6B8BE",
"q&.	c #D7BFC3",
"r&.	c #D0B5B4",
"s&.	c #CFBFBA",
"t&.	c #D3C7C3",
"u&.	c #D0C3C5",
"v&.	c #D2C0C6",
"w&.	c #D4BFC6",
"x&.	c #D0B9C0",
"y&.	c #C6AEB5",
"z&.	c #C1A8AF",
"A&.	c #A28C93",
"B&.	c #CFB7BE",
"C&.	c #E0C8D0",
"D&.	c #945C56",
"E&.	c #A06964",
"F&.	c #965F5A",
"G&.	c #99625D",
"H&.	c #A06863",
"I&.	c #9D6765",
"J&.	c #996465",
"K&.	c #9F696B",
"L&.	c #A36F71",
"M&.	c #9C696D",
"N&.	c #9F6D72",
"O&.	c #A47379",
"P&.	c #A27178",
"Q&.	c #977074",
"R&.	c #8B6262",
"S&.	c #A17F80",
"T&.	c #9F888C",
"U&.	c #8A808B",
"V&.	c #B3B1B9",
"W&.	c #BFB8BB",
"X&.	c #967A7B",
"Y&.	c #875C5D",
"Z&.	c #956869",
"`&.	c #9F7073",
" *.	c #9E6D70",
".*.	c #9B696C",
"+*.	c #A26F72",
"@*.	c #9B686A",
"#*.	c #8F5A5B",
"$*.	c #8E5B5B",
"%*.	c #865454",
"&*.	c #7D4F4F",
"**.	c #744848",
"=*.	c #653D3D",
"-*.	c #5D3838",
";*.	c #624041",
">*.	c #5F4042",
",*.	c #553839",
"'*.	c #472C2C",
")*.	c #3B2222",
"!*.	c #382021",
"~*.	c #3A2424",
"{*.	c #382223",
"]*.	c #301819",
"^*.	c #2F1819",
"/*.	c #2B1315",
"(*.	c #2E1617",
"_*.	c #281011",
":*.	c #301818",
"<*.	c #321818",
"[*.	c #391E1E",
"}*.	c #3D1F1F",
"|*.	c #3F1F1F",
"1*.	c #422020",
"2*.	c #472222",
"3*.	c #5B3032",
"4*.	c #5C2F30",
"5*.	c #562E2E",
"6*.	c #4C2423",
"7*.	c #5C2F34",
"8*.	c #744C55",
"9*.	c #A3949D",
"0*.	c #A29BA4",
"a*.	c #C6B3C1",
"b*.	c #B99BAA",
"c*.	c #AB8692",
"d*.	c #997177",
"e*.	c #8D6565",
"f*.	c #835A59",
"g*.	c #865355",
"h*.	c #986061",
"i*.	c #955851",
"j*.	c #955752",
"k*.	c #7D413F",
"l*.	c #7F4747",
"m*.	c #733C3E",
"n*.	c #733D40",
"o*.	c #612E33",
"p*.	c #5A292E",
"q*.	c #5F2F33",
"r*.	c #653539",
"s*.	c #64363A",
"t*.	c #63383B",
"u*.	c #6B4044",
"v*.	c #6F4448",
"w*.	c #6C4043",
"x*.	c #66353A",
"y*.	c #6B3A3E",
"z*.	c #78474A",
"A*.	c #6E3D3F",
"B*.	c #895654",
"C*.	c #754040",
"D*.	c #814B4D",
"E*.	c #653133",
"F*.	c #7A464A",
"G*.	c #734044",
"H*.	c #663439",
"I*.	c #69373D",
"J*.	c #7B4F53",
"K*.	c #8E6467",
"L*.	c #906468",
"M*.	c #774246",
"N*.	c #6F3B40",
"O*.	c #5E3035",
"P*.	c #8C7077",
"Q*.	c #9C8A92",
"R*.	c #B9AFB9",
"S*.	c #BBA6B0",
"T*.	c #7B4A4E",
"U*.	c #854D4C",
"V*.	c #804E47",
"W*.	c #8C5C54",
"X*.	c #8E5B57",
"Y*.	c #8B5652",
"Z*.	c #89554D",
"`*.	c #8A554C",
" =.	c #8C574E",
".=.	c #8F5A51",
"+=.	c #8B564E",
"@=.	c #9F655E",
"#=.	c #A36963",
"$=.	c #9D635E",
"%=.	c #9B615D",
"&=.	c #995E5E",
"*=.	c #9C6163",
"==.	c #A06768",
"-=.	c #A0686B",
";=.	c #A26B6F",
">=.	c #A06A70",
",=.	c #9D686E",
"'=.	c #926569",
")=.	c #885B5B",
"!=.	c #9E7879",
"~=.	c #967E82",
"{=.	c #948893",
"]=.	c #B9B5BD",
"^=.	c #BEB8BA",
"/=.	c #98797A",
"(=.	c #8B5A5B",
"_=.	c #936061",
":=.	c #9B6768",
"<=.	c #9D6769",
"[=.	c #9D6668",
"}=.	c #9E6669",
"|=.	c #91595B",
"1=.	c #874B4C",
"2=.	c #905654",
"3=.	c #925856",
"4=.	c #8A5350",
"5=.	c #7F4C49",
"6=.	c #683B37",
"7=.	c #673F3F",
"8=.	c #603B3B",
"9=.	c #492828",
"0=.	c #472828",
"a=.	c #442827",
"b=.	c #3C1D1D",
"c=.	c #391B1B",
"d=.	c #3B1E1E",
"e=.	c #37191A",
"f=.	c #381A1B",
"g=.	c #361717",
"h=.	c #422120",
"i=.	c #4A2726",
"j=.	c #482423",
"k=.	c #461F1E",
"l=.	c #4A2120",
"m=.	c #522625",
"n=.	c #673635",
"o=.	c #63302F",
"p=.	c #5A2B2A",
"q=.	c #4E1F1D",
"r=.	c #5C2A2F",
"s=.	c #693E47",
"t=.	c #9F909A",
"u=.	c #C4AEBB",
"v=.	c #B796A4",
"w=.	c #9F7682",
"x=.	c #8E6065",
"y=.	c #845656",
"z=.	c #83514F",
"A=.	c #8C5251",
"B=.	c #945554",
"C=.	c #8B4A44",
"D=.	c #7C3B37",
"E=.	c #7B3D3C",
"F=.	c #692F30",
"G=.	c #6A3134",
"H=.	c #5B2227",
"I=.	c #5B2225",
"J=.	c #672D30",
"K=.	c #70373A",
"L=.	c #6D3638",
"M=.	c #6B393B",
"N=.	c #6F3C3E",
"O=.	c #6A3638",
"P=.	c #642D30",
"Q=.	c #6D3538",
"R=.	c #7A4143",
"S=.	c #763D3D",
"T=.	c #743C3B",
"U=.	c #753F3C",
"V=.	c #864F4B",
"W=.	c #7F4442",
"X=.	c #793E3E",
"Y=.	c #7B4243",
"Z=.	c #794042",
"`=.	c #763E40",
" -.	c #7B4245",
".-.	c #835153",
"+-.	c #8C5E60",
"@-.	c #8B5B5C",
"#-.	c #753C3F",
"$-.	c #723A3D",
"%-.	c #673437",
"&-.	c #82646A",
"*-.	c #9C888F",
"=-.	c #B49DA7",
"--.	c #804B4E",
";-.	c #7C453C",
">-.	c #844E45",
",-.	c #8F544C",
"'-.	c #91574D",
")-.	c #955A51",
"!-.	c #7E453C",
"~-.	c #7D433A",
"{-.	c #A96D65",
"]-.	c #A66A62",
"^-.	c #9C6059",
"/-.	c #995C55",
"(-.	c #9B5F58",
"_-.	c #995B56",
":-.	c #995958",
"<-.	c #995A5A",
"[-.	c #9D5F5F",
"}-.	c #A5696B",
"|-.	c #A66A6C",
"1-.	c #9D6266",
"2-.	c #985E63",
"3-.	c #8C585D",
"4-.	c #855353",
"5-.	c #9B7072",
"6-.	c #8D7277",
"7-.	c #9F909B",
"8-.	c #BEBAC1",
"9-.	c #BEB8B9",
"0-.	c #9A7879",
"a-.	c #905A5A",
"b-.	c #925A5A",
"c-.	c #965D5D",
"d-.	c #9D6263",
"e-.	c #A06466",
"f-.	c #985C5E",
"g-.	c #854748",
"h-.	c #894847",
"i-.	c #92524D",
"j-.	c #965753",
"k-.	c #8E524D",
"l-.	c #7B443F",
"m-.	c #6C3832",
"n-.	c #6F3F3C",
"o-.	c #6D403D",
"p-.	c #683D3A",
"q-.	c #603734",
"r-.	c #5A322F",
"s-.	c #583230",
"t-.	c #522E2B",
"u-.	c #512E2C",
"v-.	c #482321",
"w-.	c #411C1B",
"x-.	c #472221",
"y-.	c #492424",
"z-.	c #441E1E",
"A-.	c #411B1B",
"B-.	c #461F1F",
"C-.	c #4B2321",
"D-.	c #532C28",
"E-.	c #5B312D",
"F-.	c #532825",
"G-.	c #4D1F1B",
"H-.	c #532320",
"I-.	c #5E2B28",
"J-.	c #723C38",
"K-.	c #6C312E",
"L-.	c #5E2925",
"M-.	c #501B16",
"N-.	c #5D272D",
"O-.	c #5B2A32",
"P-.	c #9B8B95",
"Q-.	c #9E98A1",
"R-.	c #BFA8B4",
"S-.	c #B4909D",
"T-.	c #8F616C",
"U-.	c #7F4A4E",
"V-.	c #794241",
"W-.	c #834945",
"X-.	c #93524E",
"Y-.	c #914C48",
"Z-.	c #823E34",
"`-.	c #7F3932",
" ;.	c #7C3833",
".;.	c #783332",
"+;.	c #5C1C1F",
"@;.	c #612226",
"#;.	c #56151B",
"$;.	c #5E1D1E",
"%;.	c #723131",
"&;.	c #7D3E3E",
"*;.	c #77393A",
"=;.	c #6E3232",
"-;.	c #6C3332",
";;.	c #6C3232",
">;.	c #662A2A",
",;.	c #622224",
"';.	c #703031",
");.	c #7C3C3B",
"!;.	c #7E3F3C",
"~;.	c #753834",
"{;.	c #6D322C",
"];.	c #81443E",
"^;.	c #884B46",
"/;.	c #8E4D4B",
"(;.	c #8C4D4B",
"_;.	c #7C3E3C",
":;.	c #814242",
"<;.	c #874849",
"[;.	c #8C5050",
"};.	c #8D5656",
"|;.	c #895857",
"1;.	c #84514F",
"2;.	c #74383A",
"3;.	c #773C3E",
"4;.	c #713C3F",
"5;.	c #76565B",
"6;.	c #9C868C",
"7;.	c #B5A8B0",
"8;.	c #AC939C",
"9;.	c #874E50",
"0;.	c #7F403B",
"a;.	c #793B2F",
"b;.	c #7D4034",
"c;.	c #9B5C53",
"d;.	c #83453B",
"e;.	c #7E4037",
"f;.	c #864D4B",
"g;.	c #793F3E",
"h;.	c #804644",
"i;.	c #7F4543",
"j;.	c #844948",
"k;.	c #8F554E",
"l;.	c #945A54",
"m;.	c #99615D",
"n;.	c #96605B",
"o;.	c #96605D",
"p;.	c #9E6866",
"q;.	c #9C6262",
"r;.	c #9D625F",
"s;.	c #9E6F6C",
"t;.	c #8F7073",
"u;.	c #A8959E",
"v;.	c #BAB4B9",
"w;.	c #C7BDBE",
"x;.	c #9D7D79",
"y;.	c #936059",
"z;.	c #935F58",
"A;.	c #905B55",
"B;.	c #7D4440",
"C;.	c #6F3631",
"D;.	c #753930",
"E;.	c #8A4E44",
"F;.	c #8A5046",
"G;.	c #844E43",
"H;.	c #804B40",
"I;.	c #7B4B3F",
"J;.	c #79493E",
"K;.	c #75443A",
"L;.	c #704137",
"M;.	c #6A3C33",
"N;.	c #63372D",
"O;.	c #5B3027",
"P;.	c #582F26",
"Q;.	c #572F26",
"R;.	c #562F28",
"S;.	c #512B24",
"T;.	c #502924",
"U;.	c #48211C",
"V;.	c #4F2621",
"W;.	c #502823",
"X;.	c #4E271F",
"Y;.	c #522A21",
"Z;.	c #532921",
"`;.	c #562A22",
" >.	c #5C2E26",
".>.	c #62342B",
"+>.	c #67362D",
"@>.	c #6C382F",
"#>.	c #733C30",
"$>.	c #713E31",
"%>.	c #612B22",
"&>.	c #602B2C",
"*>.	c #592B32",
"=>.	c #9C979B",
"->.	c #A9ADB2",
";>.	c #BFAEB2",
">>.	c #9D7C81",
",>.	c #835558",
"'>.	c #864D4A",
")>.	c #8D524A",
"!>.	c #8E5248",
"~>.	c #895149",
"{>.	c #824A44",
"]>.	c #7A4342",
"^>.	c #632D2E",
"/>.	c #68353A",
"(>.	c #69363D",
"_>.	c #62292C",
":>.	c #783731",
"<>.	c #72312A",
"[>.	c #6A2A23",
"}>.	c #70322B",
"|>.	c #6F342C",
"1>.	c #6A3128",
"2>.	c #6A2F27",
"3>.	c #672823",
"4>.	c #6D2F29",
"5>.	c #6D3029",
"6>.	c #6D2F25",
"7>.	c #6B2E23",
"8>.	c #75392D",
"9>.	c #7A3F35",
"0>.	c #7C4238",
"a>.	c #7E443C",
"b>.	c #844C43",
"c>.	c #854F48",
"d>.	c #83524A",
"e>.	c #7F544B",
"f>.	c #7B4D45",
"g>.	c #7E4A45",
"h>.	c #7F5350",
"i>.	c #A19799",
"j>.	c #B3ADB0",
"k>.	c #804E4A",
"l>.	c #874A42",
"m>.	c #884D3C",
"n>.	c #854B3A",
"o>.	c #935349",
"p>.	c #93534C",
"q>.	c #884C48",
"r>.	c #864B47",
"s>.	c #864C48",
"t>.	c #854A46",
"u>.	c #945954",
"v>.	c #894F4A",
"w>.	c #874F4E",
"x>.	c #7D4544",
"y>.	c #7B4241",
"z>.	c #7F4645",
"A>.	c #824A49",
"B>.	c #874E4D",
"C>.	c #854C48",
"D>.	c #925A52",
"E>.	c #96605A",
"F>.	c #935F59",
"G>.	c #9A6663",
"H>.	c #9A605E",
"I>.	c #996B67",
"J>.	c #927174",
"K>.	c #A9959E",
"L>.	c #BDB5BB",
"M>.	c #C8BDBE",
"N>.	c #9E7E7A",
"O>.	c #93635B",
"P>.	c #936058",
"Q>.	c #915E56",
"R>.	c #8E5A53",
"S>.	c #855049",
"T>.	c #7E4640",
"U>.	c #73382F",
"V>.	c #894D43",
"W>.	c #834E43",
"X>.	c #7D4C40",
"Y>.	c #7B4A3E",
"Z>.	c #79473B",
"`>.	c #754338",
" ,.	c #704035",
".,.	c #693B2F",
"+,.	c #61352A",
"@,.	c #5D3127",
"#,.	c #5D332A",
"$,.	c #593028",
"%,.	c #593029",
"&,.	c #562D26",
"*,.	c #532923",
"=,.	c #572B25",
"-,.	c #572D25",
";,.	c #592E25",
">,.	c #5A2E25",
",,.	c #5E3027",
"',.	c #65352C",
"),.	c #6A3930",
"!,.	c #6C3A30",
"~,.	c #713C32",
"{,.	c #743D31",
"],.	c #744034",
"^,.	c #69332B",
"/,.	c #612B2C",
"(,.	c #5D2F35",
"_,.	c #A49FA3",
":,.	c #ACB3B5",
"<,.	c #BCACAD",
"[,.	c #977779",
"},.	c #825355",
"|,.	c #864D49",
"1,.	c #8D5146",
"2,.	c #87514B",
"3,.	c #804A45",
"4,.	c #622E2F",
"5,.	c #643338",
"6,.	c #65333A",
"7,.	c #652D2F",
"8,.	c #773730",
"9,.	c #6F2F28",
"0,.	c #6B2B23",
"a,.	c #71332B",
"b,.	c #743A31",
"c,.	c #6E342B",
"d,.	c #692F26",
"e,.	c #682A25",
"f,.	c #73352F",
"g,.	c #793A33",
"h,.	c #6D2F27",
"i,.	c #6B2D22",
"j,.	c #74372A",
"k,.	c #783D31",
"l,.	c #7D4238",
"m,.	c #7F453C",
"n,.	c #814A41",
"o,.	c #854E45",
"p,.	c #86514A",
"q,.	c #83534B",
"r,.	c #7E544A",
"s,.	c #7D5047",
"t,.	c #804D47",
"u,.	c #7C4C47",
"v,.	c #805552",
"w,.	c #604D4E",
"x,.	c #A79EA0",
"y,.	c #B6B2B3",
"z,.	c #A89899",
"A,.	c #84524F",
"B,.	c #884D44",
"C,.	c #884E3E",
"D,.	c #864C3D",
"E,.	c #93554C",
"F,.	c #93544F",
"G,.	c #8B4F4B",
"H,.	c #884F4B",
"I,.	c #884E4B",
"J,.	c #834946",
"K,.	c #905652",
"L,.	c #723C3B",
"M,.	c #6E3736",
"N,.	c #814949",
"O,.	c #814A49",
"P,.	c #915958",
"Q,.	c #8E5551",
"R,.	c #905951",
"S,.	c #915B51",
"T,.	c #8F5950",
"U,.	c #935E57",
"V,.	c #905E57",
"W,.	c #8B5A55",
"X,.	c #915F5B",
"Y,.	c #935956",
"Z,.	c #8E615C",
"`,.	c #967677",
" '.	c #C4B9C0",
".'.	c #C8BCBE",
"+'.	c #9F807B",
"@'.	c #94675D",
"#'.	c #926258",
"$'.	c #8E5D53",
"%'.	c #8B5A50",
"&'.	c #87534A",
"*'.	c #824D45",
"='.	c #6B352E",
"-'.	c #70382F",
";'.	c #864C41",
">'.	c #8E554B",
",'.	c #854D44",
"''.	c #855246",
")'.	c #7A4A3E",
"!'.	c #78463A",
"~'.	c #7A473B",
"{'.	c #784639",
"]'.	c #744337",
"^'.	c #6E3E32",
"/'.	c #67382C",
"('.	c #613327",
"_'.	c #603328",
":'.	c #60342A",
"<'.	c #5F352C",
"['.	c #60362D",
"}'.	c #61362E",
"|'.	c #653730",
"1'.	c #5B2D26",
"2'.	c #5D3129",
"3'.	c #62342C",
"4'.	c #5E3128",
"5'.	c #67382F",
"6'.	c #6E3D34",
"7'.	c #6F3E34",
"8'.	c #703D34",
"9'.	c #754136",
"0'.	c #6F3A2E",
"a'.	c #754135",
"b'.	c #612A2C",
"c'.	c #65353B",
"d'.	c #AFADAF",
"e'.	c #AFB7B7",
"f'.	c #8B6D6C",
"g'.	c #7F504F",
"h'.	c #864E48",
"i'.	c #894E43",
"j'.	c #7C4945",
"k'.	c #73433F",
"l'.	c #602F30",
"m'.	c #582A2E",
"n'.	c #5A2C30",
"o'.	c #693534",
"p'.	c #672921",
"q'.	c #6D2F26",
"r'.	c #72362C",
"s'.	c #7B4138",
"t'.	c #733A31",
"u'.	c #642B22",
"v'.	c #682D27",
"w'.	c #7E413C",
"x'.	c #793D36",
"y'.	c #6C2E26",
"z'.	c #6F3026",
"A'.	c #6A2B23",
"B'.	c #713328",
"C'.	c #733B2E",
"D'.	c #7F463C",
"E'.	c #88534A",
"F'.	c #834E47",
"G'.	c #87544D",
"H'.	c #895750",
"I'.	c #83554C",
"J'.	c #7D5448",
"K'.	c #81564B",
"L'.	c #865751",
"M'.	c #805753",
"N'.	c #655557",
"O'.	c #B1A9AC",
"P'.	c #BCBABA",
"Q'.	c #A79898",
"R'.	c #8C5B58",
"S'.	c #864E41",
"T'.	c #915553",
"U'.	c #8B5250",
"V'.	c #8D5553",
"W'.	c #925958",
"X'.	c #8D5453",
"Y'.	c #7D4543",
"Z'.	c #844C4A",
"`'.	c #804846",
" ).	c #824945",
".).	c #804742",
"+).	c #905752",
"@).	c #915953",
"#).	c #915752",
"$).	c #864E45",
"%).	c #8A534C",
"&).	c #8D5751",
"*).	c #8E5B55",
"=).	c #8D5A56",
"-).	c #8F5D59",
";).	c #98645B",
">).	c #9D665C",
",).	c #8F6259",
"').	c #8B6A6A",
")).	c #A49096",
"!).	c #C6BBC2",
"~).	c #CCBEC0",
"{).	c #95665F",
"]).	c #93625A",
"^).	c #8D5A54",
"/).	c #8B5650",
"().	c #8B564F",
"_).	c #7A423D",
":).	c #733A33",
"<).	c #834840",
"[).	c #8E544D",
"}).	c #854F47",
"|).	c #88524A",
"1).	c #824F47",
"2).	c #804D43",
"3).	c #834D42",
"4).	c #814B40",
"5).	c #7E483E",
"6).	c #764237",
"7).	c #69362C",
"8).	c #68372D",
"9).	c #693C32",
"0).	c #70433A",
"a).	c #66382F",
"b).	c #5C2C24",
"c).	c #693931",
"d).	c #6A3A32",
"e).	c #6F3E37",
"f).	c #703F38",
"g).	c #703E36",
"h).	c #723F37",
"i).	c #76423B",
"j).	c #77423B",
"k).	c #6A352B",
"l).	c #6A342B",
"m).	c #703930",
"n).	c #65272B",
"o).	c #663136",
"p).	c #B8AFB3",
"q).	c #ADB2B2",
"r).	c #B29E9A",
"s).	c #8F6C6A",
"t).	c #895655",
"u).	c #90534F",
"v).	c #8C5049",
"w).	c #8E534C",
"x).	c #854D49",
"y).	c #773F3C",
"z).	c #7C4642",
"A).	c #713C39",
"B).	c #65312E",
"C).	c #612E2C",
"D).	c #6D3632",
"E).	c #773934",
"F).	c #7A3D37",
"G).	c #7E433D",
"H).	c #814841",
"I).	c #7C453F",
"J).	c #824744",
"K).	c #814542",
"L).	c #7F413E",
"M).	c #672723",
"N).	c #722F29",
"O).	c #75312B",
"P).	c #82453E",
"Q).	c #824C47",
"R).	c #84504C",
"S).	c #814E4B",
"T).	c #82534C",
"U).	c #85584D",
"V).	c #86564C",
"W).	c #814D48",
"X).	c #875652",
"Y).	c #815856",
"Z).	c #89767B",
"`).	c #BCB4B9",
" !.	c #B6B0B3",
".!.	c #845251",
"+!.	c #8B504C",
"@!.	c #875047",
"#!.	c #8F5353",
"$!.	c #8B514E",
"%!.	c #8E5450",
"&!.	c #925955",
"*!.	c #905653",
"=!.	c #854B47",
"-!.	c #7E4541",
";!.	c #864C45",
">!.	c #955A53",
",!.	c #925851",
"'!.	c #91564F",
")!.	c #8E544C",
"!!.	c #854C44",
"~!.	c #834A43",
"{!.	c #89514B",
"]!.	c #8D5853",
"^!.	c #8D5955",
"/!.	c #8E5A58",
"(!.	c #97635A",
"_!.	c #9C665A",
":!.	c #91645B",
"<!.	c #8A6968",
"[!.	c #A48F95",
"}!.	c #CDBEC1",
"|!.	c #A2807D",
"1!.	c #95655E",
"2!.	c #94625B",
"3!.	c #8C5650",
"4!.	c #7C443F",
"5!.	c #743A35",
"6!.	c #814640",
"7!.	c #8C524C",
"8!.	c #885049",
"9!.	c #88524B",
"0!.	c #854C43",
"a!.	c #814940",
"b!.	c #743D33",
"c!.	c #703A30",
"d!.	c #703B31",
"e!.	c #6F3D33",
"f!.	c #724137",
"g!.	c #77473E",
"h!.	c #69372F",
"i!.	c #6E3C33",
"j!.	c #6B382F",
"k!.	c #622F27",
"l!.	c #79453E",
"m!.	c #78433D",
"n!.	c #79433C",
"o!.	c #7C463F",
"p!.	c #7C443E",
"q!.	c #6F372F",
"r!.	c #6F3831",
"s!.	c #713930",
"t!.	c #834741",
"u!.	c #692A2E",
"v!.	c #6B353B",
"w!.	c #ADB1B2",
"x!.	c #AE9893",
"y!.	c #8E6966",
"z!.	c #8A5553",
"A!.	c #91534E",
"B!.	c #8E524C",
"C!.	c #8F524D",
"D!.	c #874C48",
"E!.	c #7B3F3C",
"F!.	c #814843",
"G!.	c #773F3B",
"H!.	c #6F3832",
"I!.	c #6B3631",
"J!.	c #723934",
"K!.	c #793B36",
"L!.	c #7D3F3B",
"M!.	c #7C3E39",
"N!.	c #7B3D38",
"O!.	c #80443F",
"P!.	c #864B45",
"Q!.	c #854C46",
"R!.	c #834A45",
"S!.	c #824542",
"T!.	c #81433F",
"U!.	c #6A2927",
"V!.	c #702E2A",
"W!.	c #75302D",
"X!.	c #76312D",
"Y!.	c #814742",
"Z!.	c #7E4641",
"`!.	c #814B46",
" ~.	c #824D4B",
".~.	c #7F4B48",
"+~.	c #85564D",
"@~.	c #87554D",
"#~.	c #865450",
"$~.	c #815756",
"%~.	c #927E84",
"&~.	c #BBB3B8",
"*~.	c #B8B0B4",
"=~.	c #AD999B",
"-~.	c #865352",
";~.	c #8C504D",
">~.	c #89504A",
",~.	c #8E5253",
"'~.	c #8D5151",
")~.	c #8C514C",
"!~.	c #8F5550",
"~~.	c #864C47",
"{~.	c #7E443F",
"]~.	c #9A5C51",
"^~.	c #95584D",
"/~.	c #915447",
"(~.	c #915548",
"_~.	c #8E5345",
":~.	c #8F544A",
"<~.	c #894E47",
"[~.	c #844944",
"}~.	c #884D49",
"|~.	c #8C514F",
"1~.	c #8B5351",
"2~.	c #8E5C53",
"3~.	c #956054",
"4~.	c #9C6D64",
"5~.	c #926D6B",
"6~.	c #A58C92",
"7~.	c #BBAFB7",
"8~.	c #CEC1C5",
"9~.	c #A17E7D",
"0~.	c #925E59",
"a~.	c #9A625E",
"b~.	c #9E6661",
"c~.	c #985F5B",
"d~.	c #8E534F",
"e~.	c #7C403D",
"f~.	c #793B39",
"g~.	c #7E413F",
"h~.	c #8C504E",
"i~.	c #905452",
"j~.	c #8F5653",
"k~.	c #824B47",
"l~.	c #844941",
"m~.	c #83463F",
"n~.	c #7C3F38",
"o~.	c #7E423A",
"p~.	c #7D4239",
"q~.	c #7B4139",
"r~.	c #7D463E",
"s~.	c #6C362E",
"t~.	c #7A443C",
"u~.	c #662F26",
"v~.	c #6D372E",
"w~.	c #79413B",
"x~.	c #804743",
"y~.	c #844B46",
"z~.	c #824845",
"A~.	c #7F4542",
"B~.	c #7F4541",
"C~.	c #733B33",
"D~.	c #733235",
"E~.	c #7D444B",
"F~.	c #B9ACB3",
"G~.	c #AFAEB0",
"H~.	c #9A7D79",
"I~.	c #885B56",
"J~.	c #8C4A47",
"K~.	c #8A4847",
"L~.	c #894948",
"M~.	c #8C4B4A",
"N~.	c #8B4747",
"O~.	c #8D4945",
"P~.	c #84423C",
"Q~.	c #8B4C43",
"R~.	c #82433D",
"S~.	c #864846",
"T~.	c #8B4D4B",
"U~.	c #783837",
"V~.	c #7A3A39",
"W~.	c #844645",
"X~.	c #874B49",
"Y~.	c #8A4E4C",
"Z~.	c #8B4F4D",
"`~.	c #834747",
" {.	c #7C3D3D",
".{.	c #814342",
"+{.	c #773434",
"@{.	c #7B3737",
"#{.	c #7C3636",
"${.	c #793333",
"%{.	c #7C3D3C",
"&{.	c #804544",
"*{.	c #824746",
"={.	c #824847",
"-{.	c #84494A",
";{.	c #7D4444",
">{.	c #7E4645",
",{.	c #834D49",
"'{.	c #804A48",
"){.	c #825254",
"!{.	c #A48D95",
"~{.	c #ACA2AD",
"{{.	c #C3B9C0",
"]{.	c #A99095",
"^{.	c #955D5C",
"/{.	c #8E4F4C",
"({.	c #8D5250",
"_{.	c #8B5152",
":{.	c #86494D",
"<{.	c #844748",
"[{.	c #80443D",
"}{.	c #7F423A",
"|{.	c #92554D",
"1{.	c #8E5249",
"2{.	c #905449",
"3{.	c #8D5447",
"4{.	c #8B5346",
"5{.	c #885046",
"6{.	c #874E47",
"7{.	c #874D49",
"8{.	c #864C49",
"9{.	c #8D5350",
"0{.	c #915C54",
"a{.	c #8E6563",
"b{.	c #A2868D",
"c{.	c #BDB3BB",
"d{.	c #C8C0C4",
"e{.	c #9C7B7B",
"f{.	c #905A56",
"g{.	c #975E5A",
"h{.	c #995F5B",
"i{.	c #925854",
"j{.	c #7B3D3B",
"k{.	c #773A37",
"l{.	c #733834",
"m{.	c #814643",
"n{.	c #8C5551",
"o{.	c #8F5852",
"p{.	c #854A42",
"q{.	c #83473E",
"r{.	c #7C4037",
"s{.	c #7E4138",
"t{.	c #81463D",
"u{.	c #784035",
"v{.	c #773E35",
"w{.	c #6E392E",
"x{.	c #673227",
"y{.	c #7D453D",
"z{.	c #81463F",
"A{.	c #834740",
"B{.	c #844741",
"C{.	c #804641",
"D{.	c #79403B",
"E{.	c #784039",
"F{.	c #7D413E",
"G{.	c #7A474B",
"H{.	c #BAB2B7",
"I{.	c #AFB1B4",
"J{.	c #957674",
"K{.	c #855851",
"L{.	c #874746",
"M{.	c #854445",
"N{.	c #844140",
"O{.	c #84403D",
"P{.	c #874643",
"Q{.	c #874644",
"R{.	c #8B4B48",
"S{.	c #884845",
"T{.	c #894946",
"U{.	c #8A4A47",
"V{.	c #8E5550",
"W{.	c #8F5451",
"X{.	c #7C3E3B",
"Y{.	c #7B3B3A",
"Z{.	c #834643",
"`{.	c #884C49",
" ].	c #894E4B",
".].	c #874D4A",
"+].	c #844845",
"@].	c #834543",
"#].	c #844744",
"$].	c #804240",
"%].	c #783937",
"&].	c #7B3C3A",
"*].	c #7A3B38",
"=].	c #814443",
"-].	c #854B49",
";].	c #804745",
">].	c #834948",
",].	c #895452",
"'].	c #8A5853",
")].	c #895851",
"!].	c #8C5A56",
"~].	c #8A5959",
"{].	c #A28A92",
"]].	c #B2AAB3",
"^].	c #C3BCC5",
"/].	c #A28D91",
"(].	c #96635C",
"_].	c #9A5F56",
":].	c #915653",
"<].	c #864B49",
"[].	c #834642",
"}].	c #874B47",
"|].	c #8D5448",
"1].	c #895446",
"2].	c #884F4A",
"3].	c #844A46",
"4].	c #894F4B",
"5].	c #7C4541",
"6].	c #8B605F",
"7].	c #9F8189",
"8].	c #BCB3BB",
"9].	c #C5C0C3",
"0].	c #997A79",
"a].	c #8E5753",
"b].	c #955B57",
"c].	c #965B57",
"d].	c #905450",
"e].	c #8A4E4A",
"f].	c #7C3D3B",
"g].	c #723733",
"h].	c #7E4440",
"i].	c #8B5550",
"j].	c #824D46",
"k].	c #905A54",
"l].	c #81463E",
"m].	c #7E4137",
"n].	c #84473E",
"o].	c #80443A",
"p].	c #7E4439",
"q].	c #773F34",
"r].	c #763F33",
"s].	c #683127",
"t].	c #83463D",
"u].	c #844740",
"v].	c #824741",
"w].	c #804540",
"x].	c #804642",
"y].	c #783E3A",
"z].	c #753D36",
"A].	c #7C4B4E",
"B].	c #BBB4B9",
"C].	c #AFB1B6",
"D].	c #917270",
"E].	c #82554D",
"F].	c #82493F",
"G].	c #834344",
"H].	c #823E3D",
"I].	c #823F3A",
"J].	c #854643",
"K].	c #874745",
"L].	c #8B4B49",
"M].	c #8A4A48",
"N].	c #894947",
"O].	c #8C504C",
"P].	c #915954",
"Q].	c #915753",
"R].	c #7E413E",
"S].	c #7C3D3A",
"T].	c #894E4A",
"U].	c #854945",
"V].	c #7A3D3A",
"W].	c #7D403D",
"X].	c #7C403C",
"Y].	c #8B514F",
"Z].	c #824846",
"`].	c #89504F",
" ^.	c #8E5D58",
".^.	c #8C5B5B",
"+^.	c #A0878F",
"@^.	c #B4ACB5",
"#^.	c #C2BCC5",
"$^.	c #9F8C8F",
"%^.	c #96655B",
"&^.	c #9E6359",
"*^.	c #8D5452",
"=^.	c #7D403B",
"-^.	c #894C49",
";^.	c #814541",
">^.	c #8D5348",
",^.	c #8B5247",
"'^.	c #895347",
")^.	c #8A534A",
"!^.	c #925952",
"~^.	c #915851",
"{^.	c #955C55",
"]^.	c #8E554E",
"^^.	c #733C38",
"/^.	c #844C44",
"(^.	c #7D4F4C",
"_^.	c #876B70",
":^.	c #ACA2AA",
"<^.	c #C3BDC1",
"[^.	c #8F7271",
"}^.	c #7E4842",
"|^.	c #874D46",
"1^.	c #894E48",
"2^.	c #884A45",
"3^.	c #864742",
"4^.	c #81443F",
"5^.	c #8C514B",
"6^.	c #90554F",
"7^.	c #88514A",
"8^.	c #7C423A",
"9^.	c #7E433A",
"0^.	c #864940",
"a^.	c #8C4E45",
"b^.	c #905148",
"c^.	c #8D4E43",
"d^.	c #87493D",
"e^.	c #82443A",
"f^.	c #85473E",
"g^.	c #83473D",
"h^.	c #80463B",
"i^.	c #844C40",
"j^.	c #7B4338",
"k^.	c #7C3F35",
"l^.	c #824742",
"m^.	c #844A45",
"n^.	c #7D433E",
"o^.	c #864D46",
"p^.	c #905B4F",
"q^.	c #985F53",
"r^.	c #906063",
"s^.	c #C0B9BE",
"t^.	c #B0B2B7",
"u^.	c #816161",
"v^.	c #7F4339",
"w^.	c #8B4D4C",
"x^.	c #8B4B4C",
"y^.	c #8E4B46",
"z^.	c #8D504D",
"A^.	c #8C4F4C",
"B^.	c #8A4D4A",
"C^.	c #905551",
"D^.	c #935B56",
"E^.	c #8A4D4B",
"F^.	c #824240",
"G^.	c #884E4A",
"H^.	c #894D4A",
"I^.	c #945754",
"J^.	c #955855",
"K^.	c #915451",
"L^.	c #925855",
"M^.	c #864F4C",
"N^.	c #7E4744",
"O^.	c #7F4845",
"P^.	c #814A47",
"Q^.	c #804946",
"R^.	c #7E4846",
"S^.	c #7B4645",
"T^.	c #82524A",
"U^.	c #7C4B47",
"V^.	c #8C747B",
"W^.	c #AFA8B1",
"X^.	c #B9B4BC",
"Y^.	c #9C888D",
"Z^.	c #8F5F54",
"`^.	c #975B51",
" /.	c #8C514E",
"./.	c #824A48",
"+/.	c #7A3F3A",
"@/.	c #733631",
"#/.	c #804340",
"$/.	c #783B38",
"%/.	c #7B3E3B",
"&/.	c #8D5349",
"*/.	c #6F3732",
"=/.	c #73372F",
"-/.	c #8C6F73",
";/.	c #B5ABB2",
">/.	c #C3BCC0",
",/.	c #917371",
"'/.	c #834D47",
")/.	c #8B4E49",
"!/.	c #90544F",
"~/.	c #8D514C",
"{/.	c #89524B",
"]/.	c #844E46",
"^/.	c #8C564E",
"//.	c #8A5048",
"(/.	c #884D45",
"_/.	c #894E45",
":/.	c #894A3E",
"</.	c #8A4B41",
"[/.	c #884A41",
"}/.	c #86493F",
"|/.	c #7F443A",
"1/.	c #864E42",
"2/.	c #83453D",
"3/.	c #84473D",
"4/.	c #854A44",
"5/.	c #854B48",
"6/.	c #834944",
"7/.	c #8A5149",
"8/.	c #8A5448",
"9/.	c #79403C",
"0/.	c #87575A",
"a/.	c #B2B4B8",
"b/.	c #826160",
"c/.	c #75433C",
"d/.	c #894944",
"e/.	c #884A4A",
"f/.	c #8A4947",
"g/.	c #8C4B46",
"h/.	c #8B4E4B",
"i/.	c #8F524F",
"j/.	c #8D514D",
"k/.	c #8A4F4B",
"l/.	c #89524D",
"m/.	c #905350",
"n/.	c #894A48",
"o/.	c #8A4E4B",
"p/.	c #864A47",
"q/.	c #8F5552",
"r/.	c #844D4A",
"s/.	c #854E4B",
"t/.	c #834C4B",
"u/.	c #814C4B",
"v/.	c #7E4C48",
"w/.	c #84544D",
"x/.	c #7C636A",
"y/.	c #ACA4AD",
"z/.	c #86564B",
"A/.	c #90554B",
"B/.	c #834A48",
"C/.	c #7D423E",
"D/.	c #793D38",
"E/.	c #8B5249",
"F/.	c #905750",
"G/.	c #854C45",
"H/.	c #6C342E",
"I/.	c #71352D",
"J/.	c #793F38",
"K/.	c #8F7276",
"L/.	c #BBB0B8",
"M/.	c #C3BCBF",
"N/.	c #927372",
"O/.	c #87514A",
"P/.	c #8D504B",
"Q/.	c #8B4F4A",
"R/.	c #8D564F",
"S/.	c #905248",
"T/.	c #85473D",
"U/.	c #8A4A3F",
"V/.	c #8F4F45",
"W/.	c #7F4338",
"X/.	c #91584C",
"Y/.	c #894A41",
"Z/.	c #81453C",
"`/.	c #8B514B",
" (.	c #844E42",
".(.	c #703833",
"+(.	c #805052",
"@(.	c #B2ACB0",
"#(.	c #826060",
"$(.	c #76443D",
"%(.	c #884843",
"&(.	c #864848",
"*(.	c #864949",
"=(.	c #915652",
"-(.	c #8F534F",
";(.	c #824B46",
">(.	c #955956",
",(.	c #824B48",
"'(.	c #87504D",
")(.	c #89524F",
"!(.	c #85504F",
"~(.	c #7F4E49",
"{(.	c #85554F",
"](.	c #8F5E59",
"^(.	c #8A5857",
"/(.	c #6E555C",
"((.	c #AAA2AB",
"_(.	c #B9B4BD",
":(.	c #BFABAE",
"<(.	c #7E4E44",
"[(.	c #834B49",
"}(.	c #7E423D",
"|(.	c #7F423F",
"                                                                                                                                                                                                                                                                                                                                                                                                ",
"                                                                                                                                                                                                                                                                                                                                                                                                ",
".  +  @  #  $  %  &  *  =  =  -  ;  >  ,  '  )  !  ~  {  ]  ^  /  (  _  :  <  [  }  |  1  2  3  4  5  6  7  8  9  0  a  b  c  d  e  f  g  h  i  j  k  l  m  n  o  p  q  r  s  t  u  v  w  x  v  y  z  A  B  C  D  E  F  G  H  I  J  K  L  J  M  N  O  P  Q  R  S  T  U  V  W  X  Y  Z  `   .  . .. +. @. #. $. %. &. *. =. -. ;. >. ;. ,. '. ). !. ~. {. ]. ^. /. (. _. :. <. [. }. |. 1. 2.    ",
"3. 4. 5. 6. 7. 8. 9. 0. a. b. c. d. e. f. g. h. i. j. k. l. m. m. n. o. p. q. r. s. t. u. v. w. x. 3. y. z. A. B. C. D. E. F. G. H. I. J. K. L. M. N. O. P. Q. R. S. T. U. V. W. X. Y. Z. `.  + .+ ++ @+ #+ $+ %+ &+ *+ =+ -+ ;+ >+ ,+ '+ )+ !+ ~+ {+ ]+ ^+ /+ (+ _+ :+ <+ [+ }+ |+ 1+ 2+ 3+ 4+ 5+ 6+ 7+ 8+ 9+ 0+ a+ b+ c+ d+ e+ f+ g+ h+ i+ j+ k+ l+ m+ n+ o+ p+ q+ r+ s+ t+ u+ v+ w+ x+ y+    ",
"z+ A+ B+ C+ D+ E+ F+ G+ H+ I+ J+ K+ L+ M+ N+ O+ P+ Q+ R+ S+ T+ U+ V+ W+ X+ Y+ Y+ Z+ `+  @ .@ +@ @@ #@ $@ %@ &@ *@ =@ -@ ;@ >@ ,@ '@ )@ !@ ~@ {@ ]@ ^@ /@ (@ _@ :@ <@ [@ }@ |@ 1@ 2@ 3@ 4@ 5@ 6@ 7@ 8@ 9@ 0@ a@ b@ c@ d@ e@ f@ g@ h@ i@ j@ k@ l@ m@ n@ o@ p@ q@ r@ s@ t@ u@ v@ w@ x@ y@ z@ A@ B@ C@ D@ E@ F@ G@ H@ I@ J@ K@ L@ M@ N@ O@ P@ Q@ R@ S@ T@ U@ V@ W@ X@ Y@ Z@ Z@ `@  # .# +# @# ##    ",
"$# $# %# &# *# =# -# ;# ># ,# '# )# !# ~# {# ]# ^# /# (# _# :# <# [# }# |# 1# [# 2# 3# 4# 5# 6# 7# 8# 9# 0# a# b# c# d# e# f# g# h# i# j# k# l# m# n# o# p# q# r# s# t# u# v# w# x# y# z# y# A# B# C# D# E# F# G# H# I# J# K# L# M# N# O# P# Q# Q# R# S# T# U# V# W# X# Y# Z# `#  $ .$ +$ @$ #$ $$ %$ &$ *$ =$ =$ -$ ;$ >$ ,$ '$ )$ ,$ !$ ~$ {$ ]$ ^$ /$ ($ _$ :$ <$ [$ }$ |$ 1$ 1$ 2$ 3$ 4$    ",
"5$ 6$ 7$ 8$ 9$ 0$ a$ b$ c$ c$ d$ e$ f$ g$ h$ i$ j$ k$ l$ m$ n$ o$ p$ q$ r$ s$ t$ u$ v$ w$ x$ y$ z$ A$ B$ C$ D$ E$ F$ G$ H$ I$ J$ K$ L$ M$ N$ O$ P$ Q$ R$ S$ T$ U$ V$ W$ X$ Y$ Z$ `$  %  % .% +% @% #% $% %% &% *% =% -% ;% >% ,% '% )% !% ~% {% ]% ^% /% (% _% :% <% [% }% |% 1% 2% 3% 4% 5% 6% 7% .@ 8% 9% 0% a% b% c% d% e% f% g% h% i% j% k% l% m% n% o% p% q% r% s% t% u% 9% v% o% w% x%    ",
"y% z% A% B% C% D% E% F% G% H% I% J% K% L% M% N% e$ O% P% Q% n$ R% q$ S% T% U% V% R% W% X% Y% Z% `%  & .& +& @& #& $& %& && *& =& -& ;& >& ,& E% F% '& )& !& ~& {& ]& ^& /& (& _& :& <& [& }& |& 1& 2& 3& 4& 5& 6& 7& 8& 9& 0& a& b& c& d& e& f& g& 2& h& i& j& k& l& m& n& o& p& q& r& s& t& u& v& w&  @ x& y& z& A& B& C& D& E& F& G& H& I& J& K& L& M& N& O& P& Q& R& S& T& U& Y+ V& W& X&    ",
"Y& Z& `&  * .* +* @* #* $* %* &* ** =* -* ;* %* >* ,* '* )* !* ~* {* ]* ^* T% /* (* _* :* <* [* }* |* 1* 2* 3* 4* 5* 6* 7* 8* 9* 0* a* b* c* d* e* f* g* h* i* j* k* l* m* n* o* p* q* r* s* t* u* v* w* x* y* z* h& A* B* C* D* E* F* G* H* I* J* K* L* M* `$ N* O* P* Q* R* S* T* U* `+ V* W* X* Y* Z* `* @#  = .= += @= #= $= %= &= *= == -= ;= >= ,= '= )= != ~= {= T+ ]= ^= /= (= _= :=    ",
"<= [= }= |= 1= 1= 2= 3= -* 4= 5= 6= 7= 8= 9= 0= a= b= c= ~* ^* d= e= f= g= h= i= j= k= l= m= f& n= o= F* p= ]% q= r= s= t= u= v= w= x= y= z= A= B= C= D= E= F= G= H= I= J= K= L= M= N= O= P= Q= R= P= S= T= U= V= W= X= F$ Y= Z= `=  - .- +- @- #- i& $- %- &- *- =- -- ;- >- ,- '- )- !- ~- {- ]- ^- /- (- _- :- <- [- }- |- 1- 2- 3- 4- 5- 6- 7- 8- 9- 0- a- b- c- d- e- f- g- h- i- j- k-    ",
"l- m- n- o- p- q- r- s- t- u- v- w- x- y- z- A- B- C- D- E- {* F- G- H- I- J- K- L- M- N- O- P- Q- R- S- T- U- V- W- S& X- Y- Z- `-  ; .; +; @; #; $; %; &; *; =; -; ;; >; ,; '; ); !; 2# ~; ~; {; ]; ^; /; (; _; :; <; [; }; |; 1; 2; 3; 4; 5; 2& i& 6; 7; 8; 9; 0; |$ a; b; c; d; e; f; g; h; i; j; k; l; m; n; o; p; q; r; s; t; u; v; d- w; x; j@ y; z; A; B; C; D; E; F; G; H; I; J; K;    ",
"L; M; N; O; P; Q; R; S; T; U; V; W; X; Y; Z; `;  > .> +> @> #> $> %> &> *> => -> -> ;> >> x* ,> '> )> !> ~> {> ]> ^> /> (> _> :> <> [> }> |> 1> 2> 3> 4> 5> 6> 7> 8> 9> 0> a> b> O- c> d> e> f> g> h> i> j> k> l> m> n> o> p> q> h& h& r> s> t> u> v> w> x> y> C* z> A> B> C> D> E> F> n. G> H> I> J> K> L> M> N> O> P@ P> R@ Q> R> S> T> U> V> W> X> Y> Z> g- `>  , ., +, @, #, $, %, &, *,    ",
"=, -, ;, >, ,, ', ), !, ~, {, ], ^, /, (, _, R; :, <, [,  > }, G$ |, 1, 2, 3, 4, 4, 5, 6, *- 7, 8, 9, 0, a, b, c, d, e, f, g, h, i, j, k, l, m, n, o, p, q, r, s, t, u, v, w, x, y, '; z, A, B, C, D, E, F, G, H, I, J, K, w# L, M, N, O, P, Q, R, S, T, U, P- V, W, X, Y, Z, `,  ' .' +' @' #' $' %' &' *' =' -' ;' ;' >' ,' '' )' !' ~' {' ]' ^' /' (' _' Y> :' E; <' [' }' |' 1' 2' 3' 4'    ",
"5' 6' 7' 8' 9' 0' a' b' c' d' e' O> f' g' h' i' j' k' l' m' m' n' o' p' q' r' s' t' u' v' w' x' y' z' w' A' B' C' D' E' F' G' H' I' J' K' L' M' N' O' P' Q' R' S' T' U' V' W' X' S' Y' Z' `'  ) .) Y' +) @) #) $) %) &) *) =) -) ;) >) ,) ') )) !) ~) {) ]) ^) /) () _) :) <) [) }) |) 1) 2) 3) 4) 5) 6) 7) 8) 9) 0) a) b) c) d) e) f) g) h) i) j) k) l) m) n) o) p) q) r) s) t) u) v) w) x)    ",
"y) z) A) B) C) D) E) F) G) H) H) I) J) K) L) M) N) O) ~, P) Q) R) S) Z; T) U) V) W) X) Y) Q- Z) `) &-  ! &- .! +! @! r% #! $! %! &! *! =! -! ;! >! ,! '! )! !! A% ~! {! ]! ^! ^! /! (! :# _! :! h> q' <! [! }! |! 1! 2! 3! 4! 5! 6! 7! 8! 9! 0! a! b! c! d! e! f! v* g! h! i! j! k! l! m! n! o! p! q! r! s! t! u! v! w! x! y! z! A! B! C! D! E! F! G! H! I! J! K! L! M! N! O! P! Q! R! S! X+    ",
"T! U! V! W! X! Y! Z! `!  ~ .~ +~ @~ #~ $~ %~ &~ *~ =~ -~ ;~ >~ ,~ '~ )~ !~ ~~ {~ ]~ ^~ /~ (~ _~ :~ <~ _~ [~ }~ |~ 1~ 2~ 3~ 4~ 5~ 6~ 7~ 8~ 9~ 0~ a~ b~ '! c~ d~ e~ f~ g~ O$ h~ i~ <! j~ (# k~ C% l~ @> G$ N# m~ n~ o~ f= p~ q~ r~ s~ t~ u~ v~ w~ x~ y~ z~ A~ B~ C~ D~ E~ F~ G~ H~ I~ J~ K~ L~ M~ N~ O~ P~ Q~ R~ S~ T~ U~ V~ W~ X~ Y~ Z~ `~ C!  { .{ +{ @{ #{ ${ %{ &{ c- *{ a- ={ -{ ;{ >{ ,{    ",
"|- '{ ){ !{ ~{ {{ ]{ ^{ /{ ({ _{ :{ <{ [{ }{ |{ 1{ 2{ 3{ 4{ 5{ 6{ 7{ 8{ 9{ 0{ a{ b{ c{ A' d{ <~ e{ f{ g{ h{ i{ j{ k{ l{ /- m{ n{ o{ p{ q{ r{ s{ t{ u{ v{ w{ 0$ x{ y{ z{ A{ B{ C{ D{ E{ F{ G{ H{ I{ J{ K{ L{ M{ N{ O{ P{ Q{ R{ !> S{ T{ U{ V{ W{ X{ Y{ %% Z{ `{  ] .] +] @] #] $] %] &] *] =] -] ;] >] ,] '] T~ )] !] ~] {] ]] ^] /] (] _] :] <] [] }] |] ;] 1] 2] 3] 4] 5] 6] 7] 8] 9] 0] a]    ",
"b] c] d] e] f] g] h] i] j] k] l] m] n] n] o] p] q] r] s] t] u] v] w] x] y] z] A] B] C] D] E] F] G] H] I] J] K] L] K] M] N] O] P] Q] R] S] T] U] V] W] X] Y] Z] `] `]  ^ .^ U] +^ @^ #^ $^ %^ $^ &^ *^ )% =^ -^ ;^ >^ ,^ '^ )^ !^ ~^ {^ ]^ ^^ /^ (^ :& 5, _^ :^ <^ [^ }^ |^ 1^ 2^ 3^ 4^ 5^ 6^ 7^ 8^ 9^ 0^ a^ b^ c^ d^ e^ f^ g^ h^ i^ j^ k^ l^ m^ n^ o^ p^ q^ r^ s^ t^ u^ v^ w^ x^ K+ y^ I+ z^    ",
"A^ B^ C^ D^ g] E^ F^ G^ H^ I^ J^ K^ L^ L^ M^ N^ O^ P^ Q^ R^ S^ T^ U^ V^ W^ X^ p; Y^ Z^ z) `^  / ./ +/ @/ #/ $/ %/ n' &/ */ =/ -/ ;/ >/ ,/ '/ )/ !/ ~/ {/ ]/ ^/ // (/ P% .^ _/ :/ </ [/ }/ |/ 1/ G* 2/ 3/ a, 7, 4/ 5/ 6/ 7/ 8/ 9/ 0/ a/ b/ c/ d/ e/ f/ g/ h/ i/ b' j/ k/ l/ m/ n/ o/ p/ q/ r/ s/ t/ u/ v/ w/ x/ y/ z/ A/ B/ C/ B/ D/ E/ F/ G/ H/ I/ J/ K/ L/ M/ N/ O/ P/ Q/ R/ S/ T/ U/ V/ W/    ",
"X/ Y/ Z/ `/  ( .( +( @( #( $( %( &( *( *( =( -( ;( >( ,( '( c^ )( !( ~( {( ]( ^( /( (( _( :( <( [( }( |( 1( 2( 3( 4( 5( 6( 7( 8( 9( 0( a( b( &; c( d( e( f( g( h( i( j( k( l( m( n( o( p( q( r( s( t( u( v( w( x( y( T, z( A( B( C( D( E( F( G( H( I( J( K( L( i. M( N( O( P( Q( R( S( T( U( V( W( X( Y( Z( `(  _ ._ +_ @_ #_ $_ %_ &_ *_ =_ -_ ;_ >_ ,_ '_ )_ !_ ~_ {_ X^ ]_ ^_ X, /_ (_ __    ",
":_ <_ [_ }_ |_ 1_ 2_ 3_ 4_ 5_ 6_ 7_ 8_ 9_ 0_ a_ b_ c_ d_ e_ f_ g_ h_ i_ j_ k_ l_ m_ Y# n_ o_ p_ q_ r_ s_ t_ u_ v_ w_ x_ y_ z_ A_ B_ C_ D_ E_ F_ G_ H_ I_ J_ K_ L_ M_ N_ O_ P_ Q_ R_ S_ T_ U_ V_ W_ X_ Y_ Z_ `_  : .: +: @: #: $: %: &: *: =: -: ;: >: ,: ': ): !: ~: {: ]: ^: /: (: _: :: <: [: }: |: 1: 2: 3: 4: 5: 6: 7: 8: 9: 0: a: b: c: d: e: f: g: h: i: j: k: l: m: n: o: p: q: q: r:    ",
"s: t: u: v: w: x: y: z: A: B: C: D: E: C: F: G: H: I: J: K: L: M: N: O: P: Q: R: S: T: U: V: W: X: Y: Z: `:  < .< +< @< #< $< %< &< *< =< -< ;< >< ,< '< )< !< ~< {< ]< ^< /< (< _< :< << [< }< |< 1< 2< 3< 4< 5< 6< 7< 8< 9< 0< a< b< c< d< e< f< g< h< i< j< k< l< m< n< o< p< q< r< s< t< u< v< w< x< y< z< A< B< C< D< E< F< G< H< I< J< K< L< M< N< O< P< Q< R< S< T< U< V< W< X< Y< Z<    ",
"`<  [ .[ +[ @[ #[ $[ %[ &[ *[ =[ -[ ;[ >[ ,[ '[ )[ ![ ~[ {[ ][ ^[ /[ ([ _[ :[ <[ [[ }[ |[ 1[ 2[ 3[ 4[ 5[ 6[ 7[ 8[ 9[ 0[ a[ b[ c[ d[ e[ f[ g[ h[ i[ j[ k[ l[ m[ m[ n[ o[ p[ m[ q[ r[ s[ t[ u[ v[ w[ x[ y[ z[ A[ m< B[ C[ D[ E[ F[ G[ H[ I[ J[ K[ L[ M[ N[ O[ P[ Q[ R[ S[ T[ U[ V[ W[ X[ Y[ Z[ `[  } .} +} @} #} $} %} &} *} =} -} ;} >} ,} '} )} !} ~} {} ]} ^} /} (} _} :} <} <} [} }} |} 1}    ",
"2} 3} 4} 5} 6} 7} 8} 9} 0} E< a} b} c} b} d} e} C< ,} f} g} h} i} j} k} l} m} n} o} p} q} r} s} t} u} v} w} x} y} z} A} B} C} D} E} F} G} H} I} J} K} L} M} N} O} P} Q} Q} R} S} T} U} V} W} X} Y} Z} `}  | .| +| @| #| $| %| &| *| =| -| ;| >| ,| '| )| !| ~| {| ]| ^| /| (| _| :| <| [| }| || 1| 2| 3| 4| 0} 5| 6| 7| 8| 9| 0| 7| a| b| c| d| e| f| g_ g| h| i| j| k| l| m| n| o| p| $| q|    ",
"r| s| t| u| v| w| x| y| z| a| A| 9| B| 9| C| D| e} E| F| G| H| I| J| K| L| M| N| O| P| Q| R| S| T| U| V| W| X| Y| Z| `|  1 .1 +1 @1 #1 $1 %1 &1 *1 =1 -1 ;1 >1 ,1 '1 )1 !1 ~1 {1 ]1 ^1 /1 (1 _1 :1 <1 [1 }1 |1 11 21 31 41 51 61 71 81 91 01 a1 b1 c1 d1 e1 f1 g1 h1 i1 j1 {. k1 l1 m1 n1 o1 p1 q1 r1 s1 t1 u1 v1 w1 x1 y1 z1 A1 B1 C1 5| D1 E1 F1 G1 H1 I1 J1 K1 L1 M1 N1 O1 P1 Q1 R1 S1 T1    ",
"U1 V1 W1 X1 Y1 Z1 `1  2 .2 +2 A1 @2 @2 #2 A1 $2 w1 ;[ %2 &2 *2 =2 -2 ;2 >2 ,2 '2 )2 !2 ~2 {2 ]2 ^2 /2 (2 _2 :2 <2 [2 }2 |2 12 22 32 42 52 62 72 82 92 02 a2 b2 c2 d2 e2 f2 g2 h2 i2 j2 k2 l2 m2 n2 o2 p2 q2 r2 s2 t2 u2 v2 w2 x2 y2 z2 A2 B2 C2 D2 E2 F2 G2 H2 I2 J2 K2 L2 M2 N2 O2 P2 Q2 R2 S2 T2 U2 V2 W2 X2 Y2 Z2 A1 #2 @2 @2 z1 y1 `2 >[  3 .3 +3 @3 #3 $3 %3 &3 *3 =3 -3 ;3 >3 ,3 '3 )3    ",
"!3 ~3 {3 ]3 ^3 /3 (3 _3 X2 :3 z1 @2 @2 #2 z1 A1 x1 <3 [3 }3 |3 13 23 33 43 53 63 73 83 93 03 a3 b3 c3 d3 e3 f3 g3 j- h3 i3 j3 k3 l3 L. m3 n3 o3 p3 q3 r3 s3 t3 u3 v3 w3 x3 y3 z3 A3 B3 C3 D3 E3 F3 G3 H3 I3 J3 K3 L3 M3 N3 O3 P3 Q3 R3 S3 T3 U3 V3 W3 X3 Y3 Z3 `3  4 .4 +4 @4 #4 $4 %4 &4 *4 =4 -4 ;4 >4 ,4 '4 )4 A1 #2 #2 @2 @2 #2 A1 B1 a} !4 A: ~4 {4 ]4 ^4 /4 (4 _4 :4 <4 [4 }4 |4 14 24    ",
"34 44 54 64 74 84 94 04 a4 )4 #2 #2 @2 #2 #2 #2 A1 b4 c4 =[ d4 e4 f4 g4 h4 i4 j4 k4 l4 m4 n4 o4 p4 q4 r4 s4 t4 u4 u4 v4 w4 x4 y4 z4 A4 B4 C4 D4 E4 F4 G4 H4 I4 J4 K4 L4 M4 N4 O4 P4 Q4 R4 S4 T4 U4 V4 W4 X4 Y4 Z4 `4  5 .5 +5 @5 #5 $5 %5 &5 *5 =5 -5 ;5 >5 ,5 '5 )5 !5 ~5 {5 ]5 ^5 /5 j4 (5 _5 :5 <5 [5 }5 |5 A1 #2 #2 @2 @2 #2 #2 A1 $2 15 *[ 25 35 45 55 o] 65 75 85 95 05 a5 b5 c5 N4 d5    ",
"e5 f5 g5 h5 i5 j5 k5 l5 m5 )4 n5 #2 @2 @2 @2 #2 z1 x1 o5 p5 q5 >4 r5 s5 t5 u5 v5 w5 x5 y5 z5 A5 B5 #; C5 (~ D5 M, >> E5 F5 G5 H5 I5 J5 K5 L5 M5 N5 O5 P5 Q5 R5 S5 T5 U5 V5 W5 X5 Y5 r> Z5 `5 #{  6 .6 +6 @6 #6 $6 %6 &6 *6 ^& =6 -6 ;6 >6 ,6 '6 )6 !6 ~6 {6 ]6 ^6 /6 (6 _6 :6 <6 o^ [6 }6 |6 16 26 36 46 56 )4 66 #2 @2 @2 @2 @2 #2 76 )4 86 96 06 a6 b6 c6 d6 e6 f6 g6 h6 i6 j6 k6 l6 m6 n6    ",
"o6 p6 q6 r6 s6 t6 u6 l5 a4 )4 n5 #2 @2 @2 @2 @2 #2 v6 w6 x6 y6 z6 A6 B6 C6 D6 E6 F6 G6 H6 I6 J6 K6 L6 M6 N6 h{ O6 Z$ P6 Q6 >) R6 S6 T6 U6 V6 W6 X6 Y6 Z6 `6  7 ~) .7 +7 @7 %-  % @% #7 $7 %7 &7 *7 =7 -7 ;7 >7 ,7 '7 )7 A$ !7 ~7 {7 ]7 ^7 /7 (7 _7 :7 <7 [7 }7 |7 17 27 37 47 57 67 77 87 97 07 a7 b7 c7 |5 n5 #2 #2 @2 @2 @2 @2 #2 #2 A1 d7 e7 f7 g7 h7 D6 i7 j7 k7 l7 m7 n7 o7 p7 q7 r7 s7    ",
"t7 u7 v7 w7 x7 y7 z7 A7 a4 )4 A1 #2 @2 @2 @2 @2 @2 z1 B| o5 B7 C7 D7 E7 F7 G7 H7 I7 J7 K7 L7 M7 N7 O7 P7 Q7 R7 S7 T7 U7 V7 W7 X7 Y7 T7 Z7 %- `7  8 .8 +8 @8 #8 $8 %8 &8 *8 =8 -8 &) ;8 >8 ,8 '8 )8 !8 ~8 {8 ]8 ^8 /8 (8 _8 :8 <8 [8 }8 |8 }8 18 v, 28 38 48 58 68 78 68 88 98 08 a8 b8 c8 d8 e8 f8 04 g8 )4 66 #2 @2 @2 @2 @2 @2 @2 #2 A1 A| h8 i8 j8 k8 l8 m8 n8 /{ o8 p8 q8 r8 s8 t8 u8 v8    ",
"w8 x8 y8 z8 A8 B8 C8 D8 a4 )4 #2 #2 @2 @2 @2 @2 @2 z1 v6 w6 7| E8 F8 G8 H8 I8 J8 K8 L8 M8 N8 O8 P8 Q8 R8 S8 T8 U8 V8 W8 X8 Y8 Z8 `8  9 Z$ .9 +9 @9  9 #9 $9 %9 &9 *9 =9 -9 ;9 >9 ,9 '9 O- )9 !9 ~9 {9 ]9 ^9 /9 (9 _9 :9 <9 [9 }9 |9 19 29 39 49 59 69 .! 79 89 99 09 a9 b9 c9 d9 e9 f9 g9 h9 i9 j9 k9 l9 )4 #2 #2 @2 @2 @2 @2 @2 @2 #2 z1 m9 n9 o9 p9 q9 r9 s9 t9 /{ u9 v9 w9 x9 y9 z9 A9 B9    ",
"C9 D9 E9 F9 G9 H9 I9 J9 a4 )4 66 #2 @2 @2 @2 @2 @2 K9 L9 M9 `2 X2 D8 N9 O9 P9 Q9 R9 S9 T9 U9 V9 W9 X9 Y9 &9 Z9 y# `9 U7  0 .0 +0 @0 #0 #7 $0 %0 &0 *0 =0 -0 ;0 >0 ,0 '0 )0 !0 ~0 !0 /) {0 ]0 ^0 /0 (0 _0 {8 :0 <0 [0 }0 |0 ]* 10 20 30 40 50 59 m= 60 70 @> 80 90 00 a0 b0 c0 d0 e0 f0 g0 07 h0 C8 i0 |5 )4 #2 #2 @2 @2 @2 @2 @2 @2 #2 A1 c} j0 k0 l0 m0 n0 o0 p0 q0 r0 s0 t0 u0 v0 `7 w0 x0    ",
"y0 z0 A0 B0 C0 D0 I9 E0 m5 F0 n5 #2 @2 @2 @2 @2 @2 @2 z1 v6 A1 G0 H0 I0 E7 J0 K0 L0 M0 N0 `/ O0 P0 Q0 R0 S0 T0 /) U0 V0 W0 X0 Y0 Z0 `0  a .a +a @a #a $a %a &a *a =a S8 -a ;a >a 9! ,a 'a )a !a ~a {a ]a ^a /a (a _a :a <a }~ i= V% [a }a |a 1a 2a 3a 4a 5a 6a 7a 8a h' ~' 9a 0a aa ba ca da ea b7 i0 |5 A1 #2 @2 @2 @2 @2 @2 @2 #2 #2 A1 fa ga ha ia 74 ja ka la ma na oa pa qa ra sa ta ua    ",
"va wa xa ya za Aa Ba 04 }5 F0 66 #2 @2 @2 @2 @2 @2 @2 z1 Ca Ca F0 g8 D8 k5 Da Ea Fa Ga Ha Ia Ja Ka La Ma Na Oa `9 Pa Qa Ra Sa Ta Ta Ua Va 8& Wa Xa Ya Za `a  b  b .b +b @b #b $b %b &b *b =b -b ;b >b ,b 'b )b !b ~b {b ]b ^b /b (b _b :b t$ <b /! [b }b |b 1b 2b 3b 4b _( 5b 6b e0 7b 8b 9b 0b [5 g8 F0 A1 #2 @2 @2 @2 @2 @2 @2 #2 #2 A1 fa >[ ab bb cb db eb fb gb hb ib jb kb lb mb nb ob    ",
"pb qb rb q6 sb tb <5 ub vb |5 n5 #2 @2 @2 @2 @2 @2 @2 K9 z1 A1 )4 |5 wb D7 xb yb zb Ab Bb Cb Db Eb Fb Gb Hb Ib V' Jb Kb Lb Mb Nb Ob Pb Qb Rb Sb Tb Ub Vb Wb Xb Yb Zb Zb `b  c .c V8 +c @c #c $c %c &c *c =c -c +5 ;c >c ,c _a 'c u$ U% u$ A% )c !c ~c {c ]c ^c /c (c _c :c <c [c }c |c 1c B6 2c 04 56 F0 A1 #2 @2 @2 @2 @2 @2 @2 #2 #2 A1 3c *} 4c 5c 6c db 7c fb 8c 9c 0c ac kb bc cc dc ec    ",
"fc gc hc ic z8 jc kc z7 vb |5 A1 #2 #2 @2 @2 @2 @2 @2 @2 z1 A1 A1 F0 m5 lc mc nc oc pc qc [{ rc sc tc uc vc wc &b xc g{ yc zc Ac Bc Cc Dc Ec Fc Gc Hc Ic Jc Kc Lc Mc Nc Oc Pc Qc Rc Sc Tc Uc Vc Wc Xc Yc Zc `c  d .d +d @d |, 2, 10 o$ #d $d o$ %d &d *d =d -d ;d >d ,d 'd )d !d ~d {d ]d ^d /d (d l9 )4 #2 #2 @2 @2 @2 @2 @2 @2 @2 #2 A1 7| _d :d <d [d }d E6 |d 1d 2d 3d 4d 5d 6d 7d 8d 9d    ",
"0d ad bd cd F9 dd xb ed wb 56 )4 #2 #2 @2 @2 @2 @2 @2 @2 #2 z1 A1 )4 a4 (d C8 fd gd hd id j7 jd .~ kd pa ld md nd od pd qd rd #- V= sd 3; td ud vd wd xd yd zd 9/ 9/ Ad Bd Cd zd Dd Ed Fd Gd Hd J. Id Jd Kd Ld Md Nd Od Pd Qd Rd Sd Td ^/ Ud Vd :8 Wd Xd Yd Zd `d  e .e +e @e #e $e %e &e *e N9 =e G0 )4 #2 #2 @2 @2 @2 @2 @2 @2 #2 #2 A1 d7 -e ;e >e ,e %e 'e )e !e ~e {e ]e ^e /e (e }8 Ed    ",
"_e :e <e [e Fa }e |e 1e k9 g8 F0 n5 #2 @2 @2 @2 @2 @2 @2 @2 z1 z1 A1 Y2 2e ub mc 3e 4e 5e 6e 7e 8e 9e M) 0e ae be ce de ee fe ge he ie B$ A$ je ke le me 6; ne oe oe $- pe pe qe re se te ue ve we xe ye ze Ae Be Ce De w& Ee Fe Ge He Ie Je Ke i( Le Me Ne Oe Pe Qe Re Se Te Ue Ve We Xe Ye Ze i0 G0 )4 #2 @2 @2 @2 @2 @2 @2 @2 #2 #2 A1 d7 `e  f .f +f @f #f $f %f &f *f =f -f ;f >f ,f 'f    ",
")f !f ~f [6 {f ]f ^f /f [5 }5 |5 A1 #2 #2 @2 @2 @2 @2 @2 @2 z1 #2 A1 F0 m5 04 (f _f :f I^ <f <e [f }f |f 1f ,$ 2f 3f 4f 5f <~ 6f 7f 8f 9f 0f Z7 af bf cf df ef ff gf hf if jf kf U0 lf mf nf 8< of pf qf rf Q! sf =d tf uf vf wf :/ xf yf zf Af p( Bf Cf Df Ef Ff Gf Hf If Jf Kf Lf Mf Nf *e Of H0 |5 n5 #2 #2 @2 @2 @2 @2 @2 @2 #2 z1 )4 Pf `e Qf Rf Sf Tf Uf Vf Wf Xf Yf Zf wc `f Oa Cc  g    ",
".g +g @g #g $g %g &g *g =g =e '4 )4 #2 #2 @2 @2 @2 @2 @2 @2 #2 #2 #2 )4 '4 =e =g -g ;g >g L0 ,g 'g )g !g ~g ld {g ]g ^g /g (g >8 T- _g V, rd sd :g <g [g bf bf }g vd |g 1g 2g 3g 4g 5g 6g 7g 8g 9g 0g ag bg cg dg o- eg fg gg hg e= F- s$ ig jg jg kg lg mg `d ng og pg qg rg sg tg ug -4 vg wg H0 G0 n5 #2 @2 @2 @2 @2 @2 @2 @2 #2 z1 y1 xg yg zg Ag =4 Bg Cg Dg Eg Fg Gg 0e Hg Ig Jg Kg :%    ",
"Lg Mg Ng Og Pg Qg Rg Sg Tg J9 m5 F0 A1 #2 @2 @2 @2 @2 @2 @2 @2 #2 #2 A1 G0 H0 04 Ug Vg Wg Xg Yg Zg `g  h .h +h @h #h $h %h r( &h m= 9> *h =h -h ;h >h ,h <~ [& 'h rd &- )h !h z' ~h {h ]h ^h /h (h _h :h <h [h }h |h 1h 2h #h D, 3h 4h 5h <# 6h 7h !; 8h 9h 0h ah <( bh ch dh eh fh gh hh ih jh kh Y2 A1 #2 @2 @2 @2 @2 @2 @2 @2 #2 z1 $2 lh mh nh oh ph qh rh sh th uh vh wh xh yh Z> zh Ah    ",
"Bh Ch Dh Eh Fh Gh Hh Ih Jh Kh Lh Y2 A1 #2 @2 @2 @2 @2 @2 @2 @2 @2 #2 z1 )4 Y2 Mh Nh vg Oh Ph Qh Rh Sh Th Uh Vh Wh Xh Yh Zh `h  i .i +i @i #i $i %i &i *i =i -i ;i >i ,i 'i )i B; !i ~i {i ]i ^i /i (i _i :i <i [i }i 3) |i 1i 2i 3i 4i 5i 6i 7i 8i 9i 0i ai bi ci di ei fi gi hi ii ji ki li mi ni $2 #2 #2 @2 @2 @2 @2 @2 @2 @2 #2 A1 $2 -[ oi 0: pi qi ri si ti ui vi wi xi yi zi Ai Bi Ci    ",
"Di Ei Fi Gi Hi Ii Ji Ki Li Mi Ni Oi y1 z1 #2 @2 @2 @2 @2 @2 @2 @2 #2 z1 A1 $2 Pi Qi Ri Si Ti Ui Vi Wi Xi Yi Zi `i  j .j +j @j #j $j %j &j *j =j -j ;j >j ,j 'j )j !j ~j {j ]j ^j /j (j _j :j <j [j }j |j 1j 2j 3j 4j 5j 6j 7j 8j 9j 0j aj bj cj I_ dj ej fj gj hj ij jj kj W1 lj mj nj 6_ oj pj qj $2 z1 #2 @2 @2 @2 @2 @2 @2 #2 z1 v6 9| ;[ rj *2 sj tj uj vj wj xj yj zj Aj Bj Cj Dj Ej Fj    ",
"Gj Hj Ij Jj Kj Lj Mj Nj Oj Pj =[ Pf 0| y1 z1 #2 @2 @2 @2 @2 @2 @2 K9 z1 y1 Qj c} Rj Sj Tj Uj Vj Wj Xj Yj Zj `j  k .k +k @k #k $k %k &k *k =k -k ;k >k ,k 'k )k !k ~k {k ]k ^k /k (k _k :k <k [k }k |k 1k 2k 3k 4k 5k 6k 7k 8k 9k 0k ak bk ck dk ek fk gk hk ik jk kk lk mk nk ok pk qk rk sk tk A| M9 v6 z1 @2 @2 @2 @2 @2 @2 z1 v6 w6 uk vk wk xk yk zk Ak Bk Ck Dk Ek Fk Gk Hk Ik Jk Kk Ik    ",
"Lk Mk Nk Ok Pk Qk Rk Sk Tk Uk Vk [3 o5 Wk v6 z1 @2 @2 @2 @2 @2 @2 z1 z1 y1 w6 Xk Yk >} Zk `k  l .l +l @l #l $l %l &l *l =l -l ;l >l ,l 'l 'l )l !l ~l {l ]l ^l /l (l _l :l <l [l }l |l 1l 2l 3l 4l 5l 6l 7l 8l 9l 0l al bl cl dl el fl gl hl il jl kl ll ml nl nl ol pl ql rl sl tl ul vl wl xl yl w6 y1 z1 #2 @2 @2 @2 @2 @2 z1 zl Al Bl Cl Zk Dl El Fl Gl Hl Il Jl Kl Ll Ml Nl Ol Pl Ql Rl    ",
"Sl Tl Ul Vl Wl Xl Yl Zl `l  m .m +m x6 w6 B| z1 K9 @2 @2 @2 @2 @2 @2 z1 v6 @m m9 #m $m %m &m *m =m -m ;m >m ,m 'm )m !m ~m {m ]m ^m /m (m _m :m <m [m }m |m Nl 1m 2m Ml 3m 4m 5m 6m 7m n[ 8m 9m 0m am bm cm dm em fm gm hm im jm km lm mm nm om pm qm rm sm tm nl um vm wm xm ym zm Am Bm Cm Dm 7| 9| v6 z1 @2 @2 @2 @2 @2 z1 z1 B| Em Fm Gm Hm Im Jm Km Lm Mm Nm Om Pm Qm Rm Sm Tm Um Vm Wm    ",
"Xm Ym Zm `m  n .n +n @n #n $n %n &n *n C1 b4 z1 z1 @2 @2 @2 @2 @2 @2 z1 Ca =n c} ;[ -n ;n >n ,n 'n )n !n ~n {n ]n ^n /n (n _n :n M[ <n [n }n |n 4+ 1n 2n 3n 4n 5n 6n 7n 8n 9n 0n an bn cn dn en fn gn hn in jn kn ln mn nn on pn 3  qn rn sn tn un vn wn xn ;< yn zn An Bn Cn Dn En Fn Gn Hn .2 $2 z1 #2 @2 @2 @2 @2 @2 @2 @2 z1 A1 Z2 In Jn Kn Ln Mn Nn On Pn Qn Rn Sn Tn Un Vn Wn Xn Yn Zn    ",
"`n  o .o +o @o #o $o %o &o *o =o -o ;o >o ,o z1 #2 @2 @2 @2 @2 @2 @2 @2 K9 A1 9| <3 D: 'o )o !o ~o {o ]o ^o /o (o _o :o <o [o }o |o 1o 2o 3o 4o 5o 6o 7o 8o 9o 0o ao bo co do eo fo X~ go ho io jo ko lo mo no oo po qo ro so to uo vo wo xo yo zo Ao Bo Co Do Eo Fo Go Ho Io Jo Ko Lo `1 Jn Pi )4 76 #2 @2 @2 @2 @2 @2 @2 @2 #2 A1 :3 Mo _3 No Oo S2 Po Qo Ro So To Uo Vo Wo 1) Xo Yo Zo `o    ",
" p .p +p @p #p $p %p &p *p =p -p ;p >p Pi ,p A1 @2 @2 @2 @2 @2 @2 @2 @2 @2 #2 y1 qj 'p )p !p ~p {p ]p ^p /p (p _p :p <p [p }p |p 1p 2p 3p 4p 5p 6p 7p 8p f' 9p 0p ap bp cp 8e dp ep fp gp hp ip jp kp lp mp np op pp qp rp sp tp Ia up vp wp xp yp zp Ap Bp Cp Dp Ep Fp Gp Hp Ip Jp Kp Lp Mp Np )4 #2 #2 @2 @2 @2 @2 @2 @2 @2 #2 A1 :3 Mh Nh Op Pp Qp Rp Sp Tp Up Vp Wp Xp Yp Zp `p  q .q +q    ",
"@q #q $q %q &q *q =q -q ;q >q ,q 'q l5 a4 F0 A1 #2 #2 @2 @2 @2 @2 @2 @2 @2 @2 #2 66 )4 56 A7 )q !q ~q {q ]q ^q /q (q _q ij :q <q [q }q |q 1q ud 2q 3q 4q 5q 6q 7q 8q 9q 0q aq bq cq dq eq fq gq Ab hq iq jq kq lq mq nq oq pq qq rq sq tq uq vq wq xq yq zq Aq Bq Cq Dq Eq Fq Gq Hq Iq Jq (d G0 A1 #2 #2 @2 @2 @2 @2 @2 @2 #2 #2 )4 |5 i0 E0 Kq Lq Mq Nq Oq Pq Qq Rq Sq Tq Uq _; Vq Wq Xq Yq    ",
"Zq `q  r .r +r @r #r $r O^ %r &r *r =r m5 G0 )4 #2 #2 @2 @2 @2 @2 @2 @2 @2 @2 #2 #2 -r |5 ;r >r ,r 'r h4 )r !r #4 ~r {r ]r ^r /r (r _r :r <r [r L- }r |r 1r 2r 3r 4r 5r 6r 7r 8r 9r 0r ar br ;q cr dr er fr gr hr ir jr kr lr mr nr or pr qr rr sr tr ur vr wr xr yr zr Ar Br Cr Dr 35 Er Fr G0 A1 #2 @2 @2 @2 @2 @2 @2 @2 #2 #2 )4 |5 wb D7 Gr Hr w7 id Ir x5 Jr Kr Lr Mr Nr Or Pr q' Qr <!    ",
"Rr P8 Sr Tr Ur Vr Wr Xr Yr Zr `r  s .s }5 a4 F0 A1 #2 @2 @2 @2 @2 @2 @2 @2 @2 #2 #2 66 F0 (d C8 <5 +s @s #s $s %s &s *s =s -s ;s >s ,s 's )s !s ~s {s ]s ^s /s (s _s :s <s [s }s |s 1s 2s 3s +s &g 4s D0 ^f 5s 6s w7 7s 8s 9s 0s as bs cs ds es fs gs hs is js ks ls ms ns os ps qs rs ss ts :3 A1 #2 @2 @2 @2 @2 @2 @2 @2 #2 #2 )4 l9 wb A6 e8 jc us vs ws xs ys zs As Y; Bs Cs be Ds Es Fs    ",
"Gs Hs Is Js Ks Ls Ms sh Ns Os Ps Qs Rs Ss Ts Y2 )4 76 #2 @2 @2 @2 @2 @2 @2 @2 #2 #2 )4 Y2 Fr Us Vs f4 -( fh Ws Xs Ys Zs `s  t .t +t @t [^ #t f( $t %t &t *t =t -t ;t >t ,t 't )t !t ~t 26 y7 {t )q ]t )q ^t /t (t _t :t <t [t }t |t 1t 2t 3t 4t 5t 6t 7t 8t 9t 0t at bt ct dt et ft gt Ze H0 F0 66 #2 @2 @2 @2 @2 @2 @2 @2 #2 #2 )4 g8 04 j9 ht it jt kt lt mt nt ot g' pt qt rt F] F{ st tt    ",
"ut vt wt xt yt zt At Bt Ct Dt Et Ft rs Gt Kh ni Ht A1 #2 @2 @2 @2 @2 @2 @2 @2 @2 #2 A1 :3 It Jt Kt Lt &( Mt Nt Ot Pt Qt Rt St Tt Ut Vt Wt Xt Yt Zt `t }f  u .u +u @u #u (5 $u %u &u <5 *u ed I0 l5 =u Nh =r N9 j9 -u |e ;u >u ,u 'u )u !u ~u {u ]u ^u /u J) (u _u :u <u [u }u |u 1u Vs 2u Mh F0 66 #2 @2 @2 @2 @2 @2 @2 @2 #2 66 )4 g8 3u 4u 5u 6u 7u 8u 9u 0u au bu cu du eu fu gu f~ hu iu    ",
"ju ku lu mu nu ou pu qu ru su y/ tu uu vu wu xu '4 )4 z1 #2 @2 @2 @2 @2 @2 @2 @2 #2 A1 )4 yu zu Au Bu Cu Du Eu Fu #p Gu Hu Iu Ju Ku Lu Mu Nu Ou Pu Qu Ru Su Tu Uu Vu Wu Xu ^f xb f8 [5 k9 H0 l9 '4 Mh Mo Mh H0 D8 3u f8 a7 Yu Zu `u  v .v +v @v #v $v %v &v *v =v -v ;v >v ,v 'v )v z7 04 g8 F0 66 #2 @2 @2 @2 @2 @2 @2 @2 #2 n5 F0 g8 [5 !v ~v {v ]v ^v /v (v _v :v Xp <v 9= $h _% p~ [v }v    ",
"|v 1v 2v 3v 4v 5v 6v 7v 8v 9v 0v av bv cv Jh zu ni Ht A1 #2 @2 @2 @2 @2 @2 @2 @2 #2 z1 )4 Y2 dv _3 ev fv gv hv iv b^ jv kv lv mv nv ov pv qv rv sv tv uv vv wv xv yv zv ^f xb 1e E0 Av l9 F0 n5 A1 A1 A1 n5 )4 |5 g8 wb Bv Kq Cv Dv Ev Fv Gv Hv Iv Jv Kv Lv Mv @4 Nv Ov Pv Qv Rv Sv u6 [5 g8 )4 66 #2 @2 @2 @2 @2 @2 @2 @2 #2 66 Tv g8 Uv Vv Wv Xv Yv Zv `v  w .w +w @w #w $w 10 ,; %w X% L=    ",
"&w *w Be =w l) -w ;w >w ,w 'w )w !w ~w {w ]w ^w /w Y2 A1 #2 @2 @2 @2 @2 @2 @2 @2 @2 #2 A1 $2 ni zu (w _w :w <w [w }w |w 1w 2w 3w 4w 5w 6w 7w 8w 9w K) 0w aw bw L0 cw dw |e f8 k9 g8 F0 -r 66 #2 #2 #2 #2 #2 #2 n5 )4 |5 c7 ew fw gw hw iw jw kw lw mw nw ow pw qw rw sw tw uw vw ww xw D8 l9 )4 #2 #2 @2 @2 @2 @2 @2 @2 @2 #2 n5 F0 Av b7 yw zw Aw S9 Bw Cw Dw Ew Fw Gw Hw Iw Jw Kw Lw Mw U-    ",
"Nw Ow Pw g- Qw Rw Sw Tw Uw Vw Ww Nt Xw Yw Zw nh `w Y2 y1 z1 #2 @2 @2 @2 @2 @2 @2 @2 #2 z1 )4 B1  x .x +x qs @x #x $x %x &x *x =x -x ;x >x ,x 'x )x !x ~x {x ]x ^x /x (x 94 D8 g8 )4 66 #2 #2 @2 @2 @2 @2 @2 #2 #2 66 )4 |5 }5 ew _x :x <x [x }x |x 1x 2x 3x 4x 5x 6x 7x 8x 9x 0x ax bx Fr G0 A1 #2 #2 @2 @2 @2 @2 @2 @2 @2 #2 n5 |5 }5 Op Gr cx dx ex e6 Z/ fx gx hx ix jx kx lx mx nx ox px    ",
"qx rx -{ ]= sx tx ux vx wx xx yx zx Ax Bx uu Cx Dx It Y2 A1 76 @2 @2 @2 @2 @2 @2 @2 @2 #2 A1 $2 Pi Ex Fx Gx Hx Ix Jx Kx Lx Mx Nx Ox Px Qx Rx ys Sx Tx Ux Vx Wx Xx Yx 0b lc m5 F0 #2 #2 @2 @2 @2 @2 @2 @2 @2 @2 @2 #2 #2 )4 |5 }5 ub Zx `x  y .y +y @y #y $y %y &y *y =y -y ;y >y ,y Us 2e :3 A1 #2 @2 @2 @2 @2 @2 @2 @2 #2 #2 n5 |5 wb /d 'y )y D6 !y ~y {y ]y gx ^y /y (y _y :y <y [y }y |y    ",
"@! 1y 2y ]= 3y 4y 5y 6y 7y 8y 9y 0y ay by cy dy wu ey Np Z2 z1 #2 @2 @2 @2 @2 @2 @2 @2 #2 z1 y1 Np  x fy gy hy iy jy ky ly my ny oy py qy ry sy ty #r uy vy ca +s r5 C8 i0 |5 n5 #2 @2 @2 @2 @2 @2 @2 @2 @2 @2 @2 @2 #2 #2 )4 56 A7 wy xy yy 45 zy Ay By Cy Dy Ey Fy Gy Hy Iy Jy Ky wg Mh :3 n5 #2 @2 @2 @2 @2 @2 @2 @2 #2 #2 -r |5 (d 94 Ly My Ny Oy Py Qy Ry Sy Ty Uy Vy Wy Xy Yy Zy tf g@    ",
"h* Q# )b `y  z h; .z +z @z V^ #z $z %z &z *z =z l0 Ss /w $2 A1 #2 @2 @2 @2 @2 @2 @2 @2 @2 #2 A1 F0 ni zu Au Ih -z E/ ;z >z ,z 'z )z !z ~z {z ]z ^z mt /z (z _z :z ea ub m5 F0 66 #2 @2 @2 @2 @2 @2 @2 @2 @2 @2 @2 @2 @2 #2 66 |5 }5 ub <z [z }z |z 1z 2z 3z 4z 5z 6z 7z 8z 9z 0z az bz H0 :3 n5 #2 @2 @2 @2 @2 @2 @2 @2 #2 66 )4 g8 2u cz ~t g0 L0 dz ez fz gz hz iz jz kz &^ lz mz nz oz d{    ",
"&# pz qz rz sz tz uz vz wz xz yz zz $p Az Bz Cz bb Dz `w '4 )4 z1 #2 @2 @2 @2 @2 @2 @2 @2 #2 z1 )4 Y2 ey Ez Fz Gz iy Hz Iz Jz Kz Lz Mz Nz Oz Pz Qz Rz Sz I^ Tz 'y I9 A7 G0 A1 #2 @2 @2 @2 @2 @2 @2 @2 @2 @2 @2 @2 @2 @2 @2 #2 n5 |5 46 Uz Vz yb Wz I^ Xz Yz Zz `z  A .A +A @A #A Au =u Mo )4 76 #2 @2 @2 @2 @2 @2 @2 @2 #2 n5 F0 m5 2u E7 $A %A &A *A =A fz -A ;A >A ,A 'A )A !A S' ~A {A ]A    ",
"^A /A (A _A :A <A [A }A |A 1A 2A 3A 4A 5A 6A 7A 8A 9A 0A It $2 A1 #2 @2 @2 @2 @2 @2 @2 @2 @2 #2 A1 :3 ni zu Kt aA bA cA dA eA fA gA hA xs iA jA kA lA mA nA oA /f [5 m5 F0 #2 #2 @2 @2 @2 @2 @2 @2 @2 @2 @2 @2 @2 @2 @2 @2 @2 #2 )4 g8 ;r pA 26 qA rA sA tA uA vA wA xA yA zA AA Dz ,4 '4 )4 #2 #2 @2 @2 @2 @2 @2 @2 @2 #2 n5 |5 H0 =g BA CA J8 DA EA FA GA HA IA JA KA LA MA NA OA PA W' QA    ",
"RA SA TA UA VA WA XA YA ZA `A  B .B +B @B #B $B Gx %B &B *B B1 A1 z1 #2 @2 @2 @2 @2 @2 @2 @2 @2 z1 A1 =B .2 -B ;B >B ,B 'B )B !B ~B {B ]B ^B /B (B _B :B <B [B Dx X2 $2 A1 #2 @2 @2 @2 @2 @2 @2 @2 @2 @2 @2 @2 @2 @2 @2 @2 @2 #2 A1 :3 '4 a4 }B |B 1B 2B 3B 2B 4B 5B K: 6B 7B 8B 9B 0B $2 A1 z1 z1 @2 @2 @2 @2 @2 @2 @2 #2 A1 $2 ni aB Ss bB Qs cB dB zx eB fB gB hB iB jB kB lB mB nB oB pB    ",
"qB rB sB tB :< uB vB wB xB yB zB AB BB CB DB EB FB =o Mi GB HB y1 A1 #2 @2 @2 @2 @2 @2 @2 @2 @2 #2 z1 y1 HB IB Mi JB KB LB MB NB OB PB QB RB SB TB UB VB WB XB YB 3c B1 A1 z1 @2 @2 @2 @2 @2 @2 @2 @2 @2 @2 @2 @2 @2 @2 @2 @2 #2 z1 y1 HB w1 -o 7_ 25 ZB `B  C .C +C @C #C $C %C &C *B x1 *C z1 K9 @2 @2 @2 @2 @2 @2 @2 z1 y1 B1 GB =C -C ;C >C ,C 'C )C !C ~C {C ]C ^C /C ~i (C _C :C <C [C    ",
"}C |C 1C 2C 3C 4C 5C 6C 7C 8C 9C 0C aC bC UB cC dC eC d4 fC `2 x1 v6 z1 @2 @2 @2 @2 @2 @2 @2 @2 @2 z1 v6 x1 gC hC iC 'o jC kC lC mC nC oC pC qC rC sC tC uC vC wC xg 0| v6 z1 @2 @2 @2 @2 @2 @2 @2 @2 @2 @2 @2 @2 @2 @2 @2 @2 #2 z1 y1 0| xC yC zC AC BC CC DC EC FC GC HC IC JC KC >o x1 v6 z1 #2 @2 @2 @2 @2 @2 @2 z1 A1 x1 LC a} MC NC OC PC QC RC SC TC UC VC WC XC YC ZC `C hj  D .D +D    ",
"@D #D $D %D &D *D =D -D ;D >D ,D 'D )D !D ~D {D ]D ^D /D (D e7 _D :D B| v6 z1 @2 @2 @2 @2 @2 @2 z1 z1 B| 0| c4 <D [D }D |D 1D 2D 3D 4D 5D 6D 7D 8D 9D 0D aD bD cD dD o5 zl z1 @2 @2 @2 @2 @2 @2 @2 @2 @2 @2 @2 @2 @2 @2 @2 @2 #2 z1 x1 o5 eD fD gD hD iD jD kD lD mD F1 aD nD oD $m Fm o5 =n Ca z1 @2 @2 @2 @2 @2 z1 v6 M9 pD >[ qD rD sD tD uD vD wD xD yD zD AD BD CD DD ED FD GD HD ID 5~    ",
"JD KD LD MD ND OD PD QD RD SD TD UD VD WD XD YD ZD `D  E .E +E @E m9 w6 y1 z1 K9 @2 @2 @2 @2 @2 #2 z1 v6 M9 A| @E #E $E %E &E *E =E -E ;E >E ,E 'E )E !E ~E {E Gm Bl Al v6 z1 @2 @2 @2 @2 @2 @2 @2 @2 @2 @2 @2 @2 @2 @2 @2 @2 @2 z1 B| 0| b} ]E ^E /E (E _E :E :E <E iD [E }E |E 1E 2E 8| B| z1 z1 @2 @2 @2 @2 @2 z1 v6 9| c} 3E 4E 5E 6E 7E 8E 9E 0E aE bE cE dE eE fE gE hE iE jE kE lE mE    ",
"nE oE pE qE rE sE tE uE vE wE xE t} yE zE AE BE CE 'n DE EE FE GE c} 0| B| A1 z1 @2 @2 @2 @2 @2 @2 z1 z1 x1 gC HE IE JE KE LE ME NE OE PE ,z QE RE SE TE UE 8B VE WE 0| v6 z1 @2 @2 @2 @2 @2 @2 @2 @2 @2 @2 @2 @2 @2 @2 @2 @2 @2 z1 v6 9| 7| XE YE ZE `E tj  F .F 6E +F @F #F $F =[ xg `2 B| z1 #2 @2 @2 @2 @2 @2 z1 A1 x1 %F D: &F *F y: =F -F ;F >F ,F 'F )F !F ~F {F ]F ^F /F (F _F :F <F    ",
"[F }F Wn |F 1F 2F 3F 4F 5F 6F 7F 8F 9F 0F aF bF cF dF eF fF !4 gF 0B $2 A1 z1 #2 @2 @2 @2 @2 @2 @2 @2 @2 z1 A1 hF 0B iF jF kF lF mF nF oF pF qF rF sF tF uF vF wF $2 A1 #2 @2 @2 @2 @2 @2 @2 @2 @2 @2 @2 @2 @2 @2 @2 @2 @2 @2 @2 @2 #2 A1 $2 xF yF zF AF BF Kp CF DF EF FF GF 9B Oi $2 A1 z1 @2 @2 @2 @2 @2 @2 @2 #2 #2 A1 Y2  x HF Qf IF JF KF LF MF NF OF PF QF RF SF TF UF VF WF XF YF ZF    ",
"`F  G .G +G @G #G $G %G &G *G =G -G ;G >G ,G 'G )G !G ~G {G &[ ]G ^G |5 A1 #2 #2 @2 @2 @2 @2 @2 @2 @2 @2 #2 #2 A1 F0 It /G (G ia =z _G :G :G <G [G }G |G J9 F0 Y2 A1 #2 @2 @2 @2 @2 @2 @2 @2 @2 @2 @2 @2 @2 @2 @2 @2 @2 @2 @2 @2 @2 @2 #2 A1 )4 |5 =e lc wy u6 u6 u6 z7 ;r H0 l9 )4 n5 #2 #2 @2 @2 @2 @2 @2 @2 @2 @2 #2 66 F0 }5 [5 I9 1G EB 2G 3G 4G 5G 6G 7G 8G 9G 0G aG bG cG dG eG fG gG    ",
"hG B- iG e$ jG kG lG mG .& nG l6 oG pG qG rG sG tG hi uG vG wG xG J9 a4 F0 A1 #2 @2 @2 @2 @2 @2 @2 @2 @2 @2 #2 66 )4 56 2e yG wy zG [G AG BG CG DG EG FG ;r 56 F0 A1 #2 @2 @2 @2 @2 @2 @2 @2 @2 @2 @2 @2 @2 @2 @2 @2 @2 @2 @2 @2 @2 @2 #2 #2 )4 F0 m5 ;r b7 GG GG GG HG vb IG F0 66 #2 #2 @2 @2 @2 @2 @2 @2 @2 @2 #2 #2 JG 56 wb Op -g KG LG MG NG OG PG QG RG SG TG UG VG WG XG l= YG 69 ZG    ",
"y^ `G px  H .H +H @H #H $H %H &H *H =H -H ;H >H ,H 'H )H !H ~H {H j8 2e |5 )4 #2 #2 @2 @2 @2 @2 @2 @2 @2 @2 @2 #2 66 )4 56 }5 k9 ]H ^H /H (H _H :H 94 I0 i0 |5 )4 66 #2 @2 @2 @2 @2 @2 @2 @2 @2 @2 @2 @2 @2 @2 @2 @2 @2 @2 @2 @2 @2 @2 @2 #2 n5 F0 l9 }5 46 k9 HG k9 vb Av |5 F0 66 #2 #2 @2 @2 @2 @2 @2 @2 @2 @2 #2 #2 -r IG k9 <H [H }H |H 1H 2H 3H 4H 5H 6H pa 7H 8H d% 9H 0H aH ); bH cH    ",
"dH eH }y fH gH /# hH iH jH kH lH mH nH oH pH qH m^ rH sH tH uH vH wH =u a4 )4 n5 #2 @2 @2 @2 @2 @2 @2 @2 @2 @2 #2 #2 66 )4 |5 IG vb xH yH yH )q I9 C8 l5 m5 |5 n5 #2 #2 @2 @2 @2 @2 @2 @2 @2 @2 @2 @2 @2 @2 @2 @2 @2 @2 @2 @2 @2 @2 @2 @2 #2 #2 )4 |5 56 g8 }5 wb c7 g8 56 F0 )4 66 #2 #2 @2 @2 @2 @2 @2 @2 @2 @2 #2 66 F0 m5 HG )q zH AH BH CH DH EH FH GH n7 HH IH JH KH LH MH NH D~ OH PH    ",
"dH T& QH fH RH K] SH TH UH VH WH XH YH ZH `H ks  I .I +I zm Iy @I _w Us 2e |5 A1 #2 #2 @2 @2 @2 @2 @2 @2 @2 @2 @2 #2 #2 66 F0 |5 m5 vb yG Vs Vs Of 04 }5 |5 )4 66 #2 @2 @2 @2 @2 @2 @2 @2 @2 @2 @2 @2 @2 @2 @2 @2 @2 @2 @2 @2 @2 @2 @2 @2 @2 #2 66 66 -r F0 m5 g8 g8 l9 F0 )4 66 #2 #2 @2 @2 @2 @2 @2 @2 @2 @2 @2 #2 66 F0 }5 ]H #I $I %I &I *I =I -I ;I 95 >I IA ,I 'I )I !I ~I {I ]I ^I /I    ",
"(I _I :I <I [I }I U- B$ |I 1I 2I 4q 3I 4I 5I 6I 7I 8I 9I 0I aI bI cI dI J9 a4 )4 66 #2 @2 @2 @2 @2 @2 @2 @2 @2 @2 #2 #2 #2 A1 F0 56 a4 bz bz bx bz Fr a4 |5 )4 66 #2 @2 @2 @2 @2 @2 @2 @2 @2 @2 @2 @2 @2 @2 @2 @2 @2 @2 @2 @2 @2 @2 @2 @2 @2 #2 #2 66 n5 -r |5 F0 |5 F0 )4 n5 #2 #2 #2 @2 @2 @2 @2 @2 @2 @2 @2 #2 #2 )4 56 =e ed 84 eI fI gI hI Wl iI jI kI lI mI nI 'I oI {I pI qI rI () sI    ",
"tI uI vI wI xI yI Y% !% !h zI V) AI BI CI DI EI FI GI HI II JI KI LI dy wg 2e |5 )4 #2 #2 @2 @2 @2 @2 @2 @2 @2 @2 @2 #2 #2 66 )4 F0 |5 MI 2e ,4 MI kh G0 F0 A1 #2 #2 @2 @2 @2 @2 @2 @2 @2 @2 @2 @2 @2 @2 @2 @2 @2 @2 @2 @2 @2 @2 @2 @2 @2 @2 @2 #2 #2 66 66 )4 66 )4 )4 n5 #2 #2 #2 @2 @2 @2 @2 @2 @2 @2 @2 @2 #2 #2 )4 a4 04 yH NI OI PI QI RI SI TI UI VI WI @/ XI P; YI ZI `I  J .J +J K-    ",
"@J #J $J %J &J *J t~ =J -J ;J >J ,J 'J )J Q; !J ~J {J ]J ^J /J (J _J :J ub A7 <J Y2 A1 #2 @2 @2 @2 @2 @2 @2 @2 @2 @2 #2 #2 A1 )4 F0 [J '4 '4 `w ^G a4 F0 )4 A1 #2 #2 @2 @2 @2 @2 @2 @2 @2 @2 @2 @2 @2 @2 @2 @2 @2 @2 @2 @2 @2 @2 @2 @2 @2 @2 @2 #2 #2 #2 A1 A1 )4 A1 66 #2 #2 #2 #2 @2 @2 @2 @2 @2 @2 @2 @2 @2 #2 n5 F0 Av HG }J tb |J 1J 2J 3J 4J 5J 6J 7J 8J 9J 0J aJ bJ Z) cJ dJ eJ fJ gJ    ",
"hJ iJ jJ I, kJ lJ mJ nJ oJ pJ qJ rJ sJ tJ uJ Q; vJ wJ xJ yJ zJ AJ BJ CJ DJ yG EJ '4 )4 #2 #2 @2 @2 @2 @2 @2 @2 @2 @2 @2 #2 #2 A1 )4 )4 F0 |5 a4 a4 F0 )4 A1 A1 #2 @2 @2 @2 @2 @2 @2 @2 @2 @2 @2 @2 @2 @2 @2 @2 @2 @2 @2 @2 @2 @2 @2 @2 @2 @2 @2 @2 #2 #2 #2 #2 A1 #2 #2 #2 #2 #2 @2 @2 @2 @2 @2 @2 @2 @2 @2 @2 #2 n5 |5 vb b7 ea FJ GJ HJ IJ JJ KJ LJ MJ C] NJ OJ Bs PJ QJ dJ RJ -h SJ TJ 5g    ",
"UJ 8> VJ (g 5; WJ XJ 0& YJ ZJ `J  K .K +K @K 2b #K $K %K &K *K =K -K ;K >K ,K 'K a4 F0 n5 #2 @2 @2 @2 @2 @2 @2 @2 @2 @2 @2 #2 #2 K9 A1 )4 )4 Y2 Y2 )4 A1 76 #2 #2 @2 @2 @2 @2 @2 @2 @2 @2 @2 @2 @2 @2 z1 @2 @2 @2 @2 @2 @2 @2 @2 @2 @2 @2 @2 @2 @2 @2 @2 #2 #2 #2 #2 #2 #2 @2 @2 @2 @2 @2 @2 @2 @2 @2 @2 @2 #2 #2 )4 l9 A7 j9 (x )K !K ~K {K ]K ^K /K (K _K :K <K [K }K cc |K 1K 2K 3K 4K 5K    ",
"6K 7K 8K Kg 9K 0K $H aK bK X) cK dK eK fK gK hK iK jK kK /[ lK mK nK oK pK qK rK 2e )4 A1 #2 #2 @2 @2 @2 @2 @2 @2 @2 @2 @2 @2 #2 #2 #2 #2 66 )4 A1 A1 A1 #2 #2 @2 @2 @2 @2 @2 @2 @2 @2 @2 @2 @2 @2 z1 z1 @2 @2 @2 @2 @2 @2 @2 @2 @2 @2 @2 @2 @2 @2 @2 @2 @2 @2 @2 @2 @2 @2 @2 @2 @2 @2 @2 @2 @2 @2 @2 @2 @2 #2 #2 )4 a4 ;r 4u sK tK uK vK wA wK xK yK zK AK #G BK CK q= DK TH EK SH FK GK HK    ",
"IK F] JK KK LK SH MK NK OK PK QK RK SK TK UK VK WK XK YK ZK `K  L .L +L @L [H #L J9 F0 )4 66 #2 @2 @2 @2 @2 @2 @2 @2 @2 @2 @2 @2 #2 #2 #2 #2 A1 #2 #2 #2 #2 @2 @2 @2 @2 @2 @2 @2 @2 @2 @2 @2 @2 z1 z1 z1 #2 @2 #2 @2 @2 @2 @2 @2 @2 @2 @2 @2 @2 @2 @2 @2 @2 @2 @2 @2 @2 @2 @2 @2 @2 @2 @2 @2 @2 @2 @2 @2 @2 #2 #2 F0 m5 ]H a7 $L %L &L *L =L -L ;L >L ,L 'L )L !L Pr ~L {L u* DK ]L ^L hH /L    ",
"(L _L :L <L [L }L |L 1L .9 2L 3L ud 4L 5L 6L 7L M~ 8L 9L 0L aL bL cL dL eL fL gL hL m5 F0 )4 #2 #2 @2 @2 @2 @2 @2 @2 @2 @2 @2 @2 @2 @2 #2 #2 #2 #2 #2 #2 #2 @2 @2 @2 @2 @2 @2 @2 @2 @2 @2 @2 #2 z1 z1 v6 76 #2 #2 #2 #2 @2 @2 @2 @2 @2 @2 @2 @2 @2 @2 @2 @2 @2 @2 @2 @2 @2 @2 @2 @2 @2 @2 @2 @2 @2 @2 @2 @2 #2 66 F0 vb iL jL kL ,u lL mL nL oL pL qL rL sL hG tL uL vL wL xL yL zL zL AL BL    ",
"n= &^ CL DL EL FL YG GL HL IL 5! @- JL f& KL IK LL ML NL OL PL QL Eh RL SL TL UL VL EJ '4 F0 A1 #2 @2 @2 @2 @2 @2 @2 @2 @2 @2 @2 @2 @2 @2 @2 #2 #2 @2 @2 @2 @2 @2 @2 @2 @2 @2 @2 @2 @2 @2 @2 z1 A1 B| =n z1 #2 #2 #2 #2 @2 @2 @2 @2 @2 @2 @2 @2 @2 @2 @2 @2 @2 @2 @2 @2 @2 @2 @2 @2 @2 @2 @2 @2 @2 @2 @2 #2 #2 -r |5 k9 WL ~v XL YL ZL `L  M .M +M @M #M $M %M &M *M =M -M ;M >M ,M 'M )M !M    ",
"69 ~M {M ]M ^M /M (M VJ _M :M <M [M }M |M bG 1M 2M 3M 4M 5M 6M 7M 8M 9M 0M aM bM cM dM kh Y2 A1 #2 #2 @2 @2 @2 @2 @2 @2 @2 @2 @2 @2 @2 @2 @2 @2 @2 @2 @2 @2 @2 @2 @2 @2 @2 @2 @2 @2 @2 @2 #2 z1 y1 w6 Em A1 A1 A1 A1 #2 #2 @2 @2 @2 @2 @2 @2 @2 @2 @2 @2 @2 @2 @2 @2 @2 @2 @2 @2 @2 @2 @2 @2 @2 @2 @2 @2 #2 #2 )4 56 ew eM fM gM hM iM jM kM lM mM nM oM pM qM rM sM tM uM u( J* C* vM wM O,    ",
"xM yM zM AM BM CM DM @h EM FM }@ GM HM IM JM KM LM MM V< NM OM PM QM RM SM TM UM VM WM zu ni $2 A1 #2 @2 @2 @2 @2 @2 @2 @2 @2 @2 @2 @2 @2 @2 @2 @2 @2 @2 @2 @2 @2 @2 @2 @2 @2 @2 @2 @2 #2 z1 A1 x1 XM YM ,o A1 A1 A1 A1 z1 #2 @2 @2 @2 @2 @2 @2 @2 @2 @2 @2 @2 @2 @2 @2 @2 @2 @2 @2 @2 @2 @2 @2 @2 @2 @2 #2 #2 )4 56 vb (f ZM `M  N .N +N @N #N $N %N &N *N =N -N ;N }$ >N ,N 'N )N !N ~N {N    ",
"]N ^N /N (N _N :N <N [N }N |N 1N 2N 3N 4N 5N 6N 7N 8N 9N 0N aN bN cN dN eN fN gN hN iN 5| 6| pD M9 v6 z1 @2 @2 @2 @2 @2 @2 @2 @2 @2 @2 @2 @2 @2 @2 @2 @2 @2 @2 @2 @2 @2 @2 @2 @2 @2 z1 z1 v6 B| :D jN kN 2E 86 pD 0| =n y1 A1 z1 @2 @2 @2 @2 @2 @2 @2 @2 @2 @2 @2 @2 @2 @2 @2 @2 @2 @2 @2 @2 @2 @2 @2 z1 A1 =n fa 6| lN mN nN oN pN qN rN sN tN uN vN wN xN yN zN AN :N BN CN DN EN FN GN HN    ",
"IN JN KN LN MN NN ON PN QN RN SN TN UN VN c; WN XN YN ZN `N  O .O +O @O #O $O %O tH nD &O *O tk =O x1 A1 #2 @2 @2 @2 @2 @2 @2 @2 @2 @2 @2 @2 @2 @2 @2 @2 @2 @2 @2 @2 @2 @2 @2 @2 z1 z1 v6 M9 -O ;O >O ,O 'O &} *} )O YM w6 B| v6 z1 K9 @2 @2 @2 @2 @2 @2 @2 @2 @2 @2 @2 @2 @2 @2 @2 @2 @2 @2 @2 @2 @2 z1 y1 :D d} !O ~O {O ]O ^O /O (O _O :O <O [O }O |O 1O 2O 3O 4O 5O 6O 7O 8O 9O 0O aO bO    ",
"cO dO eO fO gO hO iO jO kO lO kO kO mO nO oO pO qO rO sO tO uO vO wO xO yO zO AO *E &E %E BO CO DO w6 v6 z1 @2 @2 @2 @2 @2 @2 @2 @2 @2 @2 @2 @2 @2 @2 @2 @2 @2 @2 @2 @2 @2 @2 @2 z1 v6 M9 EO FO *} $m GO HO IO JO `e KO jN :D =n v6 z1 z1 @2 @2 @2 @2 @2 @2 @2 @2 @2 @2 @2 @2 @2 @2 @2 @2 @2 @2 @2 z1 z1 B| LO =} MO NO OO PO QO RO SO TO UO VO WO XO YO ZO `O  P .P +P @P #P $P %P &P *P =P    ",
"-P ;P >P ,P 'P )P !P ~P {P ]P ^P /P (P _P :P <P [P }P |P 1P 2P 3P 4P 5P 6P 7P 8P 9P 0P aP bP IE D| LC B| z1 @2 @2 @2 @2 @2 @2 @2 @2 @2 @2 @2 @2 @2 @2 @2 @2 @2 @2 @2 @2 @2 @2 @2 z1 v6 M9 EO DO *n C< B< Uk cP dP eP fP -[ A| w6 B| A1 z1 @2 @2 @2 @2 @2 @2 @2 @2 @2 @2 @2 @2 @2 @2 @2 @2 @2 @2 @2 z1 v6 0| d7 gP 4E hP iP jP 8P kP lP mP nP oP pP qP rP sP tP uP vP wP xP yP zP AP BP CP DP    ",
"EP FP GP HP IP JP KP LP MP MP NP OP PP QP RP SP TP UP VP WP XP YP ZP `P  Q .Q +Q @Q #Q $Q %Q &Q xC 3c y1 z1 @2 @2 @2 @2 @2 @2 @2 @2 @2 @2 @2 @2 @2 @2 @2 @2 @2 @2 @2 @2 @2 @2 @2 #2 A1 $2 Oi *Q =Q -Q ;Q >Q FC {O ,Q 'Q )Q IB wF $2 A1 #2 @2 @2 @2 @2 @2 @2 @2 @2 @2 @2 @2 @2 @2 @2 @2 @2 @2 @2 @2 z1 zl pD !Q F< AC ~Q {Q ]Q ^Q /Q (Q _Q :Q <Q [Q }Q |Q }N 1Q 1Q 2Q 3Q 4Q 5Q 6Q 7Q 8Q 9Q 0Q    ",
"aQ bQ cQ p3 dQ eQ fQ gQ hQ iQ jQ g. kQ lQ mQ nQ oQ pQ qQ rQ sQ tQ l+ uQ vQ wQ xQ yQ zQ Hh AQ BQ mi /w $2 A1 #2 @2 @2 @2 @2 @2 @2 @2 @2 @2 @2 @2 @2 @2 @2 @2 @2 @2 @2 @2 @2 @2 @2 K9 A1 Y2 ey Dx CQ DQ ki EQ FQ GQ HQ >B FF IQ It F0 A1 #2 #2 @2 @2 @2 @2 @2 @2 @2 @2 @2 @2 @2 @2 @2 @2 @2 @2 @2 @2 z1 A1 B1 JQ KQ LQ MQ NQ OQ PQ QQ RQ SQ TQ UQ VQ WQ XQ YQ ZQ `Q  R .R +R @R #R $R %R &R *R    ",
"=R -R ;R >R ,R 'R )R !R ~R ~R >{ {R ]R ^R /R F; Z> :$ }A (R _R :R <R [R }R |R 1R 2R 3R 4R 5R 6R wu ey Y2 A1 #2 @2 @2 @2 @2 @2 @2 @2 @2 @2 @2 @2 @2 @2 @2 @2 @2 @2 @2 @2 @2 @2 #2 K9 )4 '4 MI bx 7R 8R 9R 0R aR bR cR dR cv >4 J9 a4 F0 n5 #2 @2 @2 @2 @2 @2 @2 @2 @2 @2 @2 @2 @2 @2 @2 @2 @2 @2 @2 z1 A1 Np eR fR gR hR iR jR kR lR mR nR oR pR qR rR sR tR uR vR wR xR yR zR AR BR CR DR ER    ",
"FR GR HR +K IR JR ,a z9 KR LR MR NR OR PR }g W= QR 4L RR SR TR UR /6 VR WR %~ XR YR qc ZR `R 26 oh k9 |5 )4 76 #2 @2 @2 @2 @2 @2 @2 @2 @2 @2 @2 @2 @2 @2 @2 @2 @2 @2 @2 @2 @2 #2 #2 )4 56 k9 1e  S .S da +S @S ~q #S $S %S &S C8 *S Mh F0 66 #2 @2 @2 @2 @2 @2 @2 @2 @2 @2 @2 @2 @2 @2 @2 @2 @2 #2 66 )4 Mh Nh cz =S ]f -S ;S >S Jr ,S Lr 'S )S !S ~S {S ]S ^S /S (S _S :S <S P4 [S }S |S 1S    ",
"YG 2S 3S u, 4S 5S 6S 7S 8S ke 9S 0S aS bS cS dS eS fS gS hS iS jS kS lS mS nS oS pS *A qS <t ~t 4u 04 g8 F0 n5 #2 @2 @2 @2 @2 @2 @2 @2 @2 @2 @2 @2 @2 @2 @2 @2 @2 @2 @2 @2 @2 #2 n5 F0 g8 04 j9 xb $L }e rS rA rA sS tS C6 uS h0 Ze wb a4 )4 66 #2 @2 @2 @2 @2 @2 @2 @2 @2 @2 @2 @2 @2 @2 @2 @2 #2 A1 G0 Fr vS &S wS xS yS F6 FA zS AS BS CS DS ES FS GS HS IS JS KS LS MS MS NS OS PS QS RS    ",
"SS mb TS US VS WS XS 6, YS ZS `S  T .T +T dS !0 -9 @T #T $T %T &T *T =T -T ;T >T ,T 'T )T !T ~T B8 ed i0 |5 A1 #2 @2 @2 @2 @2 @2 @2 @2 @2 @2 @2 @2 @2 @2 @2 @2 @2 @2 @2 @2 @2 #2 A1 |5 i0 =g {T ]T dw zv n0 ^T Wu f0 /T (T _T _t -u =g wb G0 )4 #2 #2 @2 @2 @2 @2 @2 @2 @2 @2 @2 @2 @2 @2 @2 @2 #2 )4 a4 =u A6 :T Tz <T [T }T /{ |T 1T 2T 3T 4T 5T 6T 7T 8T 9T K- K- 0T aT bT cT dT eT dT fT    ",
"3f gT 50 hT iT jT SS kT 0T lT mT 2, /L lT  ] D# nT oT ob pT qT rT sT tT uT vT wT xT yT ,g zT g0 AT pA F8 a4 )4 n5 #2 @2 @2 @2 @2 @2 @2 @2 @2 @2 @2 @2 @2 @2 @2 @2 @2 @2 @2 #2 #2 )4 '4 =u gt cz BT CT DT +( ET FT GT HT IT JT KT :z ea [5 vb |5 A1 #2 @2 @2 @2 @2 @2 @2 @2 @2 @2 @2 @2 @2 @2 #2 n5 F0 Mh F8 LT MT NT !T pp OT oS PT QT RT ST TT nd UT VT WT XT YT YT ZT `T  U .U +U @U ;, #U    ",
"$U %U M6 &U 39 n6 *U =U -U }~ ;U ;U >U ,U 'U )U !U ~U dJ |K {U vc ]U ^U /U {, (U c0 _U :U <U [U ]d }U C8 (d '4 A1 #2 @2 @2 @2 @2 @2 @2 @2 @2 @2 @2 @2 @2 @2 @2 @2 @2 @2 @2 #2 n5 F0 H0 j8 |U -4 1U DT 2U 3U 4U Cg 5U 6U 7U 8U 9U s5 ^d k5 l5 m5 F0 A1 #2 @2 @2 @2 @2 @2 @2 @2 @2 @2 @2 @2 #2 #2 )4 '4 D8 Jq BA Xe 0U aU j7 bU %~ H( cU CS dU eU ge fe fU gU hU N- iU Q- jU KA kU lU mU nU oU    ",
"pU qU zI rU sU tU uU uU dJ vU wU {0 xU -h +7 yU @7 zU AU BU CU DU EU FU GU HU |f d' IU JU KU LU Xu MU mc I0 Mh )4 #2 #2 @2 @2 @2 @2 @2 @2 @2 @2 @2 @2 @2 @2 @2 @2 @2 @2 @2 #2 A1 G0 Fr NU Gz OU ,( PU QU RU SU TU UU VU WU tA 8U @S &g XU 94 l5 m5 F0 A1 #2 #2 @2 @2 @2 @2 @2 @2 @2 @2 #2 #2 n5 G0 2e ss YU Vg My Wu ZU `U |{  V qv CS .V +V @V #V $V %V &V *V bK =V V= -V ;V C5 >V W, ,V 'V    ",
")V !V ~V x* {V ]V 4g ^V &) /V (V _V :V &8 <V [V T6 }V |V 1V 2V 3V @V 4V 5V 6V 7V 8V 9V 0V aV bV cV dd dV C8 i0 |5 A1 #2 @2 @2 @2 @2 @2 @2 @2 @2 @2 @2 @2 @2 @2 @2 @2 @2 @2 #2 A1 '4 J9 7R eV fV gV hV iV jV kV lV mV nV oV sg pV qV rV sV tV .s MI a4 F0 )4 66 #2 @2 @2 @2 @2 @2 @2 #2 #2 )4 l9 m5 I0 uV vV C6 dx 6e wV nt xV yV zV AV BV K- CV s8 DV EV FV GV HV B( sd (^ IV JV fe KV LV L;    ",
"MV NV :; zU OV zU PV QV fJ fJ RV QV RV N6 SV TV GV UV VV ~U WV ZT XV YV ZV `V  W .W +W @W #W $W %W Tz &W Ug 04 a4 )4 #2 #2 @2 @2 @2 @2 @2 @2 @2 @2 @2 @2 @2 @2 @2 @2 @2 @2 #2 F0 kh Us |U &( *W =W -W ;W >W ,W 'W )W !W ~W {W ]W db ^W /W (W _W .s ,4 kh '4 F0 A1 A1 z1 z1 z1 A1 z1 A1 )4 l9 Ts bz :W <W [W }W |W 1W 2W 3W 4W &i 5W FU fK 6W 7W 8W 9W 0W aW bW SJ cW dW eW JV qd fW gW hW 4V    ",
"iW jW kW jW (7 (7 lW mW Oa T0 nW ]A oW pW qW Ec rW /) g{ sW tW uW vW wW xW yW zW AW BW CW DW EW zT FW GW ^t Of H0 G0 A1 #2 @2 @2 @2 @2 @2 @2 @2 @2 @2 @2 @2 @2 @2 @2 @2 #2 A1 '4 ,4 dI HW IW JW KW LW MW NW OW PW QW RW SW TW UW ip VW WW XW YW *r Jq ZW Fr Mh '4 $2 y1 x1 M9 M9 y1 Y2 a4 Fr =r 7R XU KT g9 `W  X .X +X ]y @X #X $X %X &X *X =X -X ;X >X ,X 'X )X !X ~X {X ]X ^X /X (X _X :X    ",
"<X [X }X }X |X X) 1X -U -U ,U ]X 2X >U 3X 4X w> 5X 6X 7X 8X WT ,U 9X 0X aX bX cX cU dX eX fX 9u E6 gX hX iX jX wg H0 F0 z1 #2 @2 @2 @2 @2 @2 @2 @2 @2 @2 @2 @2 @2 @2 @2 #2 66 |5 04 kX %( lX mX nX Oq oX pX qX rX sX o8 tX uX vX wX xX yX zX AX BX /t A6 ss wg J9 It Oi EO CX _D wF Ts *S DX EX &S 9b FX Ny GX HX IX JX KX LX MX ', NX OX PX QX RX SX TX UX VX VX WX PJ XX YX ZX `X  Y .Y +Y    ",
"@Y #Y s8 s8 $Y %Y &Y zI *Y zI =Y =Y ie OK -Y s> ;Y >Y ,Y *Y 1X ,U ,U ,U 9T EU bX GU 'Y )Y !Y ~Y {Y ]Y g9 P9 ^Y :W (d '4 )4 z1 z1 @2 @2 @2 @2 @2 @2 @2 @2 @2 @2 @2 @2 @2 #2 F0 }5 xw /Y (Y @( _Y :Y <Y [Y }Y |Y 1Y H( 2Y 3Y 4Y 5Y 6Y 7Y 8Y 9Y 0Y aY bY cY /t vg >r wu dY a| eY fY -B z6 gY hY iY jY kY lY mY nY oY pY qY rY '~ _, sY !N K] M= tY uY uY n= l= {X *^ l= vY >V wY FK xY yY yY GK    ",
"zY AY BY CY DY EY FY GY $Y :g :g HY IY 2L JY KY LY w> MY NY OY OY PY !h QY }~ RY SY TY UY VY WY XY YY ZY Mf `Y  Z Ze kh Y2 y1 A1 z1 @2 @2 @2 @2 @2 @2 @2 @2 @2 @2 @2 #2 A1 a4 bz aA .Z *W P^ o] +Z @Z ,' #Z $Z %Z 9{ &Z *Z =Z -Z c0 ;Z >Z 1x b8 yX 0Y IT d8 BX ,Z AQ 'Z )Z !Z ~Z {Z 5c ]Z ^Z /Z (Z _Z l] :Z <Z ^u [Z }Z |Z 1Z 2Z 3Z 4Z 5Z 6Z 7Z 8Z 9Z 9Z 'h 0Z aZ vM F$ bZ !% !% !% Y% cZ dZ    ",
"eZ fZ gZ hZ ,a iZ jZ kZ lZ mZ nZ OV oZ pZ qZ rZ sZ tZ uZ vZ vZ wZ wZ NV xZ yZ zZ AZ BZ CZ DZ EZ FZ {x 4U GZ /x HZ IZ jh X2 B1 x1 v6 z1 @2 @2 @2 @2 @2 @2 @2 @2 @2 #2 A1 $2 ey Dz JZ KZ LZ Ns *L MZ NZ OZ PZ QZ RZ SZ Xt TZ UZ VZ WZ XZ Kv YZ ZZ `Z  ` .` /T +` 6c @` #` $` %` &` *` =` -` ;` >` 8u ,` '` )` !` ~` 8w {` ]` ^` E- T% U= J* /` (` _` :` <` [` `{ }` a& |` 1` 2` 3` 4` 5` zU 6`    ",
"7` 8` *^ /g 9` C5 0` a` b` c` d` e` J] f` g` h` i` nG j` k` l` m` n` >A o` p` q` r` s` t` u` v` &s w` x` y` z` A` B` fR C` GB :D Qj zl z1 @2 @2 @2 @2 @2 @2 @2 #2 A1 $2 Pi IQ Lp D` E` F` G` H` I` J` K` L` hB M` N` O` P` Q` <4 R` S` T` S~ U` V` H/ W` X` F/ Y` Z` ``   .. .+ .@ .# .y/ $ .% .& .* .= .- .ot ; .> ., .' .) .! .~ .{ .7@ ] ./8 ^ .E* f& J* / .Vq ;M ( .Wq [L uY _ ./g : .}K    ",
"< .[ .} .| .1 .2 .3 .4 .5 .6 .7 .8 .9 .0 .a .D) b .c .d .e .f .g .h .i .j .k .l .m .n .o .p .q .r .s .t .u .Ii v .w .x .y .z .A .c4 XM v6 z1 #2 #2 @2 #2 z1 z1 v6 x1 `2 &C B .C .D .E .F .G .v: H .I .J .K .L .M .N .O .P .Q .R .S .ij T .U .V .W .X .Y .Z .` . .....+..@..#..$..%..&..*..=..-..;..>..,..'..)..!..~..{..]..^../..(.._..:..<..[..}..|..1..2..3..4..K> 5..6..f. 7..8..9..0..a..   ",
"b..c..c..d..e..f..g..h..i..j..k..l..k..m..n..o..p..q..r..s..t..u..v..w..x..y..z..A..B..C..D..E..F..G..H..I..J..K..L..M..N..O..P..`e [3 o5 x1 v6 v6 v6 v6 zl M9 :D Q..gP R..S..T..U..V..W..X..Y..Z..`.. +..+.bE ++.@+.#+.$+.%+.&+.*+.=+.,@ -+.;+.>+.,+.'+.)+.!+.~+.{+.]+.^+./+.Cn (+._+.:+.<+.[+.}+.|+.1+.2+.3+.4+.5+.6+.7+.8+.9+.0+.a+.b+.c+.d+.e+.f+.g+.h+.i+.j+.k+.l+.m+.n+.$K o+.p+.q+.r+.   ",
"s+.t+.u+.v+.w+.x+.y+.z+.A+.B+.C+.D+.E+.F+.G+.H+._r I+.J+.K+.L+.M+.N+.O+.P+.Q+.R+.S+.T+.U+.V+.W+.X+.Y+.Z+.`+. @..@.+@.@@.#@.$@.%@.$} &@.n9 *@.LC 8| o5 =O =@.Q..-@.;@.B< >@.,@.!} '@.)@.!@.~@.{@.]@.^@./@.(@._@.:@.<@.[@./| }@.|@.1@.2@.3@.4@.5@.6@.7@.8@.9@.0@.a@.b@.c@.d@.e@.f@.g@.h@.i@.j@.k@.l@.m@.n@.o@.p@.q@.r@.s@.t@.u@.v@.w@.x@.y@.z@.A@.B@.C@.D@.E@.F@.G@.H@.I@.J@.K@.L@.M@.N@.O@.P@.   ",
"Q@.R@.S@.T@.U@.V@.W@.X@.Y@.Z@.`@. #..#.+#.@#.##.$#.-D %#.&#.*#.=#.-#.;#.>#.,#.'#.)#.!#.~#.{#.]#.^#./#.(#._#.:#.<#.[#.}#.|#.1#.2#.3#.4#.5#.z| 6#.z| 7#.-n #E [D rD 8#.9#.0#.a#.b#.c#.d#.e#.f#.g#.:@.h#.i#.j#.k#.l#.m#.n#.o#.p#.q#.r#.s#.t#.u#.v#.w#.x#.y#.z#.A#.B#.C#.D#.E#.F#.G#.H#.I#.J#.K#.L#.M#.N#.O#.1l z[ P#.Q#.R#.S#.`# Sm T#.U#.V#.W#.X#.Y#.Z#.`#. $..$.+$.@$.#$.$$.%$.&$.*$.=$.-$.;$.   ",
">$.,$.'$.)$.!$.~$.{$.]$.^$./$.($._$.:$.<$.[$.}$.|$.1$.2$.3$.4$.5$.6$.7$.8$.9$.0$.a$.b$.c$.d$.*| e$.f$.g$.Pm h$.i$.j$.k$.l$.m$.Qv n$.!H )o o$.,Q p$.ZE &F ZE q$.r$.s$.t$.u$.v$.w$.x$.y$.z$.A$.B$.C$.D$.E$.F$.G$.H$.I$.J$.K$.L$.M$.N$.O$.P$.b[ Q$.R$.S$.T$.U$.V$.W$.X$.Y$.Z$.`$. %..%.+%.@%.#%.$%.%%.&%.*%.=%.-%.;%.>%.,%.'%.)%.!%.~%.{%.]%.^%./%.(%._%.:%.<%.[%.}%.|%.1%.2%.3%.4%.5%.6%.7%.8%.   ",
"9%.0%.a%.b%.c%.d%.e%.f%.g%.h%.i%.j%.k%.l%.m%.n%.o%.p%.q%.r%.s%.t%.u%.v%.w%.rE x%.y%.z%.A%.B%.C%.D%.E%.F%.G%.H%.I%.J%.K%.L%.M%.N%.O%.P%.Q%.R%.S%.T%.U%.4_ V%.W%.JF X%.Y%.Z%.`%. &..&.+&.@&.#&.$&.%&.&&.*&.=&.-&.;&.>&.,&.'&.)&.!&.~&.{&.]&.^&.=| /&.(&._&.:&.<&.[&.}&.|&.1&.2&.3&.4&.5&.6&.7&.8&.9&.0&.a&.b&.c&.d&.e&.f&.g&.h&.i&.j&.k&.l&.m&.n&.o&.p&.q&.r&.s&.t&.u&.v&.w&.x&.y&.z&.A&.B&.C&.   ",
"D&.E&.(I F&.G&.H&.I&.J&.K&.L&.M&.N&.O&.P&.Q&.R&.S&.T&.U&.V&.W&.X&.Y&.Z&.`&. *..*.+*.@*._$ #*.$*.%*.&*.**.=*.-*.;*.>*.,*.'*.)*.!*.~*.{*.]*.^*.^*.oK /*.(*._*.:*.<*.[*.}*.|*.1*.2*.3*.4*.5*.6*.7*.8*.9*.0*.a*.b*.c*.d*.e*.f*.g*.h*.i*.j*.k*.l*.m*.n*.o*.p*.q*.r*.s*.t*.u*.v*.w*.x*.y*.z*.A*.}- 4- B*.C*.D*.E*.F*.G*.H*.I*.J*.K*.L*.M*.N*.O*.P*.Q*.R*.S*.T*.U*.V*.W*.X*.Y*.Z*.`*. =..=.+=.kx HU    ",
"@=.#=.Ds 9$ i~ $=.%=.&=.*=.==.-=.;=.>=.,=.'=.)=.!=.~=.{=.]=.^=./=.(=._=.:=.<=.[=.}=.|=.1=.2=.3=.4=.5=.D; 6=.Y! 7=.>w 8=.Bt 9=.0=.eh a=.b=.c=.d=.d=.e=.f=.g=.ZL h=.i=.j=.k=.l=.m=.n=.o=.p=.q=.r=.s=.t=.0( u=.v=.w=.x=.y=.z=.A=.B=.;^ C=.D=.E=.F=.G=.H=.I=.J=.K=.L=.k) M=.N=.O=.P=.Q=.R=.S=.T=.U=.V=.W=.1=.X=.Y=.Z=.`=. -..-.+-.@-.#-.$-.%-.&-.*-.gE =-.--.nU ;-.>-.IK gu ,-.'-.U% )-.Jw !-.~-.   ",
"{-.]-.tY ^-./-.(-._-.:-.<-.[-.}-.|-.1-.2-.3-.4-.5-.6-.7-.8-.9-.0-.a-.b-.c-.d-.e-.f-.g-.h-.i-.j-.k-.Hg l-.m-.MX n-.o-.p-.q-.r-.s-.t-.u-.v-.w-.x-.y-.z-.A-.B-.C-.D-.E-.F-.G-.H-.I-.J-.K-.L-.M-.N-.O-.P-.Q-.R-.S-.T-.U-.V-.W-.X-.Y-.Z-.`-. ;..;.+;.@;.#;.$;.%;.&;.*;.=;.-;.;;.>;.,;.';.);.!;.~;.{;.];.^;./;.(;._;.:;.<;.[;.};.|;.1;.2;.3;.4;.5;.6;.7;.8;.9;.0;.a;.b;.iU 8Z j& R- :a c;.d;.e;.eW    ",
"3=.f;.g;.h;.i;.j;.>, JK k;.l;.m;.n;.o;.p;.q;.r;.s;.t;.u;.v;.w;.x;._@ y;.z;.A;.Yy B;.C;.D;.E;.}a F;.G;.H;.I;.J;.K;.L;.M;.N;.O;.P;.Q;.R;.S;.T;.G6 U;.w8 V;.W;.X;.Y;.Z;.`;. >..>.+>.@>.#>.$>.%>.&>.*>.=>.->.;>.>>.,>.'>.)>.!>.+- rU ~>.{>.]>.^>./>.(>._>.:>.<>.[>.}>.D;.|>.1>.2>.3>.4>.r8 5>.6>.7>.8>.9>.0>.7` a>.b>.c>.c>.d>.e>.f>.g>.&& h>.@o i>.j>.:N k>.l>.m>.n>.o>.p>.9K q>.r>.s>.t>.u>.v>.   ",
"w>.x>.y>.z>.A>.B>.C>.IK B% D>.E>.F>.^> G>.H>.$=.I>.J>.K>.L>.M>.N>.O>.P>.Q>.R>.S>.T>.s0 U>.V>.'-.)9 $G W>.X>.Y>.Z>.`>. ,..,.+,.@,. w #,.$,.%,.&,.*,.2{ =,.fz -,.;,.>,.,,.',.),.!,.~,.{,.],.^,./,.(,._,.:,.<,.[,.},.|,.[I 1,.P- z' 2,.3,.7- 4,.5,.6,.7,.8,.9,.0,.a,.SR b,.c,.d,.e,.f,.g,.h,.6>.i,.j,.k,.l,.m,.n,.o,.p,.+/ q,.r,.s,.t,.u,.v,.w,.x,.y,.z,.A,.B,.C,.D,.E,.F,.G,.H,.rx I,.J,.K,.|,.   ",
"L,.M,.N,.O,. @ P,.Q,.R,.S,.T,.U,.V,.W,.X,.Y,.0$ Z,.`,.@t  '..'.+'.@'.#'.$'.%'.&'.*'.='.-'.;'.>'.,'.eG ''.)'.!'.~'.{'.]'.^'./'.('._'.:'.<'.['.}'.}'.|'.1'.2'.3'.4'.;T 5'.6'.7'.8'.9'.0'.a'.uc b'.c'.d'.e'.m  f'.g'.h'.)9 i'.j$ wI O+ j'.k'.l'.m'.n'.o'.a,.p'.q'.r'.s'.~-.t'.u'.v'.w'.x'.y'.z'.A'.B'.C'.D'.hG E'.F'.G'.H'.I'.J'.K'.d>.L'.M'.N'.O'.P'.Q'.R'.gH S'.^M 8$ T'.U'.V'.W'.X'.Y'.Z'.`'.   ",
" )..).C{ +).@).#).=5 $).rt %).&).*).=).-).;).>).,).').)).!).~)..; {).]).)= ^)./).()._).:).<).[).+> }).|).1).2).3).4).5).6).Yf 7).8).5'.9).0).PT a).sc b).c).d).e).f).g).h).i).j).k).l).m).@U n).o).p).q).r).s).t).u).uM v).w).I= x).y).z).A).B).C).D).+V E).F).x'.G).Y& H).I).J).K).L).M).Rr N).O).P).H).T>.Q).-{ R).S).T).U).V).W).X).Y).Z).`). !.k! .!.+!.@!.n' Ow #!.$!.%!.&!.*!.+).=!.-!.   ",
"JK ;!.>!.,!.,!.'!.)!.!!.~!.{!.(I ]!.^!./!.(!._!.:!.<!.[!. '.}!.|!.1!.2!.O& A;.3!.tf 4!.5!.6!.(# 7!.8!.9!.c` }).$).0!.a!.>A b!.c!.d!.e!.f!.g!.h!.i!.j!.k!.Q) >I P+ l!.m!.n!.o!.p!.q!.r!.s!.t!.u!.v!.!F w!.x!.y!.z!.A!./L LK B!.C!.D!.E!.F!.G!.H!.I!.J!.K!.L!.M!.N!.O!.P!.Q!.R!.st S!.T!.U!.V!.W!.X!.hW Y!.Z!.`!.w%  ~..~.3( +~.@~.W).#~.$~.%~.&~.*~.=~.-~.;~.>~.<y ,~.'~.Es )~.!~.%!.C{ ~~.{~.   ",
"]~.;M ^~./~.(~._~.:~.<~.[~.}~.=d |~.QH 1~.2~.3~.4~.5~.6~.7~.8~.9~.0~.a~.b~.c~.d~.G,.e~.f~.g~.h~.i~.j~.Z'.k~.;$ '$ l~.m~.0X n~.o~.p~.q~.r~.q` s~.t~.u~.v~.w~.x~.y~.r>.s>.st z~.A~.B~.=!.C~.NS D~.E~.F~.G~.H~.I~.JK J~.K~.L~.M~.N~.O~.L4 r4 P~.rU Q~.R~.S~.T~.U~.V~.W~.X~.Y~.Z~.`~. {..{.+{.@{.#{.${.%{.&{.*{.={.-{.;{.q3 >{.;d -{ ,{.'{.){.!{.~{.{{.]{.^{./{.({._{.:{.<{.e3 [{.}{.r' c> 9K [{.   ",
"|{.1{.2{.N% 3{.4{.5{.6{.7{.D!.=!.8{.9{.6a  / B% 0{.a{.b{.c{.d{.e{.f{.g{.h{.i{.+!.z> j{.k{.l{.m{.st n{.Q).S+ o{.G] 2f p{.q{.r{.FR s{.9W t{.~-.u{.v{.w{.x{.y{.z{.A{.B{.QX Y!.C{.x~.D{.E{.G;.{* F{.G{.H{.I{.J{.K{.d` lT L{.M{.N{.O{.P{.Q{.R{.S{.T{.U{.`X V{.W{.X{.Y{.Z{.`{. ]..].+].@].#].$].%].&].*].=].1b 1b -].={.;].>].B>.,].'].)].!].~].{].]].^]./].(]._].:].X'.<].O# [].}].[].[].^;.YX [].   ",
"wI ;; |* |].4{.1].Df tI 2].7{.3].~~.V{.4].5].k~ o' 6].7].8].9].0].a].b].c].d].e].#].f].k{.g].h].3].i].j].().k].I] l].]g ^g s{.m].XT n6 n].o].p].q].r].s].p7 t].aT u].v].w].x].>$ y].z].$w ]M >$ A].B].C].D].E].F].+J pI G].H].I].J].K].L].M].N].M].O].P].Q].R].S].S!.q>.T].|,.U].#]./I 0H V].W].X].j;.U'.Y].-].Z].Z].-].`].g- '].$i  ^..^.+^.@^.#^.$^.%^.&^.Q].*^.t>.=^.aH -^.#].;^.W, [].Z{.   ",
"/g j$ d$ >^.,^.'^.)^.+> F] E{ !^.~^.{^.]^.^^.de /^.(^._^.:^.<^.[^.}^.H).|^.1^.^# 2^.3^.4^.5^.6^.}! E{ 7^.Z; mx Z& 8^.9^.0^.a^.b^.c^.d^.e^.f^.g^.h^.i^.j^.SR k^.od p{.XX l^.m^.x~.n^.o^.p^.q^.3].r^.s^.t^.u^.^y v^.MK w^.x^.P4 y^.z^.A^.B^.rI B^.A^.C^.D^.b].E^.F^.aH U].G^.n- H^.R]./I I^.J^.K^.P# L^.M^.N^.K& O^.P^.Q^.R^.S^.j'.T^.U^.|;.V^.W^.X^.Y^.Z^.`^. /../.+/.@/.V].#].#/.$/.S!.#].%/.   ",
"'A E;.d$ &/..H Iw )^.]^.~^.~^.~^.]^.E{ F] */.=/.8J 5( -/.;/.>/.,/.'/.IK [).KK Jg )/.^L `X !/.~/.J{ ~^.{/.]/.^/.//.(/._/.Wq bZ #- JV :/.</.[/.}/.|/.O% 1/.3f 2/.3/.bT  Y 4/.JK 5/.6/.7/.8/.G% 9/.0/.SD a/.b/.c/.mb d/.e/.e/.f/.g/.h/.;~.P# i/.j/.+!.k/.l/.Q,.m/.n/.#].t>.G^.n- o/.R].#/.p/.A^.B^.Q# q/.r/.O^.P^.r/.s/.r/.t/.u/.v/.w/._= |;.x/.y/.X^.6&.z/.A/.$!.B/.C/.D/.X].^I #/.F{.S!.Z{.^I    ",
"jU SS d$ &/.E/.Iw Yt ~^.}! {^.F/. H G/.Cs H/.I/.J/.5( K/.L/.M/.N/.O/.F/.!^.5^.^;.P/.mT C!.;# Q/.KK |! !N }).R/.#> _L A/.E,.S/.T/.]^ U/.V/.P- QJ W/.X/.~* /g Y/.3/.Z/.z{.Q!.`/.G^.D!.E{  (.L% .(.+(.@(.a/.#(.$(.9` %(.&(.*(.N].|I H^.;~.=(.H= -(.+!.r>.;(.rx !b 7# z> t>.G^.n- o/.R].W].%/./I /I >(.9{.,(.Q^.r/.'(.)(.M^.%@ !(.~(.{(.](.^(./(.((._(.:(.<(.S% n- [(.w].}(.R].|(.#/.^I ^I S!./I    "};
